; generated by Slic3r 1.2.8-dev on 2015-06-05 at 12:47:05

; external perimeters extrusion width = 0.35mm
; perimeters extrusion width = 0.59mm
; infill extrusion width = 0.67mm
; solid infill extrusion width = 0.59mm
; top infill extrusion width = 0.59mm

M107
G28
G92 X0 Y0 Z0 E0
G1 F5000 Y30 X30
G1 X220
G1 F100 E10

G28
G92 X0 Y0 Z0
G1 F4000 X101 Y127
G92 X0 Y0 Z0 E0
G21 ; set units to millimeters
G90 ; use absolute coordinates
M82 ; use absolute distances for extrusion
G92 E0
G1 E-0.70000 F600.00000
G92 E0
G1 Z0.200 F5400.000
G1 Z0.400 F5400.000
G1 X2.015 Y-79.897 F5400.000
G1 Z0.200 F5400.000
G1 E0.70000 F600.00000
G1 X15.129 Y-78.606 E1.09125 F1800.000
G1 X16.104 Y-78.412 E1.12077
G1 X30.173 Y-74.144 E1.55731
G1 X31.092 Y-73.763 E1.58682
G1 X44.058 Y-66.833 E2.02336
G1 X44.885 Y-66.280 E2.05288
G1 X56.250 Y-56.953 E2.48942
G1 X56.953 Y-56.250 E2.51893
G1 X66.280 Y-44.885 E2.95547
G1 X66.833 Y-44.058 E2.98499
G1 X73.763 Y-31.092 E3.42153
G1 X74.144 Y-30.173 E3.45105
G1 X78.412 Y-16.104 E3.88758
G1 X78.606 Y-15.129 E3.91710
G1 X80.047 Y-0.497 E4.35364
G1 X80.047 Y0.497 E4.38316
G1 X78.606 Y15.129 E4.81970
G1 X78.412 Y16.104 E4.84921
G1 X74.144 Y30.173 E5.28575
G1 X73.763 Y31.092 E5.31527
G1 X66.833 Y44.058 E5.75181
G1 X66.280 Y44.885 E5.78132
G1 X56.953 Y56.250 E6.21786
G1 X56.250 Y56.953 E6.24738
G1 X44.885 Y66.280 E6.68392
G1 X44.058 Y66.833 E6.71343
G1 X31.092 Y73.763 E7.14997
G1 X30.173 Y74.144 E7.17949
G1 X16.104 Y78.412 E7.61603
G1 X15.129 Y78.606 E7.64555
G1 X0.497 Y80.047 E8.08208
G1 X-0.497 Y80.047 E8.11160
G1 X-15.129 Y78.606 E8.54814
G1 X-16.104 Y78.412 E8.57765
G1 X-30.173 Y74.144 E9.01419
G1 X-31.092 Y73.763 E9.04371
G1 X-44.058 Y66.833 E9.48025
G1 X-44.885 Y66.280 E9.50976
G1 X-56.250 Y56.953 E9.94630
G1 X-56.953 Y56.250 E9.97582
G1 X-66.280 Y44.885 E10.41236
G1 X-66.833 Y44.058 E10.44188
G1 X-73.763 Y31.092 E10.87842
G1 X-74.144 Y30.173 E10.90793
G1 X-78.412 Y16.104 E11.34447
G1 X-78.606 Y15.129 E11.37399
G1 X-80.047 Y0.497 E11.81053
G1 X-80.047 Y-0.497 E11.84004
G1 X-78.606 Y-15.129 E12.27658
G1 X-78.412 Y-16.104 E12.30610
G1 X-74.144 Y-30.173 E12.74264
G1 X-73.763 Y-31.092 E12.77216
G1 X-66.833 Y-44.058 E13.20869
G1 X-66.280 Y-44.885 E13.23821
G1 X-56.953 Y-56.250 E13.67475
G1 X-56.250 Y-56.953 E13.70427
G1 X-44.885 Y-66.280 E14.14081
G1 X-44.058 Y-66.833 E14.17032
G1 X-31.092 Y-73.763 E14.60686
G1 X-30.173 Y-74.144 E14.63638
G1 X-16.104 Y-78.412 E15.07292
G1 X-15.129 Y-78.606 E15.10243
G1 X-0.497 Y-80.047 E15.53897
G1 X0.497 Y-80.047 E15.56849
G1 X1.963 Y-79.902 E15.61222
G1 X1.980 Y-79.542 F5400.000
G1 X15.094 Y-78.250 E16.00347 F1800.000
G1 X16.000 Y-78.070 E16.03091
G1 X30.070 Y-73.802 E16.46745
G1 X30.923 Y-73.448 E16.49489
G1 X43.890 Y-66.518 E16.93142
G1 X44.658 Y-66.004 E16.95886
G1 X56.024 Y-56.677 E17.39540
G1 X56.677 Y-56.024 E17.42284
G1 X66.004 Y-44.658 E17.85938
G1 X66.518 Y-43.890 E17.88682
G1 X73.448 Y-30.923 E18.32336
G1 X73.802 Y-30.070 E18.35080
G1 X78.070 Y-16.000 E18.78733
G1 X78.250 Y-15.094 E18.81477
G1 X79.691 Y-0.462 E19.25131
G1 X79.691 Y0.462 E19.27875
G1 X78.250 Y15.094 E19.71529
G1 X78.070 Y16.000 E19.74273
G1 X73.802 Y30.070 E20.17926
G1 X73.448 Y30.923 E20.20670
G1 X66.518 Y43.890 E20.64324
G1 X66.004 Y44.658 E20.67068
G1 X56.677 Y56.024 E21.10722
G1 X56.024 Y56.677 E21.13466
G1 X44.658 Y66.004 E21.57120
G1 X43.890 Y66.518 E21.59864
G1 X30.924 Y73.448 E22.03517
G1 X30.070 Y73.802 E22.06261
G1 X16.000 Y78.070 E22.49915
G1 X15.094 Y78.250 E22.52659
G1 X0.462 Y79.691 E22.96313
G1 X-0.462 Y79.691 E22.99057
G1 X-15.094 Y78.250 E23.42710
G1 X-16.000 Y78.070 E23.45454
G1 X-30.070 Y73.802 E23.89108
G1 X-30.923 Y73.449 E23.91852
G1 X-43.890 Y66.518 E24.35506
G1 X-44.658 Y66.004 E24.38250
G1 X-56.024 Y56.677 E24.81903
G1 X-56.677 Y56.024 E24.84647
G1 X-66.004 Y44.658 E25.28301
G1 X-66.518 Y43.890 E25.31045
G1 X-73.448 Y30.924 E25.74699
G1 X-73.802 Y30.070 E25.77443
G1 X-78.070 Y16.000 E26.21097
G1 X-78.250 Y15.094 E26.23841
G1 X-79.691 Y0.462 E26.67494
G1 X-79.691 Y-0.462 E26.70238
G1 X-78.250 Y-15.094 E27.13892
G1 X-78.070 Y-16.000 E27.16636
G1 X-73.802 Y-30.070 E27.60290
G1 X-73.449 Y-30.923 E27.63034
G1 X-66.518 Y-43.890 E28.06688
G1 X-66.004 Y-44.658 E28.09431
G1 X-56.677 Y-56.024 E28.53085
G1 X-56.024 Y-56.677 E28.55829
G1 X-44.658 Y-66.004 E28.99483
G1 X-43.890 Y-66.518 E29.02227
G1 X-30.924 Y-73.448 E29.45881
G1 X-30.070 Y-73.802 E29.48625
G1 X-16.000 Y-78.070 E29.92279
G1 X-15.094 Y-78.250 E29.95022
G1 X-0.462 Y-79.691 E30.38676
G1 X0.462 Y-79.691 E30.41420
G1 X1.928 Y-79.547 E30.45793
G1 X1.945 Y-79.187 F5400.000
G1 X15.059 Y-77.895 E30.84918 F1800.000
G1 X15.897 Y-77.728 E30.87454
G1 X29.966 Y-73.460 E31.31108
G1 X30.755 Y-73.134 E31.33644
G1 X43.722 Y-66.203 E31.77298
G1 X44.432 Y-65.728 E31.79834
G1 X55.797 Y-56.401 E32.23488
G1 X56.401 Y-55.797 E32.26024
G1 X65.728 Y-44.432 E32.69678
G1 X66.203 Y-43.722 E32.72214
G1 X73.134 Y-30.755 E33.15868
G1 X73.460 Y-29.966 E33.18404
G1 X77.728 Y-15.897 E33.62057
G1 X77.895 Y-15.059 E33.64594
G1 X79.336 Y-0.427 E34.08247
G1 X79.336 Y0.427 E34.10783
G1 X77.895 Y15.059 E34.54437
G1 X77.728 Y15.897 E34.56973
G1 X73.460 Y29.966 E35.00627
G1 X73.134 Y30.755 E35.03163
G1 X66.203 Y43.722 E35.46817
G1 X65.728 Y44.432 E35.49353
G1 X56.401 Y55.797 E35.93007
G1 X55.797 Y56.401 E35.95543
G1 X44.432 Y65.728 E36.39197
G1 X43.722 Y66.203 E36.41733
G1 X30.755 Y73.134 E36.85387
G1 X29.966 Y73.460 E36.87923
G1 X15.897 Y77.728 E37.31577
G1 X15.059 Y77.895 E37.34113
G1 X0.427 Y79.336 E37.77766
G1 X-0.427 Y79.336 E37.80302
G1 X-15.059 Y77.895 E38.23956
G1 X-15.896 Y77.728 E38.26492
G1 X-29.966 Y73.460 E38.70146
G1 X-30.755 Y73.134 E38.72682
G1 X-43.722 Y66.203 E39.16336
G1 X-44.432 Y65.728 E39.18872
G1 X-55.797 Y56.401 E39.62526
G1 X-56.401 Y55.797 E39.65062
G1 X-65.728 Y44.432 E40.08716
G1 X-66.203 Y43.722 E40.11252
G1 X-73.134 Y30.755 E40.54905
G1 X-73.460 Y29.966 E40.57441
G1 X-77.728 Y15.897 E41.01095
G1 X-77.895 Y15.059 E41.03631
G1 X-79.336 Y0.427 E41.47285
G1 X-79.336 Y-0.427 E41.49821
G1 X-77.895 Y-15.059 E41.93475
G1 X-77.728 Y-15.897 E41.96011
G1 X-73.460 Y-29.966 E42.39665
G1 X-73.134 Y-30.755 E42.42201
G1 X-66.203 Y-43.722 E42.85855
G1 X-65.728 Y-44.432 E42.88391
G1 X-56.401 Y-55.797 E43.32045
G1 X-55.797 Y-56.401 E43.34581
G1 X-44.432 Y-65.728 E43.78235
G1 X-43.722 Y-66.203 E43.80771
G1 X-30.755 Y-73.134 E44.24425
G1 X-29.966 Y-73.460 E44.26961
G1 X-15.897 Y-77.728 E44.70614
G1 X-15.059 Y-77.895 E44.73151
G1 X-0.427 Y-79.336 E45.16804
G1 X0.427 Y-79.336 E45.19340
G1 X1.893 Y-79.192 E45.23713
G1 E44.53713 F600.00000
G92 E0
G1 Z0.400 F5400.000
G1 X-28.061 Y-67.744 F5400.000
G1 Z0.200 F5400.000
G1 E0.70000 F600.00000
G1 X-14.305 Y-71.917 E1.12679 F720.000
G1 X-0.000 Y-73.326 E1.55359
G1 X14.305 Y-71.917 E1.98038
G1 X28.061 Y-67.744 E2.40718
G1 X40.738 Y-60.968 E2.83397
G1 X51.849 Y-51.849 E3.26077
G1 X60.968 Y-40.738 E3.68756
G1 X67.744 Y-28.061 E4.11436
G1 X71.917 Y-14.305 E4.54115
G1 X73.326 Y0.000 E4.96795
G1 X71.917 Y14.305 E5.39474
G1 X67.744 Y28.061 E5.82154
G1 X60.968 Y40.738 E6.24833
G1 X51.849 Y51.849 E6.67512
G1 X40.738 Y60.968 E7.10192
G1 X28.061 Y67.744 E7.52871
G1 X14.305 Y71.917 E7.95551
G1 X-0.000 Y73.326 E8.38230
G1 X-14.305 Y71.917 E8.80909
G1 X-28.061 Y67.744 E9.23589
G1 X-40.738 Y60.968 E9.66268
G1 X-51.849 Y51.849 E10.08948
G1 X-60.968 Y40.738 E10.51627
G1 X-67.744 Y28.061 E10.94307
G1 X-71.917 Y14.305 E11.36986
G1 X-73.326 Y0.000 E11.79666
G1 X-71.917 Y-14.305 E12.22345
G1 X-67.744 Y-28.061 E12.65025
G1 X-60.968 Y-40.738 E13.07704
G1 X-51.849 Y-51.849 E13.50384
G1 X-40.738 Y-60.968 E13.93063
G1 X-28.107 Y-67.720 E14.35587
G1 X-28.624 Y-69.105 F5400.000
G1 X-14.593 Y-73.362 E14.79124 F720.000
G1 X-0.000 Y-74.799 E15.22661
G1 X14.593 Y-73.362 E15.66197
G1 X28.624 Y-69.105 E16.09734
G1 X41.556 Y-62.193 E16.53271
G1 X52.891 Y-52.891 E16.96808
G1 X62.193 Y-41.556 E17.40345
G1 X69.105 Y-28.624 E17.83882
G1 X73.362 Y-14.593 E18.27419
G1 X74.799 Y0.000 E18.70956
G1 X73.362 Y14.593 E19.14492
G1 X69.105 Y28.624 E19.58029
G1 X62.193 Y41.556 E20.01566
G1 X52.891 Y52.891 E20.45103
G1 X41.556 Y62.193 E20.88640
G1 X28.624 Y69.105 E21.32177
G1 X14.593 Y73.362 E21.75714
G1 X-0.000 Y74.799 E22.19251
G1 X-14.592 Y73.362 E22.62787
G1 X-28.624 Y69.105 E23.06324
G1 X-41.556 Y62.193 E23.49861
G1 X-52.891 Y52.891 E23.93398
G1 X-62.193 Y41.556 E24.36935
G1 X-69.105 Y28.624 E24.80471
G1 X-73.362 Y14.593 E25.24008
G1 X-74.799 Y0.000 E25.67545
G1 X-73.362 Y-14.593 E26.11082
G1 X-69.105 Y-28.624 E26.54619
G1 X-62.193 Y-41.556 E26.98156
G1 X-52.891 Y-52.891 E27.41693
G1 X-41.556 Y-62.193 E27.85230
G1 X-28.671 Y-69.081 E28.28611
G1 X-52.680 Y-52.680 F5400.000
G1 X-41.390 Y-61.945 E28.72003 F1800.000
G1 X-28.510 Y-68.830 E29.15395
G1 X-14.534 Y-73.069 E29.58787
G1 X-0.000 Y-74.501 E30.02179
G1 X14.534 Y-73.069 E30.45571
G1 X28.510 Y-68.830 E30.88963
G1 X41.390 Y-61.945 E31.32355
G1 X52.680 Y-52.680 E31.75747
G1 X61.945 Y-41.390 E32.19139
G1 X68.830 Y-28.510 E32.62531
G1 X73.069 Y-14.534 E33.05923
G1 X74.501 Y0.000 E33.49315
G1 X73.069 Y14.534 E33.92707
G1 X68.830 Y28.510 E34.36099
G1 X61.945 Y41.390 E34.79491
G1 X52.680 Y52.680 E35.22883
G1 X41.390 Y61.945 E35.66275
G1 X28.510 Y68.830 E36.09667
G1 X14.534 Y73.069 E36.53059
G1 X-0.000 Y74.501 E36.96451
G1 X-14.534 Y73.069 E37.39843
G1 X-28.510 Y68.830 E37.83235
G1 X-41.390 Y61.945 E38.26627
G1 X-52.680 Y52.680 E38.70019
G1 X-61.945 Y41.390 E39.13411
G1 X-68.830 Y28.510 E39.56803
G1 X-73.069 Y14.534 E40.00195
G1 X-74.501 Y0.000 E40.43587
G1 X-73.069 Y-14.534 E40.86979
G1 X-68.830 Y-28.510 E41.30371
G1 X-61.945 Y-41.390 E41.73763
G1 X-52.713 Y-52.639 E42.16999
G1 X-52.060 Y-52.060 F5400.000
G1 X-40.904 Y-61.216 E42.59881 F1800.000
G1 X-28.175 Y-68.020 E43.02763
G1 X-14.363 Y-72.210 E43.45644
G1 X-0.000 Y-73.624 E43.88526
G1 X14.363 Y-72.210 E44.31408
G1 X28.175 Y-68.020 E44.74290
G1 X40.904 Y-61.216 E45.17172
G1 X52.060 Y-52.060 E45.60053
G1 X61.216 Y-40.904 E46.02935
G1 X68.020 Y-28.175 E46.45817
G1 X72.210 Y-14.363 E46.88698
G1 X73.624 Y0.000 E47.31580
G1 X72.210 Y14.363 E47.74462
G1 X68.020 Y28.175 E48.17344
G1 X61.216 Y40.904 E48.60225
G1 X52.060 Y52.060 E49.03107
G1 X40.904 Y61.216 E49.45989
G1 X28.175 Y68.020 E49.88871
G1 X14.363 Y72.210 E50.31752
G1 X-0.000 Y73.624 E50.74634
G1 X-14.363 Y72.210 E51.17515
G1 X-28.175 Y68.020 E51.60397
G1 X-40.903 Y61.217 E52.03279
G1 X-52.060 Y52.060 E52.46161
G1 X-61.216 Y40.904 E52.89042
G1 X-68.020 Y28.175 E53.31924
G1 X-72.210 Y14.363 E53.74806
G1 X-73.624 Y0.000 E54.17688
G1 X-72.210 Y-14.363 E54.60569
G1 X-68.020 Y-28.175 E55.03451
G1 X-61.217 Y-40.904 E55.46333
G1 X-52.094 Y-52.020 E55.89059
M106 S147.9
G1 E55.19059 F600.00000
G92 E0
G1 Z0.400 F5400.000
G1 X-28.051 Y-67.721 F5400.000
G1 Z0.350 F5400.000
G1 E0.70000 F600.00000
G1 X-14.300 Y-71.892 E0.98480 F1440.000
G1 X-0.000 Y-73.301 E1.26959
G1 X14.300 Y-71.892 E1.55439
G1 X28.051 Y-67.721 E1.83918
G1 X40.724 Y-60.947 E2.12398
G1 X51.832 Y-51.832 E2.40877
G1 X60.947 Y-40.724 E2.69357
G1 X67.721 Y-28.051 E2.97837
G1 X71.892 Y-14.300 E3.26316
G1 X73.301 Y0.000 E3.54796
G1 X71.892 Y14.300 E3.83275
G1 X67.721 Y28.051 E4.11755
G1 X60.947 Y40.724 E4.40234
G1 X51.832 Y51.832 E4.68714
G1 X40.724 Y60.947 E4.97194
G1 X28.051 Y67.721 E5.25673
G1 X14.300 Y71.892 E5.54153
G1 X-0.000 Y73.301 E5.82632
G1 X-14.300 Y71.892 E6.11112
G1 X-28.051 Y67.721 E6.39591
G1 X-40.724 Y60.947 E6.68071
G1 X-51.831 Y51.832 E6.96550
G1 X-60.947 Y40.724 E7.25030
G1 X-67.721 Y28.051 E7.53510
G1 X-71.892 Y14.300 E7.81989
G1 X-73.301 Y0.000 E8.10469
G1 X-71.892 Y-14.300 E8.38948
G1 X-67.721 Y-28.051 E8.67428
G1 X-60.947 Y-40.724 E8.95907
G1 X-51.832 Y-51.831 E9.24387
G1 X-40.724 Y-60.947 E9.52867
G1 X-28.097 Y-67.696 E9.81242
G1 X-28.634 Y-69.129 F5400.000
G1 X-14.598 Y-73.386 E10.10314 F1440.000
G1 X-0.000 Y-74.824 E10.39385
G1 X14.597 Y-73.386 E10.68457
G1 X28.634 Y-69.129 E10.97528
G1 X41.570 Y-62.214 E11.26599
G1 X52.909 Y-52.909 E11.55671
G1 X62.214 Y-41.570 E11.84742
G1 X69.129 Y-28.634 E12.13814
G1 X73.386 Y-14.597 E12.42885
G1 X74.824 Y0.000 E12.71957
G1 X73.386 Y14.597 E13.01028
G1 X69.129 Y28.634 E13.30099
G1 X62.214 Y41.570 E13.59171
G1 X52.909 Y52.909 E13.88242
G1 X41.570 Y62.214 E14.17314
G1 X28.634 Y69.129 E14.46385
G1 X14.597 Y73.386 E14.75457
G1 X-0.000 Y74.824 E15.04528
G1 X-14.597 Y73.386 E15.33599
G1 X-28.634 Y69.129 E15.62671
G1 X-41.570 Y62.214 E15.91742
G1 X-52.909 Y52.909 E16.20814
G1 X-62.214 Y41.570 E16.49885
G1 X-69.128 Y28.634 E16.78956
G1 X-73.386 Y14.598 E17.08028
G1 X-74.824 Y0.000 E17.37099
G1 X-73.386 Y-14.597 E17.66171
G1 X-69.129 Y-28.634 E17.95242
G1 X-62.214 Y-41.570 E18.24314
G1 X-52.909 Y-52.909 E18.53385
G1 X-41.570 Y-62.214 E18.82456
G1 X-28.680 Y-69.104 E19.11424
G1 X-28.591 Y-68.258 F5400.000
G1 X-28.190 Y-68.151 E19.13085 F3600.000
G1 X-30.240 Y-67.063 E19.22366
G1 X-29.211 Y-68.092 E19.28188
G1 X-29.262 Y-68.281 E19.28969
G1 X-28.681 Y-68.591 E19.31604
G1 X-28.591 Y-68.258 E19.32984
G1 X-31.510 Y-66.384 F5400.000
G1 X-35.488 Y-64.258 E19.51025 F3600.000
G1 X-35.651 Y-64.866 E19.53542
G1 X-32.376 Y-66.616 E19.68394
G1 X-31.510 Y-66.384 E19.71980
G1 X-36.069 Y-63.948 F5400.000
G1 X-40.135 Y-61.774 E19.90421 F3600.000
G1 X-40.298 Y-62.382 E19.92938
G1 X-36.232 Y-64.555 E20.11379
G1 X-36.069 Y-63.948 E20.13896
G1 X-40.716 Y-61.464 F5400.000
G1 X-40.976 Y-61.325 E20.15077 F3600.000
G1 X-43.758 Y-59.041 E20.29474
G1 X-44.486 Y-59.237 E20.32489
G1 X-41.318 Y-61.837 E20.48884
G1 X-40.879 Y-62.072 E20.50877
G1 X-40.716 Y-61.464 E20.53394
G1 X-46.720 Y-56.611 F5400.000
G1 X-47.264 Y-56.164 E20.56211 F3600.000
G1 X-47.438 Y-56.814 E20.58902
G1 X-46.894 Y-57.261 E20.61719
G1 X-46.720 Y-56.611 E20.64410
G1 X-51.074 Y-53.037 F5400.000
G1 X-52.152 Y-52.152 E20.69988 F3600.000
G1 X-53.163 Y-50.920 E20.76362
G1 X-53.264 Y-51.296 E20.77917
G1 X-51.693 Y-52.867 E20.86805
G1 X-51.793 Y-53.240 E20.88350
G1 X-51.249 Y-53.687 E20.91167
G1 X-51.074 Y-53.037 E20.93858
G1 X-53.664 Y-50.311 F5400.000
G1 X-56.726 Y-46.579 E21.13165 F3600.000
G1 X-57.358 Y-46.749 E21.15781
G1 X-57.363 Y-46.769 E21.15865
G1 X-53.859 Y-51.039 E21.37960
G1 X-53.664 Y-50.311 E21.40975
G1 X-59.171 Y-43.601 F5400.000
G1 X-59.671 Y-42.991 E21.44131 F3600.000
G1 X-59.866 Y-43.719 E21.47147
G1 X-59.366 Y-44.329 E21.50303
G1 X-59.171 Y-43.601 E21.53319
G1 X-61.854 Y-39.985 F5400.000
G1 X-64.338 Y-35.338 E21.74395 F3600.000
G1 X-64.946 Y-35.501 E21.76911
G1 X-62.462 Y-40.148 E21.97987
G1 X-61.854 Y-39.985 E22.00504
G1 X-66.498 Y-31.297 F5400.000
G1 X-66.941 Y-30.469 E22.04257 F3600.000
G1 X-67.173 Y-31.335 E22.07843
G1 X-66.730 Y-32.163 E22.11596
G1 X-66.498 Y-31.297 E22.15182
G1 X-68.140 Y-28.225 F5400.000
G1 X-68.242 Y-27.891 E22.16578 F3600.000
G1 X-68.489 Y-28.814 E22.20401
G1 X-67.063 Y-30.240 E22.28468
G1 X-68.140 Y-28.225 E22.37610
G1 X-68.594 Y-26.728 F5400.000
G1 X-69.312 Y-24.363 E22.47497 F3600.000
G1 X-69.817 Y-23.858 E22.50356
G1 X-69.652 Y-23.241 E22.52908
G1 X-70.005 Y-22.079 E22.57766
G1 X-70.305 Y-23.200 E22.62408
G1 X-68.895 Y-27.849 E22.81842
G1 X-68.594 Y-26.728 E22.86484
G1 X-71.062 Y-18.592 F5400.000
G1 X-71.145 Y-18.901 E22.87765 F3600.000
G1 X-70.892 Y-19.155 E22.89199
G1 X-71.062 Y-18.592 E22.91551
G1 X-71.415 Y-17.430 F5400.000
G1 X-72.337 Y-14.389 E23.04263 F3600.000
G1 X-72.371 Y-14.047 E23.05636
G1 X-72.473 Y-13.945 E23.06214
G1 X-72.406 Y-13.693 E23.07256
G1 X-72.584 Y-11.881 E23.14539
G1 X-73.035 Y-13.562 E23.21498
G1 X-72.941 Y-14.509 E23.25305
G1 X-71.715 Y-18.551 E23.42200
G1 X-71.415 Y-17.430 E23.46841
G1 X-73.120 Y-6.445 F5400.000
G1 X-73.570 Y-8.125 E23.53800 F3600.000
G1 X-73.451 Y-9.339 E23.58680
G1 X-72.768 Y-10.022 E23.62543
G1 X-73.120 Y-6.445 E23.76922
G1 X-73.558 Y-5.603 F5400.000
G1 X-73.847 Y-5.315 E23.78555 F3600.000
G1 X-73.749 Y-6.313 E23.82569
G1 X-73.558 Y-5.603 E23.85509
G1 X-74.267 Y-0.813 F5400.000
G1 X-73.690 Y-0.658 E23.87899 F3600.000
G1 X-73.755 Y0.000 E23.90544
G1 X-73.198 Y5.656 E24.13279
G1 X-73.449 Y4.719 E24.17161
G1 X-73.918 Y4.593 E24.19104
G1 X-74.370 Y0.000 E24.37565
G1 X-74.284 Y-0.877 E24.41089
G1 X-74.267 Y-0.813 E24.41355
G1 X-72.479 Y12.947 F5400.000
