; generated by Slic3r 1.2.0 on 2014-08-29 at 10:39:54

; external perimeters extrusion width = 0.35mm
; perimeters extrusion width = 0.48mm
; infill extrusion width = 0.48mm
; solid infill extrusion width = 0.48mm
; top infill extrusion width = 0.48mm

G21 ; set units to millimeters
M107
G28
G92 X0 Y0 Z0 E0
G1 F5000 Y30 X30
G1 X220
G1 F100 E10

G28
G92 X0 Y0 Z0
G1 F4000 X101 Y127
G92 X0 Y0 Z0 E0
G90 ; use absolute coordinates
G92 E0
M82 ; use absolute distances for extrusion
G1 F600.000 E-0.70000
G92 E0
G1 Z0.400 F5400.000
G1 X6.156 Y18.709 F5400.000
G1 Z0.200 F5400.000
G1 E0.70000 F600.000
G1 X4.869 Y19.132 E0.74025 F1800.000
G1 X0.994 Y20.213 E0.85970
G1 X-3.018 Y20.517 E0.97915
G1 X-7.012 Y20.033 E1.09860
G1 X-10.368 Y18.996 E1.20290
G1 X-33.653 Y9.650 E1.94788
G1 X-35.261 Y8.579 E2.00524
G1 X-36.303 Y6.953 E2.06259
G1 X-36.612 Y5.275 E2.11322
G1 X-36.612 Y-5.275 E2.42649
G1 X-36.216 Y-7.166 E2.48384
G1 X-35.095 Y-8.739 E2.54119
G1 X-33.654 Y-9.650 E2.59183
G1 X-9.981 Y-19.132 E3.34899
G1 X-6.106 Y-20.213 E3.46844
G1 X-3.029 Y-20.516 E3.56022
G1 X-2.094 Y-20.517 E3.58799
G1 X0.982 Y-20.214 E3.67976
G1 X1.900 Y-20.033 E3.70755 F1800.000
G1 X4.974 Y-19.099 E3.80294
G1 X33.371 Y-9.753 E4.69058
G1 X35.043 Y-8.786 E4.74793
G1 X36.187 Y-7.230 E4.80529
G1 X36.612 Y-5.275 E4.86467
G1 X36.612 Y5.275 E5.17793
G1 X36.216 Y7.166 E5.23528
G1 X35.095 Y8.739 E5.29264
G1 X33.371 Y9.753 E5.35202
G1 X6.206 Y18.692 E6.20113
G1 X6.095 Y18.353 F5400.000
G1 X4.765 Y18.791 E6.24269 F1800.000
G1 X0.959 Y19.858 E6.36007
G1 X-2.983 Y20.162 E6.47745
G1 X-6.908 Y19.691 E6.59482
G1 X-10.235 Y18.665 E6.69820
G1 X-33.520 Y9.319 E7.44318
G1 X-35.056 Y8.276 E7.49830
G1 X-36.019 Y6.689 E7.55341
G1 X-36.255 Y5.275 E7.59597
G1 X-36.255 Y-5.275 E7.90923
G1 X-35.859 Y-7.089 E7.96434
G1 X-34.745 Y-8.573 E8.01946
G1 X-33.520 Y-9.319 E8.06202
G1 X-9.877 Y-18.791 E8.81826
G1 X-6.071 Y-19.858 E8.93564
G1 X-2.994 Y-20.161 E9.02741
G1 X-2.129 Y-20.162 E9.05311
G1 X0.947 Y-19.859 E9.14488
G1 X1.796 Y-19.691 E9.17058 F1800.000
G1 X4.862 Y-18.760 E9.26573
G1 X33.260 Y-9.414 E10.15337
G1 X34.859 Y-8.471 E10.20848
G1 X35.920 Y-6.949 E10.26360
G1 X36.255 Y-5.275 E10.31427
G1 X36.255 Y5.275 E10.62753
G1 X35.859 Y7.089 E10.68264
G1 X34.745 Y8.573 E10.73776
G1 X33.260 Y9.414 E10.78842
G1 X6.145 Y18.337 E11.63598
G1 F600.000 E10.93598
G92 E0
G1 Z0.400 F5400.000
G1 X23.522 Y2.684 F5400.000
G1 Z0.200 F5400.000
G1 E0.70000 F600.000
G1 X23.059 Y2.119 E0.72168 F900.000
G1 X22.744 Y1.529 E0.74156
G1 X22.503 Y0.777 E0.76501
G1 X22.431 Y0.050 E0.78669
G1 X22.503 Y-0.677 E0.80837
G1 X22.715 Y-1.376 E0.83005
G1 X23.059 Y-2.020 E0.85174
G1 X23.484 Y-2.537 E0.87161
G1 X24.087 Y-3.047 E0.89507
G1 X24.731 Y-3.391 E0.91675
G1 X25.430 Y-3.603 E0.93843
G1 X26.156 Y-3.675 E0.96011
G1 X26.823 Y-3.609 E0.97999
G1 X27.582 Y-3.391 E1.00344 F900.000
G1 X28.226 Y-3.047 E1.02512
G1 X28.790 Y-2.584 E1.04680
G1 X29.254 Y-2.020 E1.06848
G1 X29.615 Y-1.317 E1.09193
G1 X29.810 Y-0.677 E1.11181
G1 X29.881 Y0.050 E1.13349
G1 X29.810 Y0.777 E1.15518
G1 X29.598 Y1.475 E1.17686
G1 X29.254 Y2.119 E1.19854
G1 X28.790 Y2.684 E1.22022
G1 X28.226 Y3.147 E1.24190
G1 X27.582 Y3.491 E1.26358
G1 X26.883 Y3.703 E1.28526
G1 X26.157 Y3.775 E1.30694
G1 X25.430 Y3.703 E1.32863
G1 X24.731 Y3.491 E1.35030
G1 X24.087 Y3.147 E1.37199
G1 X23.563 Y2.717 E1.39211
G1 X23.790 Y2.441 F5400.000
G1 X23.358 Y1.920 E1.41221 F720.000
G1 X23.046 Y1.338 E1.43180
G1 X22.855 Y0.707 E1.45139
G1 X22.790 Y0.050 E1.47099
G1 X22.855 Y-0.607 E1.49058
G1 X23.046 Y-1.238 E1.51017
G1 X23.358 Y-1.820 E1.52976
G1 X23.776 Y-2.330 E1.54936
G1 X24.286 Y-2.749 E1.56895
G1 X24.868 Y-3.060 E1.58854
G1 X25.525 Y-3.254 E1.60888
G1 X26.156 Y-3.316 E1.62771 F720.000
G1 X26.813 Y-3.252 E1.64731
G1 X27.445 Y-3.060 E1.66690
G1 X28.027 Y-2.749 E1.68649
G1 X28.537 Y-2.330 E1.70608
G1 X28.955 Y-1.820 E1.72568
G1 X29.274 Y-1.214 E1.74601
G1 X29.458 Y-0.607 E1.76485
G1 X29.523 Y0.050 E1.78444
G1 X29.458 Y0.707 E1.80403
G1 X29.266 Y1.338 E1.82363
G1 X28.955 Y1.920 E1.84322
G1 X28.537 Y2.430 E1.86281
G1 X28.027 Y2.849 E1.88240
G1 X27.445 Y3.160 E1.90200
G1 X26.813 Y3.351 E1.92159
G1 X26.156 Y3.416 E1.94118
G1 X25.500 Y3.351 E1.96078
G1 X24.868 Y3.160 E1.98037
G1 X24.286 Y2.849 E1.99996
G1 X23.830 Y2.474 E2.01748
G1 F600.000 E1.31748
G92 E0
G1 Z0.400 F5400.000
G1 X25.526 Y-3.604 F5400.000
G1 X19.855 Y7.569 F5400.000
G1 Z0.200 F5400.000
G1 E0.70000 F600.000
G1 X7.657 Y11.272 E1.07848 F900.000
G1 X5.925 Y12.693 E1.14500
G1 X3.286 Y14.104 E1.23386
G1 X0.422 Y14.973 E1.32271
G1 X-2.556 Y15.266 E1.41157
G1 X-5.534 Y14.973 E1.50042
G1 X-8.398 Y14.104 E1.58928
G1 X-11.037 Y12.693 E1.67814
G1 X-13.351 Y10.795 E1.76699
G1 X-15.249 Y8.481 E1.85585
G1 X-16.660 Y5.842 E1.94471
G1 X-17.001 Y4.718 E1.97958
G1 X-31.340 Y4.718 E2.40534
G1 X-31.340 Y1.612 E2.49756
G1 X-16.145 Y1.612 E2.94873
G1 X-16.040 Y2.682 E2.98065
G1 X-15.258 Y5.261 E3.06067
G1 X-13.987 Y7.638 E3.14069
G1 X-12.227 Y9.762 E3.22260
G1 X-10.194 Y11.431 E3.30070
G1 X-7.817 Y12.702 E3.38072
G1 X-5.238 Y13.484 E3.46074
G1 X-2.556 Y13.748 E3.54076
G1 X0.126 Y13.484 E3.62078
G1 X2.705 Y12.702 E3.70080
G1 X5.082 Y11.431 E3.78082
G1 X7.165 Y9.721 E3.86084
G1 X7.895 Y8.832 E3.89500
G1 X8.875 Y7.638 E3.94086
G1 X10.146 Y5.261 E4.02088
G1 X10.928 Y2.682 E4.10090
G1 X11.192 Y-0.000 E4.18093
G1 X10.928 Y-2.682 E4.26094
G1 X10.146 Y-5.261 E4.34096
G1 X8.875 Y-7.638 E4.42099
G1 X7.165 Y-9.721 E4.50101
G1 X5.082 Y-11.431 E4.58103
G1 X2.705 Y-12.702 E4.66105
G1 X0.126 Y-13.484 E4.74107
G1 X-2.556 Y-13.748 E4.82109
G1 X-2.909 Y-13.713 E4.83162
G1 X-5.238 Y-13.484 E4.90111
G1 X-7.817 Y-12.702 E4.98113
G1 X-10.194 Y-11.431 E5.06115
G1 X-12.277 Y-9.721 E5.14117
G1 X-13.987 Y-7.638 E5.22119
G1 X-15.258 Y-5.261 E5.30121
G1 X-16.040 Y-2.682 E5.38123
G1 X-16.145 Y-1.612 E5.41315
G1 X-31.340 Y-1.612 E5.86432
G1 X-31.340 Y-4.718 E5.95654
G1 X-17.001 Y-4.718 E6.38230
G1 X-16.660 Y-5.842 E6.41717
G1 X-15.249 Y-8.481 E6.50603
G1 X-13.351 Y-10.795 E6.59489
G1 X-11.037 Y-12.693 E6.68374
G1 X-8.398 Y-14.104 E6.77260
G1 X-5.534 Y-14.973 E6.86146
G1 X-2.556 Y-15.266 E6.95031 F900.000
G1 X0.422 Y-14.973 E7.03917
G1 X3.286 Y-14.104 E7.12803
G1 X5.925 Y-12.693 E7.21688
G1 X7.657 Y-11.272 E7.28340
G1 X25.629 Y-5.816 E7.84107
G1 X25.629 Y-4.718 E7.87365
G1 X31.340 Y-4.718 E8.04322
G1 X31.340 Y4.718 E8.32340
G1 X25.629 Y4.718 E8.49298
G1 X25.629 Y5.816 E8.52556
G1 X19.905 Y7.554 E8.70319
G1 X20.009 Y7.895 F5400.000
G1 X7.829 Y11.593 E9.08112 F720.000
G1 X6.125 Y12.992 E9.14657
G1 X3.423 Y14.436 E9.23752
G1 X0.492 Y15.325 E9.32846
G1 X-2.556 Y15.625 E9.41941
G1 X-5.604 Y15.325 E9.51035
G1 X-8.535 Y14.436 E9.60130
G1 X-11.237 Y12.992 E9.69224
G1 X-13.604 Y11.049 E9.78319
G1 X-15.548 Y8.681 E9.87414
G1 X-16.992 Y5.979 E9.96508
G1 X-17.266 Y5.075 E9.99313
G1 X-31.698 Y5.075 E10.42163
G1 X-31.698 Y1.255 E10.53506
G1 X-15.822 Y1.255 E11.00644
G1 X-15.688 Y2.612 E11.04692
G1 X-14.926 Y5.124 E11.12486
G1 X-13.689 Y7.439 E11.20279
G1 X-12.001 Y9.486 E11.28158
G1 X-9.995 Y11.133 E11.35864
G1 X-7.680 Y12.370 E11.43657
G1 X-5.168 Y13.132 E11.51450
G1 X-2.556 Y13.389 E11.59243
G1 X0.056 Y13.132 E11.67036
G1 X2.568 Y12.370 E11.74830
G1 X4.883 Y11.133 E11.82623
G1 X6.912 Y9.468 E11.90416
G1 X7.619 Y8.605 E11.93728
G1 X8.577 Y7.439 E11.98209
G1 X9.814 Y5.124 E12.06002
G1 X10.576 Y2.612 E12.13796
G1 X10.833 Y-0.000 E12.21589
G1 X10.576 Y-2.612 E12.29382
G1 X9.814 Y-5.124 E12.37175
G1 X8.577 Y-7.439 E12.44969
G1 X6.912 Y-9.468 E12.52762
G1 X4.883 Y-11.133 E12.60555
G1 X2.568 Y-12.370 E12.68348
G1 X0.056 Y-13.132 E12.76141
G1 X-2.556 Y-13.389 E12.83935
G1 X-2.874 Y-13.358 E12.84883
G1 X-5.168 Y-13.132 E12.91728
G1 X-7.680 Y-12.370 E12.99521
G1 X-9.995 Y-11.133 E13.07314
G1 X-12.024 Y-9.468 E13.15107
G1 X-13.689 Y-7.439 E13.22901
G1 X-14.926 Y-5.124 E13.30694
G1 X-15.688 Y-2.612 E13.38487
G1 X-15.822 Y-1.255 E13.42536
G1 X-31.698 Y-1.255 E13.89674
G1 X-31.698 Y-5.075 E14.01016
G1 X-17.266 Y-5.075 E14.43866
G1 X-16.992 Y-5.979 E14.46671
G1 X-15.548 Y-8.681 E14.55766
G1 X-13.604 Y-11.048 E14.64860
G1 X-11.237 Y-12.992 E14.73955
G1 X-8.535 Y-14.436 E14.83049
G1 X-5.604 Y-15.325 E14.92144
G1 X-2.556 Y-15.625 E15.01238
G1 X0.492 Y-15.325 E15.10333
G1 X3.423 Y-14.436 E15.19427 F720.000
G1 X6.125 Y-12.992 E15.28522
G1 X7.829 Y-11.593 E15.35067
G1 X25.986 Y-6.080 E15.91409
G1 X25.986 Y-5.075 E15.94394
G1 X31.698 Y-5.075 E16.11351
G1 X31.698 Y5.075 E16.41489
G1 X25.986 Y5.075 E16.58446
G1 X25.986 Y6.080 E16.61431
G1 X20.059 Y7.880 E16.79824
G1 F600.000 E16.09824
G92 E0
G1 Z0.400 F5400.000
G1 X0.811 Y-15.179 F5400.000
G1 X2.838 Y-12.901 F5400.000
G1 Z0.200 F5400.000
G1 E0.70000 F600.000
G1 X1.275 Y-14.465 E0.76565 F1800.000
G1 X0.546 Y-14.686 E0.78826
G1 X2.096 Y-13.136 E0.85333
G1 X1.367 Y-13.357 E0.87594
G1 X-0.056 Y-14.780 E0.93568
G1 X-0.619 Y-14.835 E0.95249
G1 X0.638 Y-13.578 E1.00528
G1 X-0.031 Y-13.739 E1.02571
G1 X-1.182 Y-14.891 E1.07406
G1 X-1.745 Y-14.946 E1.09086
G1 X-0.594 Y-13.795 E1.13921
G1 X-1.157 Y-13.850 E1.15601
G1 X-2.309 Y-15.002 E1.20436
G1 X-2.815 Y-15.001 E1.21940
G1 X-1.720 Y-13.906 E1.26538
G1 X-2.283 Y-13.961 E1.28218
G1 X-3.277 Y-14.955 E1.32391
G1 X-3.740 Y-14.910 E1.33770
G1 X-2.795 Y-13.965 E1.37738
G1 X-3.257 Y-13.919 E1.39117
G1 X-4.202 Y-14.864 E1.43085
G1 X-4.664 Y-14.819 E1.44464
G1 X-3.719 Y-13.874 E1.48432
G1 X-4.181 Y-13.828 E1.49811
G1 X-5.126 Y-14.773 E1.53779
G1 X-5.572 Y-14.712 E1.55117
G1 X-4.643 Y-13.782 E1.59018
G1 X-5.106 Y-13.737 E1.60397
G1 X-5.962 Y-14.593 E1.63994
G1 X-6.352 Y-14.475 E1.65202
G1 X-5.523 Y-13.647 E1.68680
G1 X-5.913 Y-13.529 E1.69889
G1 X-6.741 Y-14.357 E1.73367
G1 X-7.131 Y-14.239 E1.74576
G1 X-6.302 Y-13.411 E1.78054
G1 X-6.692 Y-13.292 E1.79262
G1 X-7.520 Y-14.121 E1.82740
G1 X-7.910 Y-14.003 E1.83949
G1 X-7.082 Y-13.174 E1.87427
G1 X-7.471 Y-13.056 E1.88636
G1 X-8.299 Y-13.884 E1.92114
G1 X-8.631 Y-13.709 E1.93229
G1 X-7.861 Y-12.938 E1.96465
G1 X-8.199 Y-12.768 E1.97588
G1 X-8.962 Y-13.532 E2.00793
G1 X-9.293 Y-13.355 E2.01907
G1 X-8.530 Y-12.592 E2.05112
G1 X-8.861 Y-12.415 E2.06226
G1 X-9.624 Y-13.178 E2.09432
G1 X-9.955 Y-13.001 E2.10546
G1 X-9.191 Y-12.238 E2.13751
G1 X-9.522 Y-12.061 E2.14865
G1 X-10.286 Y-12.824 E2.18070
G1 X-10.617 Y-12.647 E2.19184
G1 X-9.853 Y-11.884 E2.22389
G1 X-10.184 Y-11.707 E2.23503
G1 X-10.941 Y-12.464 E2.26680
G1 X-11.219 Y-12.235 E2.27751
G1 X-10.485 Y-11.501 E2.30833
G1 X-10.764 Y-11.272 E2.31904
G1 X-11.498 Y-12.006 E2.34987
G1 X-11.777 Y-11.777 E2.36058
G1 X-11.043 Y-11.043 E2.39140
G1 X-11.322 Y-10.814 E2.40211
G1 X-12.056 Y-11.548 E2.43293
G1 X-12.335 Y-11.319 E2.44364
G1 X-11.601 Y-10.585 E2.47446
G1 X-11.880 Y-10.357 E2.48518
G1 X-12.614 Y-11.091 E2.51600
G1 X-12.893 Y-10.862 E2.52671
G1 X-12.159 Y-10.128 E2.55753
G1 X-12.438 Y-9.899 E2.56824
G1 X-13.172 Y-10.633 E2.59906
G1 X-13.402 Y-10.356 E2.60977
G1 X-12.668 Y-9.622 E2.64059
G1 X-12.897 Y-9.343 E2.65130
G1 X-13.631 Y-10.077 E2.68212
G1 X-13.860 Y-9.798 E2.69283
G1 X-13.126 Y-9.064 E2.72365
G1 X-13.355 Y-8.785 E2.73437
G1 X-14.089 Y-9.519 E2.76519
G1 X-14.318 Y-9.240 E2.77590
G1 X-13.584 Y-8.506 E2.80672
G1 X-13.812 Y-8.227 E2.81743
G1 X-14.546 Y-8.961 E2.84825
G1 X-14.775 Y-8.683 E2.85896
G1 X-14.041 Y-7.948 E2.88979
G1 X-14.251 Y-7.651 E2.90060
G1 X-15.004 Y-8.404 E2.93222
G1 X-15.191 Y-8.083 E2.94324
G1 X-14.428 Y-7.320 E2.97530
G1 X-14.605 Y-6.989 E2.98644
G1 X-15.368 Y-7.752 E3.01849
G1 X-15.545 Y-7.421 E3.02963
G1 X-14.782 Y-6.658 E3.06168
G1 X-14.959 Y-6.327 E3.07282
G1 X-15.722 Y-7.091 E3.10488
G1 X-15.899 Y-6.760 E3.11601
G1 X-15.135 Y-5.996 E3.14807
G1 X-15.312 Y-5.665 E3.15921
G1 X-16.076 Y-6.429 E3.19126
G1 X-16.252 Y-6.098 E3.20240
G1 X-15.486 Y-5.331 E3.23459
G1 X-15.604 Y-4.942 E3.24668
G1 X-16.429 Y-5.767 E3.28133
G1 X-16.550 Y-5.380 E3.29336
G1 X-15.722 Y-4.552 E3.32814
G1 X-15.840 Y-4.163 E3.34023
G1 X-16.669 Y-4.991 E3.37501
G1 X-16.787 Y-4.601 E3.38709
G1 X-15.959 Y-3.773 E3.42187
G1 X-16.077 Y-3.383 E3.43396
G1 X-17.173 Y-4.479 E3.47998
G1 X-17.680 Y-4.479 E3.49505
G1 X-16.195 Y-2.994 E3.55742
G1 X-16.290 Y-2.581 E3.57000
G1 X-18.188 Y-4.479 E3.64971
G1 X-18.696 Y-4.479 E3.66478
G1 X-16.335 Y-2.119 E3.76390
G1 X-16.575 Y-1.851 E3.77457
G1 X-19.203 Y-4.479 E3.88494
G1 X-19.711 Y-4.479 E3.90001
G1 X-17.083 Y-1.851 E4.01037
G1 X-17.591 Y-1.851 E4.02545
G1 X-20.219 Y-4.479 E4.13581
G1 X-20.727 Y-4.479 E4.15089
G1 X-18.098 Y-1.851 E4.26125
G1 X-18.606 Y-1.851 E4.27633
G1 X-21.234 Y-4.479 E4.38669
G1 X-21.742 Y-4.479 E4.40177
G1 X-19.114 Y-1.851 E4.51213
G1 X-19.621 Y-1.851 E4.52721
G1 X-22.250 Y-4.479 E4.63757
G1 X-22.758 Y-4.479 E4.65265
G1 X-20.129 Y-1.851 E4.76301
G1 X-20.637 Y-1.851 E4.77809
G1 X-23.265 Y-4.479 E4.88845
G1 X-23.773 Y-4.479 E4.90353
G1 X-21.145 Y-1.851 E5.01389
G1 X-21.652 Y-1.851 E5.02897
G1 X-24.281 Y-4.479 E5.13933
G1 X-24.788 Y-4.479 E5.15440
G1 X-22.160 Y-1.851 E5.26477
G1 X-22.668 Y-1.851 E5.27984
G1 X-25.296 Y-4.479 E5.39021
G1 X-25.804 Y-4.479 E5.40528
G1 X-23.176 Y-1.851 E5.51565
G1 X-23.683 Y-1.851 E5.53072
G1 X-26.312 Y-4.479 E5.64109
G1 X-26.819 Y-4.479 E5.65616
G1 X-24.191 Y-1.851 E5.76653
G1 X-24.699 Y-1.851 E5.78160
G1 X-27.327 Y-4.479 E5.89197
G1 X-27.835 Y-4.479 E5.90704
G1 X-25.206 Y-1.851 E6.01741
G1 X-25.714 Y-1.851 E6.03248
G1 X-28.343 Y-4.479 E6.14285
G1 X-28.850 Y-4.479 E6.15792
G1 X-26.222 Y-1.851 E6.26829
G1 X-26.730 Y-1.851 E6.28336
G1 X-29.358 Y-4.479 E6.39372
G1 X-29.866 Y-4.479 E6.40880
G1 X-27.237 Y-1.851 E6.51916
G1 X-27.745 Y-1.851 E6.53424
G1 X-30.374 Y-4.479 E6.64460
G1 X-30.881 Y-4.479 E6.65968
G1 X-28.253 Y-1.851 E6.77004
G1 X-28.761 Y-1.851 E6.78512
G1 X-31.102 Y-4.192 E6.88342
G1 X-31.102 Y-3.684 E6.89849
G1 X-29.268 Y-1.851 E6.97547
G1 X-29.776 Y-1.851 E6.99055
G1 X-31.102 Y-3.177 E7.04621
G1 X-31.102 Y-2.669 E7.06128
G1 X-30.284 Y-1.851 E7.09562
G1 X-30.792 Y-1.851 E7.11070
G1 X-31.102 Y-2.161 E7.12372
G1 F600.000 E6.42372
G92 E0
G1 Z0.400 F5400.000
G1 X-30.644 Y1.851 F5400.000
G1 Z0.200 F5400.000
G1 E0.70000 F600.000
G1 X-28.015 Y4.479 E0.81036 F1800.000
G1 X-27.508 Y4.479 E0.82544
G1 X-30.136 Y1.851 E0.93580
G1 X-29.628 Y1.851 E0.95088
G1 X-27.000 Y4.479 E1.06124
G1 X-26.492 Y4.479 E1.07632
G1 X-29.120 Y1.851 E1.18668
G1 X-28.613 Y1.851 E1.20176
G1 X-25.984 Y4.479 E1.31212
G1 X-25.477 Y4.479 E1.32720
G1 X-28.105 Y1.851 E1.43756
G1 X-27.597 Y1.851 E1.45264
G1 X-24.969 Y4.479 E1.56300
G1 X-24.461 Y4.479 E1.57808
G1 X-27.090 Y1.851 E1.68844
G1 X-26.582 Y1.851 E1.70352
G1 X-23.953 Y4.479 E1.81388
G1 X-23.446 Y4.479 E1.82896
G1 X-26.074 Y1.851 E1.93932
G1 X-25.566 Y1.851 E1.95439
G1 X-22.938 Y4.479 E2.06476
G1 X-22.430 Y4.479 E2.07983
G1 X-25.059 Y1.851 E2.19020
G1 X-24.551 Y1.851 E2.20527
G1 X-21.923 Y4.479 E2.31564
G1 X-21.415 Y4.479 E2.33071
G1 X-24.043 Y1.851 E2.44108
G1 X-23.535 Y1.851 E2.45615
G1 X-20.907 Y4.479 E2.56652
G1 X-20.399 Y4.479 E2.58159
G1 X-23.028 Y1.851 E2.69196
G1 X-22.520 Y1.851 E2.70703
G1 X-19.892 Y4.479 E2.81740
G1 X-19.384 Y4.479 E2.83247
G1 X-22.012 Y1.851 E2.94284
G1 X-21.504 Y1.851 E2.95791
G1 X-18.876 Y4.479 E3.06827
G1 X-18.368 Y4.479 E3.08335
G1 X-20.997 Y1.851 E3.19371
G1 X-20.489 Y1.851 E3.20879
G1 X-17.861 Y4.479 E3.31915
G1 X-17.353 Y4.479 E3.33423
G1 X-19.981 Y1.851 E3.44459
G1 X-19.474 Y1.851 E3.45967
G1 X-14.914 Y6.411 E3.65113
G1 X-15.681 Y7.166 F5400.000
G1 X-9.722 Y13.125 E3.90134 F1800.000
G1 X-8.967 Y12.358 F5400.000
G1 X-7.066 Y14.259 E3.98115 F1800.000
G1 X-6.337 Y14.480 E4.00376
G1 X-7.887 Y12.930 E4.06883
G1 X-7.158 Y13.151 E4.09144
G1 X-5.608 Y14.701 E4.15651
G1 X-5.018 Y14.784 E4.17422
G1 X-6.429 Y13.372 E4.23349
G1 X-5.700 Y13.593 E4.25610
G1 X-4.455 Y14.839 E4.30842
G1 X-3.891 Y14.895 E4.32522
G1 X-5.043 Y13.743 E4.37357
G1 X-4.480 Y13.799 E4.39038
G1 X-3.328 Y14.950 E4.43873
G1 X-2.765 Y15.006 E4.45553
G1 X-3.916 Y13.854 E4.50388
G1 X-3.353 Y13.910 E4.52068
G1 X-2.265 Y14.997 E4.56636
G1 X-1.803 Y14.952 E4.58015
G1 X-2.790 Y13.965 E4.62160
G1 X-2.286 Y13.961 E4.63657
G1 X-1.341 Y14.906 E4.67625
G1 X-0.879 Y14.861 E4.69004
G1 X-1.824 Y13.916 E4.72972
G1 X-1.361 Y13.870 E4.74351
G1 X-0.416 Y14.815 E4.78319
G1 X0.046 Y14.770 E4.79698
G1 X-0.899 Y13.825 E4.83666
