; generated by Slic3r 1.1.3-dev on 2014-05-25 at 11:13:50

; perimeters extrusion width = 0.35mm
; infill extrusion width = 0.57mm
; solid infill extrusion width = 0.57mm
; top infill extrusion width = 0.57mm

G21 ; set units to millimeters
M107
G28
G92 X0 Y0 Z0 E0
G1 F5000 Y30 X30
G1 X220
G1 F100 E10
G28
G92 X0 Y0 Z0
G1 F4000 X101 Y127
G92 X0 Y0 Z0 E0
M106 S255
G90 ; use absolute coordinates
G92 E0
M82 ; use absolute distances for extrusion
G1 F600.000 E-0.70000
G1 Z0.400 F7800.000
G92 E0
G1 X5.315 Y-19.927 F7800.000
G1 Z0.200 F7800.000
G1 E0.70000 F600.000
G1 X32.230 Y-11.069 E1.61716 F1080.000
G1 X34.212 Y-9.999 E1.69005
G1 X35.699 Y-8.308 E1.76294
G1 X36.507 Y-6.206 E1.83584
G1 X36.622 Y-5.000 E1.87505
G1 X36.622 Y5.000 E2.19873
G1 X36.225 Y7.217 E2.27162
G1 X35.084 Y9.158 E2.34451
G1 X33.340 Y10.583 E2.41741
G1 X32.230 Y11.069 E2.45662
G1 X5.172 Y19.972 E3.37863
G1 X2.358 Y20.826 E3.47380
G1 X1.130 Y21.070 E3.51435
G1 X-1.796 Y21.359 E3.60952
G1 X-3.049 Y21.359 E3.65006
G1 X-5.975 Y21.070 E3.74524
G1 X-7.204 Y20.826 E3.78578
G1 X-10.543 Y19.788 E3.89897
G1 X-32.613 Y10.929 E4.66872
G1 X-34.522 Y9.735 E4.74162
G1 X-35.899 Y7.953 E4.81451
G1 X-36.622 Y5.000 E4.91292
G1 X-36.622 Y-5.000 E5.23660
G1 X-36.225 Y-7.217 E5.30949
G1 X-35.084 Y-9.158 E5.38239
G1 X-32.613 Y-10.929 E5.48080
G1 X-10.018 Y-19.972 E6.26856
G1 X-7.204 Y-20.826 E6.36374
G1 X-5.975 Y-21.070 E6.40428
G1 X-3.048 Y-21.359 E6.49947
G1 X-1.796 Y-21.359 E6.54000
G1 X1.131 Y-21.070 E6.63519
G1 X2.358 Y-20.826 E6.67572
G1 X5.265 Y-19.943 E6.77404
G1 F600.000 E6.07404
G1 Z0.400 F7800.000
G92 E0
G1 X21.805 Y-1.948 F7800.000
G1 Z0.200 F7800.000
G1 E0.70000 F600.000
G1 X22.251 Y-2.493 E0.72280 F540.000
G1 X22.796 Y-2.939 E0.74559
G1 X23.417 Y-3.271 E0.76838
G1 X24.091 Y-3.476 E0.79117
G1 X24.791 Y-3.545 E0.81396
G1 X25.492 Y-3.476 E0.83675
G1 X26.166 Y-3.271 E0.85955
G1 X26.787 Y-2.939 E0.88234
G1 X27.331 Y-2.493 E0.90513
G1 X27.778 Y-1.948 E0.92793
G1 X28.110 Y-1.327 E0.95072
G1 X28.314 Y-0.653 E0.97351
G1 X28.384 Y0.047 E0.99631
G1 X28.314 Y0.748 E1.01910
G1 X28.110 Y1.422 E1.04189
G1 X27.778 Y2.043 E1.06469
G1 X27.331 Y2.587 E1.08748
G1 X26.787 Y3.034 E1.11027
G1 X26.166 Y3.366 E1.13306
G1 X25.492 Y3.570 E1.15586
G1 X24.791 Y3.639 E1.17865
G1 X24.091 Y3.570 E1.20144
G1 X23.417 Y3.366 E1.22423
G1 X22.796 Y3.034 E1.24703
G1 X22.251 Y2.587 E1.26982
G1 X21.805 Y2.043 E1.29261
G1 X21.473 Y1.422 E1.31541
G1 X21.268 Y0.748 E1.33820
G1 X21.199 Y0.047 E1.36099
G1 X21.268 Y-0.653 E1.38378
G1 X21.473 Y-1.327 E1.40658
G1 X21.780 Y-1.902 E1.42767
G1 X22.130 Y-1.731 F7800.000
G1 X22.528 Y-2.216 E1.44798 F378.000
G1 X23.013 Y-2.614 E1.46829
G1 X23.566 Y-2.910 E1.48860
G1 X24.167 Y-3.092 E1.50891
G1 X24.791 Y-3.154 E1.52922
G1 X25.416 Y-3.092 E1.54953
G1 X26.016 Y-2.910 E1.56985
G1 X26.570 Y-2.614 E1.59016
G1 X27.055 Y-2.216 E1.61047
G1 X27.453 Y-1.731 E1.63078
G1 X27.749 Y-1.178 E1.65109
G1 X27.931 Y-0.577 E1.67140
G1 X27.992 Y0.047 E1.69171
G1 X27.931 Y0.672 E1.71202
G1 X27.749 Y1.272 E1.73233
G1 X27.453 Y1.826 E1.75264
G1 X27.055 Y2.311 E1.77296
G1 X26.570 Y2.709 E1.79327
G1 X26.016 Y3.005 E1.81358
G1 X25.416 Y3.187 E1.83389
G1 X24.791 Y3.248 E1.85420
G1 X24.167 Y3.187 E1.87451
G1 X23.566 Y3.005 E1.89482
G1 X23.013 Y2.709 E1.91513
G1 X22.528 Y2.311 E1.93544
G1 X22.130 Y1.826 E1.95575
G1 X21.834 Y1.272 E1.97606
G1 X21.652 Y0.672 E1.99637
G1 X21.590 Y0.047 E2.01669
G1 X21.652 Y-0.577 E2.03700
G1 X21.834 Y-1.178 E2.05731
G1 X22.105 Y-1.685 E2.07592
G1 X21.985 Y-2.050 F7800.000
G1 X21.154 Y-2.383 F7800.000
G1 X20.750 Y-1.627 E2.10367 F540.000
G1 X20.501 Y-0.806 E2.13143
G1 X20.417 Y0.047 E2.15919
G1 X20.501 Y0.901 E2.18695
G1 X20.750 Y1.721 E2.21470
G1 X21.154 Y2.478 E2.24246
G1 X21.698 Y3.141 E2.27022
G1 X22.361 Y3.685 E2.29797
G1 X23.117 Y4.089 E2.32573
G1 X23.452 Y4.190 E2.33705
G1 X23.452 Y4.890 E2.35968
G1 X7.817 Y9.636 E2.88856
G1 X7.689 Y9.444 E2.89603
G1 X9.114 Y7.708 E2.96873
G1 X10.396 Y5.309 E3.05677
G1 X11.185 Y2.707 E3.14480
G1 X11.452 Y-0.000 E3.23284
G1 X11.185 Y-2.707 E3.32087
G1 X10.396 Y-5.309 E3.40891
G1 X9.114 Y-7.708 E3.49695
G1 X7.689 Y-9.444 E3.56964
G1 X7.817 Y-9.636 E3.57711
G1 X23.452 Y-4.890 E4.10599
G1 X23.452 Y-4.096 E4.13169
G1 X23.117 Y-3.994 E4.14300
G1 X22.361 Y-3.590 E4.17076
G1 X21.698 Y-3.046 E4.19851
G1 X21.187 Y-2.424 E4.22458
G1 F600.000 E3.52458
G1 Z0.400 F7800.000
G92 E0
G1 X-15.843 Y-3.323 F7800.000
G1 Z0.200 F7800.000
G1 E0.70000 F600.000
G1 X-16.030 Y-2.707 E0.72086 F540.000
G1 X-16.064 Y-2.368 E0.73188
G1 X-28.865 Y-2.368 E1.14623
G1 X-28.865 Y-3.632 E1.18716
G1 X-15.750 Y-3.632 E1.61168
G1 X-15.828 Y-3.374 E1.62042
G1 F600.000 E0.92042
G1 Z0.400 F7800.000
G92 E0
G1 X-16.044 Y2.567 F7800.000
G1 Z0.200 F7800.000
G1 E0.70000 F600.000
G1 X-16.030 Y2.707 E0.70455 F540.000
G1 X-15.750 Y3.632 E0.73585
G1 X-28.865 Y3.632 E1.16037
G1 X-28.865 Y2.368 E1.20130
G1 X-16.064 Y2.368 E1.61565
G1 X-16.049 Y2.515 E1.62042
G1 X-15.657 Y2.529 F7800.000
G1 X-15.647 Y2.630 E1.62373 F540.000
G1 X-14.880 Y5.160 E1.70929
G1 X-13.634 Y7.491 E1.79484
G1 X-11.957 Y9.534 E1.88039
G1 X-9.913 Y11.211 E1.96595
G1 X-9.431 Y11.469 E1.98367
G1 X-7.582 Y12.457 E2.05150
G1 X-5.053 Y13.224 E2.13706
G1 X-2.423 Y13.483 E2.22261
G1 X0.208 Y13.224 E2.30816
G1 X2.737 Y12.457 E2.39372
G1 X5.068 Y11.211 E2.47927
G1 X5.303 Y11.018 E2.48910
G1 X7.112 Y9.534 E2.56483
G1 X8.788 Y7.491 E2.65038
G1 X10.034 Y5.160 E2.73594
G1 X10.802 Y2.630 E2.82149
G1 X11.061 Y-0.000 E2.90705
G1 X10.802 Y-2.630 E2.99260
G1 X10.034 Y-5.160 E3.07815
G1 X8.788 Y-7.491 E3.16371
G1 X7.112 Y-9.534 E3.24926
G1 X5.068 Y-11.211 E3.33482
G1 X2.737 Y-12.457 E3.42037
G1 X0.208 Y-13.224 E3.50593
G1 X-2.423 Y-13.483 E3.59148
G1 X-5.053 Y-13.224 E3.67704
G1 X-7.582 Y-12.457 E3.76259
G1 X-9.914 Y-11.211 E3.84814
G1 X-11.957 Y-9.534 E3.93370
G1 X-13.633 Y-7.491 E4.01925
G1 X-14.880 Y-5.160 E4.10481
G1 X-15.647 Y-2.630 E4.19036
G1 X-15.711 Y-1.979 E4.21157
G1 X-29.254 Y-1.979 E4.64994
G1 X-29.254 Y-4.021 E4.71606
G1 X-15.780 Y-4.021 E5.15221
G1 X-15.372 Y-5.364 E5.19762
G1 X-14.077 Y-7.787 E5.28656
G1 X-12.334 Y-9.911 E5.37550
G1 X-10.210 Y-11.654 E5.46444
G1 X-7.787 Y-12.950 E5.55338
G1 X-5.157 Y-13.747 E5.64232
G1 X-2.423 Y-14.017 E5.73126
G1 X0.312 Y-13.747 E5.82020
G1 X2.941 Y-12.950 E5.90914
G1 X5.365 Y-11.654 E5.99808
G1 X7.041 Y-10.279 E6.06827
G1 X23.841 Y-5.178 E6.63657
G1 X23.841 Y-3.807 E6.68095
G1 X23.267 Y-3.633 E6.70037
G1 X22.578 Y-3.265 E6.72564
G1 X21.975 Y-2.769 E6.75092
G1 X21.479 Y-2.166 E6.77620
G1 X21.111 Y-1.477 E6.80147
G1 X20.885 Y-0.730 E6.82675
G1 X20.808 Y0.047 E6.85202
G1 X20.885 Y0.825 E6.87730
G1 X21.111 Y1.572 E6.90257
G1 X21.479 Y2.260 E6.92785
G1 X21.975 Y2.864 E6.95312
G1 X22.578 Y3.359 E6.97840
G1 X23.267 Y3.727 E7.00367
G1 X23.841 Y3.902 E7.02309
G1 X23.841 Y5.178 E7.06441
G1 X7.041 Y10.279 E7.63271
G1 X5.365 Y11.654 E7.70291
G1 X2.941 Y12.950 E7.79184
G1 X0.312 Y13.747 E7.88078
G1 X-2.423 Y14.017 E7.96972
G1 X-5.157 Y13.747 E8.05866
G1 X-7.787 Y12.950 E8.14760
G1 X-10.210 Y11.654 E8.23654
G1 X-12.334 Y9.911 E8.32548
G1 X-14.077 Y7.787 E8.41442
G1 X-15.372 Y5.364 E8.50336
G1 X-15.780 Y4.021 E8.54877
G1 X-29.254 Y4.021 E8.98492
G1 X-29.254 Y1.979 E9.05104
G1 X-15.711 Y1.979 E9.48941
G1 X-15.662 Y2.477 E9.50561
G1 F600.000 E8.80561
G1 Z0.400 F7800.000
G92 E0
G1 X27.776 Y3.230 F7800.000
G1 Z0.200 F7800.000
G1 E0.70000 F600.000
G1 X27.884 Y3.141 E0.70455 F540.000
G1 X28.429 Y2.478 E0.73231
G1 X28.629 Y2.102 E0.74610
G1 X28.865 Y2.161 E0.75397
G1 X28.865 Y3.632 E0.80159
G1 X27.285 Y3.632 E0.85272
G1 X27.735 Y3.263 E0.87154
G1 X28.495 Y-2.259 F7800.000
G1 X28.429 Y-2.383 E0.87610 F540.000
G1 X27.884 Y-3.046 E0.90386
G1 X27.170 Y-3.632 E0.93377
G1 X28.865 Y-3.632 E0.98863
G1 X28.865 Y-2.066 E1.03931
G1 X28.629 Y-2.007 E1.04718
G1 X28.520 Y-2.213 E1.05472
G1 X28.152 Y-2.075 F7800.000
G1 X28.103 Y-2.166 E1.05803 F540.000
G1 X27.608 Y-2.769 E1.08330
G1 X27.004 Y-3.265 E1.10858
G1 X26.316 Y-3.633 E1.13385
G1 X25.910 Y-3.756 E1.14757
G1 X25.950 Y-4.021 E1.15626
G1 X29.254 Y-4.021 E1.26323
G1 X29.254 Y4.021 E1.52356
G1 X26.266 Y4.021 E1.62030
G1 X26.207 Y3.786 E1.62817
G1 X27.004 Y3.359 E1.65745
G1 X27.608 Y2.864 E1.68272
G1 X28.103 Y2.260 E1.70799
G1 X28.471 Y1.572 E1.73327
G1 X28.698 Y0.825 E1.75854
G1 X28.775 Y0.047 E1.78382
G1 X28.698 Y-0.730 E1.80910
G1 X28.471 Y-1.477 E1.83437
G1 X28.176 Y-2.029 E1.85463
G1 X24.231 Y-4.411 F7800.000
G1 X29.644 Y-4.411 E2.02984 F540.000
G1 X29.644 Y4.411 E2.31538
G1 X24.231 Y4.411 E2.49059
G1 X24.231 Y5.467 E2.52477
G1 X7.228 Y10.629 E3.09991
G1 X5.582 Y11.980 E3.16883
G1 X3.091 Y13.311 E3.26026
G1 X0.388 Y14.131 E3.35168
G1 X-2.423 Y14.408 E3.44310
G1 X-5.233 Y14.131 E3.53452
G1 X-7.936 Y13.311 E3.62594
G1 X-10.427 Y11.980 E3.71736
G1 X-12.610 Y10.188 E3.80878
G1 X-14.402 Y8.005 E3.90020
G1 X-15.734 Y5.514 E3.99163
G1 X-16.068 Y4.411 E4.02893
G1 X-29.644 Y4.411 E4.46834
G1 X-29.644 Y1.589 E4.55966
G1 X-15.358 Y1.589 E5.02205
G1 X-15.263 Y2.554 E5.05343
G1 X-14.518 Y5.010 E5.13651
G1 X-13.308 Y7.274 E5.21958
G1 X-11.680 Y9.258 E5.30265
G1 X-11.628 Y9.301 E5.30485
G1 X-9.696 Y10.886 E5.38572
G1 X-7.433 Y12.096 E5.46880
G1 X-4.977 Y12.841 E5.55187
G1 X-2.423 Y13.092 E5.63494
G1 X0.131 Y12.841 E5.71801
G1 X2.588 Y12.096 E5.80109
G1 X4.851 Y10.886 E5.88416
G1 X6.835 Y9.258 E5.96723
G1 X7.527 Y8.414 E6.00255
G1 X8.463 Y7.274 E6.05030
G1 X9.673 Y5.010 E6.13338
G1 X10.418 Y2.554 E6.21645
G1 X10.670 Y-0.000 E6.29952
G1 X10.418 Y-2.554 E6.38259
G1 X9.673 Y-5.010 E6.46567
G1 X8.463 Y-7.274 E6.54874
G1 X6.835 Y-9.258 E6.63181
G1 X4.851 Y-10.886 E6.71488
G1 X2.588 Y-12.096 E6.79796
G1 X0.132 Y-12.841 E6.88103
G1 X-2.423 Y-13.092 E6.96410
G1 X-2.763 Y-13.059 E6.97518
G1 X-4.977 Y-12.841 E7.04717
G1 X-7.433 Y-12.096 E7.13025
G1 X-9.696 Y-10.886 E7.21332
G1 X-11.680 Y-9.258 E7.29639
G1 X-13.308 Y-7.274 E7.37946
G1 X-14.518 Y-5.010 E7.46254
G1 X-15.263 Y-2.554 E7.54561
G1 X-15.358 Y-1.589 E7.57699
G1 X-29.644 Y-1.589 E8.03938
G1 X-29.644 Y-4.411 E8.13071
G1 X-16.068 Y-4.411 E8.57011
G1 X-15.734 Y-5.514 E8.60742
G1 X-14.402 Y-8.005 E8.69884
G1 X-12.611 Y-10.188 E8.79026
G1 X-10.427 Y-11.980 E8.88168
G1 X-7.936 Y-13.311 E8.97310
G1 X-5.233 Y-14.131 E9.06452
G1 X-2.423 Y-14.408 E9.15594
G1 X0.388 Y-14.131 E9.24737
G1 X3.091 Y-13.311 E9.33879
G1 X5.582 Y-11.980 E9.43021
G1 X7.228 Y-10.629 E9.49914
G1 X24.231 Y-5.467 E10.07427
G1 X24.231 Y-4.463 E10.10676
G1 X24.620 Y-4.800 F7800.000
G1 X30.033 Y-4.800 E10.28197 F378.000
G1 X30.033 Y4.800 E10.59270
G1 X24.620 Y4.800 E10.76791
G1 X24.620 Y5.755 E10.79883
G1 X7.415 Y10.979 E11.38081
G1 X5.799 Y12.305 E11.44847
G1 X3.241 Y13.673 E11.54238
G1 X0.465 Y14.515 E11.63628
G1 X-2.423 Y14.799 E11.73018
G1 X-5.310 Y14.515 E11.82408
G1 X-8.086 Y13.673 E11.91799
G1 X-10.644 Y12.305 E12.01189
G1 X-12.887 Y10.465 E12.10579
G1 X-14.728 Y8.222 E12.19970
G1 X-16.095 Y5.663 E12.29360
G1 X-16.357 Y4.800 E12.32280
G1 X-30.033 Y4.800 E12.76546
G1 X-30.033 Y1.200 E12.88199
G1 X-15.005 Y1.200 E13.36840
G1 X-14.880 Y2.478 E13.40996
G1 X-14.157 Y4.860 E13.49055
G1 X-12.983 Y7.056 E13.57114
G1 X-11.381 Y9.000 E13.65267
G1 X-9.479 Y10.560 E13.73230
G1 X-7.283 Y11.734 E13.81289
G1 X-4.900 Y12.457 E13.89349
G1 X-2.423 Y12.701 E13.97408
G1 X0.055 Y12.457 E14.05466
G1 X2.438 Y11.734 E14.13526
G1 X4.634 Y10.560 E14.21585
G1 X6.558 Y8.981 E14.29644
G1 X7.226 Y8.167 E14.33051
G1 X8.138 Y7.056 E14.37703
G1 X9.312 Y4.860 E14.45762
G1 X10.034 Y2.478 E14.53821
G1 X10.278 Y-0.000 E14.61880
G1 X10.034 Y-2.478 E14.69939
G1 X9.312 Y-4.860 E14.77998
G1 X8.138 Y-7.056 E14.86057
G1 X6.558 Y-8.981 E14.94116
G1 X4.634 Y-10.560 E15.02175
G1 X2.438 Y-11.734 E15.10234
G1 X0.055 Y-12.457 E15.18293
G1 X-2.423 Y-12.701 E15.26352
G1 X-2.725 Y-12.671 E15.27336
G1 X-4.900 Y-12.457 E15.34411
G1 X-7.283 Y-11.734 E15.42470
G1 X-9.479 Y-10.560 E15.50529
G1 X-11.404 Y-8.981 E15.58589
G1 X-12.983 Y-7.056 E15.66648
G1 X-14.157 Y-4.860 E15.74707
G1 X-14.880 Y-2.478 E15.82766
G1 X-15.005 Y-1.200 E15.86922
G1 X-30.033 Y-1.200 E16.35563
G1 X-30.033 Y-4.800 E16.47215
G1 X-16.357 Y-4.800 E16.91481
G1 X-16.095 Y-5.663 E16.94402
G1 X-14.728 Y-8.222 E17.03792
G1 X-12.887 Y-10.464 E17.13182
G1 X-10.645 Y-12.305 E17.22572
G1 X-8.086 Y-13.673 E17.31963
G1 X-5.310 Y-14.515 E17.41353
G1 X-2.423 Y-14.799 E17.50743
G1 X0.465 Y-14.515 E17.60134
G1 X3.241 Y-13.673 E17.69524
G1 X5.799 Y-12.305 E17.78914
G1 X7.415 Y-10.979 E17.85681
G1 X24.620 Y-5.755 E18.43878
G1 X24.620 Y-4.853 E18.46801
G1 X24.620 Y-4.450 F7800.000
G1 X23.140 Y-4.710 F7800.000
G1 X23.190 Y-4.660 E18.47030 F1080.000
G1 X23.044 Y-4.246 E18.48453
G1 X22.335 Y-4.955 E18.51698
G1 X21.529 Y-5.199 E18.54422
G1 X22.674 Y-4.054 E18.59662
G1 X22.309 Y-3.859 E18.61003
G1 X20.724 Y-5.444 E18.68257
G1 X19.919 Y-5.688 E18.70981
G1 X21.986 Y-3.621 E18.80443
G1 X21.678 Y-3.368 E18.81732
G1 X19.114 Y-5.933 E18.93470
G1 X18.308 Y-6.177 E18.96194
G1 X21.395 Y-3.090 E19.10325
G1 X21.143 Y-2.782 E19.11615
G1 X17.503 Y-6.422 E19.28275
G1 X16.698 Y-6.666 E19.30999
G1 X20.900 Y-2.464 E19.50235
G1 X20.705 Y-2.098 E19.51576
G1 X15.893 Y-6.911 E19.73604
G1 X15.087 Y-7.155 E19.76328
G1 X20.509 Y-1.733 E20.01148
G1 X20.378 Y-1.304 E20.02601
G1 X14.282 Y-7.400 E20.30505
G1 X13.477 Y-7.644 E20.33229
G1 X20.247 Y-0.873 E20.64222
G1 X20.194 Y-0.366 E20.65874
G1 X12.672 Y-7.889 E21.00309
G1 X11.866 Y-8.133 E21.03033
G1 X20.165 Y0.166 E21.41021
G1 X20.226 Y0.788 E21.43044
G1 X11.061 Y-8.377 E21.84999
G1 X10.256 Y-8.622 E21.87723
G1 X20.422 Y1.545 E22.34260
G1 X20.928 Y2.611 F7800.000
G1 X9.451 Y-8.866 E22.86801 F1080.000
G1 X8.645 Y-9.111 E22.89524
G1 X22.623 Y4.867 E23.53509
G1 X22.193 Y4.998 E23.54964
G1 X9.295 Y-7.900 E24.14004
G1 X9.967 Y-6.667 F7800.000
G1 X21.763 Y5.128 E24.67999 F1080.000
G1 X21.333 Y5.259 E24.69454
G1 X10.611 Y-5.463 E25.18532
G1 X10.873 Y-4.640 E25.21325
G1 X20.903 Y5.390 E25.67237
G1 X20.472 Y5.520 E25.68692
G1 X11.117 Y-3.835 E26.11517
G1 X11.361 Y-3.030 E26.14240
G1 X20.042 Y5.651 E26.53978
G1 X19.612 Y5.781 E26.55433
G1 X11.484 Y-2.347 E26.92639
G1 X11.545 Y-1.724 E26.94662
G1 X19.182 Y5.912 E27.29618
G1 X18.752 Y6.043 E27.31073
G1 X11.607 Y-1.102 E27.63779
G1 X11.668 Y-0.480 E27.65802
G1 X18.322 Y6.173 E27.96259
G1 X17.891 Y6.304 E27.97714
G1 X11.704 Y0.116 E28.26038
G1 X11.654 Y0.627 E28.27698
G1 X17.461 Y6.434 E28.54282
G1 X17.031 Y6.565 E28.55737
G1 X11.603 Y1.137 E28.80583
G1 X11.553 Y1.648 E28.82243
G1 X16.601 Y6.696 E29.05350
G1 X16.171 Y6.826 E29.06805
G1 X11.503 Y2.158 E29.28173
G1 X11.452 Y2.669 E29.29833
G1 X15.741 Y6.957 E29.49462
G1 X15.310 Y7.087 E29.50917
G1 X11.336 Y3.113 E29.69109
G1 X11.205 Y3.543 E29.70565
G1 X14.880 Y7.218 E29.87386
G1 X14.450 Y7.349 E29.88841
G1 X11.075 Y3.974 E30.04290
G1 X10.944 Y4.404 E30.05745
G1 X14.020 Y7.479 E30.19823
G1 X13.590 Y7.610 E30.21278
G1 X10.814 Y4.834 E30.33984
G1 X10.683 Y5.264 E30.35439
G1 X13.159 Y7.740 E30.46773
G1 X12.729 Y7.871 E30.48228
G1 X10.510 Y5.652 E30.58387
G1 X10.315 Y6.017 E30.59728
G1 X12.299 Y8.002 E30.68811
G1 X11.869 Y8.132 E30.70267
G1 X10.119 Y6.383 E30.78275
G1 X9.924 Y6.748 E30.79616
G1 X11.439 Y8.263 E30.86550
G1 X11.009 Y8.393 E30.88005
G1 X9.729 Y7.113 E30.93864
G1 X9.533 Y7.479 E30.95205
G1 X10.578 Y8.524 E30.99989
G1 X10.148 Y8.655 E31.01444
G1 X9.338 Y7.844 E31.05152
G1 X9.087 Y8.154 E31.06443
G1 X9.718 Y8.785 E31.09332
G1 X9.288 Y8.916 E31.10787
G1 X8.834 Y8.462 E31.12864
G1 X8.581 Y8.770 E31.14154
G1 X8.858 Y9.046 E31.15419
G1 X8.428 Y9.177 E31.16874
G1 X8.339 Y9.088 E31.17280
G1 X22.227 Y3.910 F7800.000
G1 X23.053 Y4.736 E31.21062 F1080.000
G1 F600.000 E30.51062
G1 Z0.400 F7800.000
G92 E0
G1 X24.036 Y-3.942 F7800.000
G1 Z0.200 F7800.000
G1 E0.70000 F600.000
G1 X24.815 Y-3.978 E0.73611 F360.000
G1 X25.740 Y-3.932 E0.77901
G1 X28.563 Y-3.370 F7800.000
G1 X28.603 Y-3.330 E0.78084 F1080.000
G1 X28.439 Y-2.784 E0.79929
G1 X28.583 Y-2.640 E0.80590
G1 X28.583 Y2.734 F7800.000
G1 X28.603 Y2.754 E0.80681 F1080.000
G1 X28.316 Y3.028 E0.81964
G1 X28.603 Y3.315 E0.83277
G1 X28.098 Y3.370 E0.84922
G1 X28.064 Y3.336 E0.85078
G1 X26.039 Y3.919 F7800.000
G1 X25.553 Y3.989 E0.87356 F360.000
G1 X24.993 Y4.016 E0.89949
