; generated by Slic3r 1.2.0 on 2015-06-02 at 18:22:10

; external perimeters extrusion width = 0.35mm
; perimeters extrusion width = 0.57mm
; infill extrusion width = 0.57mm
; solid infill extrusion width = 0.57mm
; top infill extrusion width = 0.57mm

G21 ; set units to millimeters
M107
G28
G92 X0 Y0 Z0 E0
G1 F5000 Y30 X30
G1 X220
G1 F100 E10

G28
G92 X0 Y0 Z0
G1 F4000 X101 Y127
G92 X0 Y0 Z0 E0
G90 ; use absolute coordinates
G92 E0
M82 ; use absolute distances for extrusion
G1 F600.000 E-0.70000
G1 Z0.400 F7800.000
G92 E0
G1 X3.132 Y-16.853 F7800.000
G1 Z0.200 F7800.000
G1 E0.70000 F600.000
G1 X31.799 Y-11.492 E1.56592 F1080.000
G1 X33.899 Y-10.694 E1.63262
G1 X35.591 Y-9.217 E1.69931
G1 X36.663 Y-7.243 E1.76601
G1 X36.985 Y-5.243 E1.82614
G1 X36.985 Y5.243 E2.13749
G1 X36.589 Y7.454 E2.20419
G1 X35.447 Y9.389 E2.27088
G1 X33.705 Y10.806 E2.33758
G1 X31.799 Y11.492 E2.39771
G1 X8.889 Y15.783 E3.08978
G1 X-9.640 Y19.226 E3.64933
G1 X-10.801 Y19.333 E3.68396
G1 X-30.628 Y19.333 E4.27265
G1 X-32.839 Y18.936 E4.33935
G1 X-34.774 Y17.795 E4.40604
G1 X-36.191 Y16.053 E4.47274
G1 X-36.985 Y12.976 E4.56707
G1 X-36.985 Y-12.976 E5.33764
G1 X-36.589 Y-15.187 E5.40433
G1 X-35.447 Y-17.122 E5.47103
G1 X-33.705 Y-18.539 E5.53772
G1 X-30.628 Y-19.333 E5.63206
G1 X-10.801 Y-19.333 E6.22076
G1 X-9.640 Y-19.226 E6.25539
G1 X3.080 Y-16.863 E6.63952 F1080.000
G1 F600.000 E5.93952
G1 Z0.400 F7800.000
G92 E0
G1 X-14.241 Y11.705 F7800.000
G1 Z0.200 F7800.000
G1 E0.70000 F600.000
G1 X-29.357 Y11.705 E1.14881 F540.000
G1 X-29.357 Y9.673 E1.20915
G1 X-16.615 Y9.673 E1.58747
G1 X-14.281 Y11.671 E1.67871
G1 X-13.275 Y12.062 F7800.000
G1 X-29.714 Y12.062 E2.16681 F540.000
G1 X-29.714 Y9.316 E2.24836
G1 X-16.483 Y9.316 E2.64120
G1 X-13.315 Y12.028 E2.76504
G1 X-12.309 Y12.419 F7800.000
G1 X-30.071 Y12.419 E3.29244 F540.000
G1 X-30.071 Y8.959 E3.39519
G1 X-16.351 Y8.959 E3.80255
G1 X-12.348 Y12.385 E3.95900
G1 X-11.342 Y12.776 F7800.000
G1 X-30.428 Y12.776 E4.52569 F378.000
G1 X-30.428 Y8.602 E4.64964
G1 X-16.219 Y8.602 E5.07152
G1 X-11.382 Y12.742 E5.26058
G1 X-11.683 Y12.694 F7800.000
G1 X-15.124 Y11.263 F7800.000
G1 X-14.942 Y11.446 E5.26825 F1080.000
G1 X-15.427 Y11.466 E5.28268
G1 X-16.982 Y9.912 E5.34796
G1 X-17.487 Y9.912 E5.36297
G1 X-15.933 Y11.466 E5.42824
G1 X-16.438 Y11.466 E5.44326
G1 X-17.993 Y9.912 E5.50853
G1 X-18.498 Y9.912 E5.52354
G1 X-16.944 Y11.466 E5.58882
G1 X-17.450 Y11.466 E5.60383
G1 X-19.004 Y9.912 E5.66911
G1 X-19.510 Y9.912 E5.68412
G1 X-17.955 Y11.466 E5.74939
G1 X-18.461 Y11.466 E5.76440
G1 X-20.015 Y9.912 E5.82968
G1 X-20.521 Y9.912 E5.84469
G1 X-18.966 Y11.466 E5.90997
G1 X-19.472 Y11.466 E5.92498
G1 X-21.026 Y9.912 E5.99025
G1 X-21.532 Y9.912 E6.00527
G1 X-19.977 Y11.466 E6.07054
G1 X-20.483 Y11.466 E6.08555
G1 X-22.038 Y9.912 E6.15083
G1 X-22.543 Y9.912 E6.16584
G1 X-20.989 Y11.466 E6.23112
G1 X-21.494 Y11.466 E6.24613
G1 X-23.049 Y9.912 E6.31140
G1 X-23.554 Y9.912 E6.32641
G1 X-22.000 Y11.466 E6.39169
G1 X-22.505 Y11.466 E6.40670
G1 X-24.060 Y9.912 E6.47198
G1 X-24.566 Y9.912 E6.48699
G1 X-23.011 Y11.466 E6.55226
G1 X-23.517 Y11.466 E6.56728
G1 X-25.071 Y9.912 E6.63255
G1 X-25.577 Y9.912 E6.64756
G1 X-24.022 Y11.466 E6.71284
G1 X-24.528 Y11.466 E6.72785
G1 X-26.082 Y9.912 E6.79313
G1 X-26.588 Y9.912 E6.80814
G1 X-25.033 Y11.466 E6.87341
G1 X-25.539 Y11.466 E6.88842
G1 X-27.094 Y9.912 E6.95370
G1 X-27.599 Y9.912 E6.96871
G1 X-26.045 Y11.466 E7.03399
G1 X-26.550 Y11.466 E7.04900
G1 X-28.105 Y9.912 E7.11427
G1 X-28.610 Y9.912 E7.12929
G1 X-27.056 Y11.466 E7.19456
G1 X-27.561 Y11.466 E7.20957
G1 X-29.097 Y9.930 E7.27406
G1 X-29.118 Y10.415 E7.28845
G1 X-28.067 Y11.466 E7.33259
G1 X-28.573 Y11.466 E7.34761
G1 X-29.118 Y10.921 E7.37051
G1 X-29.118 Y11.426 E7.38553
G1 X-29.078 Y11.466 E7.38721
G1 F600.000 E6.68721
G1 Z0.400 F7800.000
G92 E0
G1 X-29.357 Y-9.673 F7800.000
G1 Z0.200 F7800.000
G1 E0.70000 F600.000
G1 X-29.357 Y-11.705 E0.76034 F540.000
G1 X-14.241 Y-11.705 E1.20915
G1 X-16.615 Y-9.673 E1.30195
G1 X-29.305 Y-9.673 E1.67871
G1 X-29.714 Y-9.316 F7800.000
G1 X-29.714 Y-12.062 E1.76025 F540.000
G1 X-13.275 Y-12.062 E2.24836
G1 X-16.483 Y-9.316 E2.37376
G1 X-29.662 Y-9.316 E2.76504
G1 X-30.071 Y-8.959 F7800.000
G1 X-30.071 Y-12.419 E2.86779 F540.000
G1 X-12.309 Y-12.419 E3.39519
G1 X-16.351 Y-8.959 E3.55319
G1 X-30.019 Y-8.959 E3.95900
G1 X-30.428 Y-8.602 F7800.000
G1 X-30.428 Y-12.776 E4.08295 F378.000
G1 X-11.342 Y-12.776 E4.64964
G1 X-16.219 Y-8.602 E4.84025
G1 X-30.376 Y-8.602 E5.26058
G1 X-30.253 Y-8.905 F7800.000
G1 X-29.078 Y-9.912 F7800.000
G1 X-29.118 Y-9.952 E5.26225 F1080.000
G1 X-29.118 Y-10.457 E5.27726
G1 X-28.573 Y-9.912 E5.30017
G1 X-28.067 Y-9.912 E5.31518
G1 X-29.118 Y-10.963 E5.35931
G1 X-29.097 Y-11.447 E5.37371
G1 X-27.562 Y-9.912 E5.43819
G1 X-27.056 Y-9.912 E5.45320
G1 X-28.611 Y-11.466 E5.51848
G1 X-28.105 Y-11.466 E5.53349
G1 X-26.551 Y-9.912 E5.59876
G1 X-26.045 Y-9.912 E5.61377
G1 X-27.600 Y-11.466 E5.67905
G1 X-27.094 Y-11.466 E5.69405
G1 X-25.540 Y-9.912 E5.75933
G1 X-25.034 Y-9.912 E5.77434
G1 X-26.589 Y-11.466 E5.83961
G1 X-26.083 Y-11.466 E5.85462
G1 X-24.528 Y-9.912 E5.91990
G1 X-24.023 Y-9.912 E5.93491
G1 X-25.578 Y-11.466 E6.00018
G1 X-25.072 Y-11.466 E6.01519
G1 X-23.517 Y-9.912 E6.08047
G1 X-23.012 Y-9.912 E6.09548
G1 X-24.566 Y-11.466 E6.16075
G1 X-24.061 Y-11.466 E6.17576
G1 X-22.506 Y-9.912 E6.24104
G1 X-22.001 Y-9.912 E6.25605
G1 X-23.555 Y-11.466 E6.32132
G1 X-23.050 Y-11.466 E6.33633
G1 X-21.495 Y-9.912 E6.40161
G1 X-20.990 Y-9.912 E6.41662
G1 X-22.544 Y-11.466 E6.48189
G1 X-22.039 Y-11.466 E6.49690
G1 X-20.484 Y-9.912 E6.56218
G1 X-19.979 Y-9.912 E6.57719
G1 X-21.533 Y-11.466 E6.64246
G1 X-21.028 Y-11.466 E6.65747
G1 X-19.473 Y-9.912 E6.72275
G1 X-18.968 Y-9.912 E6.73776
G1 X-20.522 Y-11.466 E6.80303
G1 X-20.017 Y-11.466 E6.81804
G1 X-18.462 Y-9.912 E6.88332
G1 X-17.957 Y-9.912 E6.89833
G1 X-19.511 Y-11.466 E6.96360
G1 X-19.006 Y-11.466 E6.97861
G1 X-17.451 Y-9.912 E7.04389
G1 X-16.946 Y-9.912 E7.05890
G1 X-18.500 Y-11.466 E7.12417
G1 X-17.995 Y-11.466 E7.13918
G1 X-16.562 Y-10.033 E7.19936
G1 X-16.289 Y-10.266 E7.21000
G1 X-17.489 Y-11.466 E7.26039
G1 X-16.984 Y-11.466 E7.27540
G1 X-16.017 Y-10.499 E7.31599
G1 X-15.744 Y-10.733 E7.32664
G1 X-16.478 Y-11.466 E7.35744
G1 X-15.973 Y-11.466 E7.37245
G1 X-15.472 Y-10.966 E7.39346
G1 X-15.467 Y-11.466 E7.40833
G1 X-15.200 Y-11.199 E7.41955
G1 X-14.942 Y-11.446 E7.43017
G1 X-14.962 Y-11.466 E7.43101
G1 F600.000 E6.73101
G1 Z0.400 F7800.000
G92 E0
G1 X21.282 Y-0.914 F7800.000
G1 Z0.200 F7800.000
G1 E0.70000 F600.000
G1 X21.438 Y-1.374 E0.71442 F540.000
G1 X21.653 Y-1.810 E0.72885
G1 X21.900 Y-2.180 E0.74207
G1 X22.243 Y-2.579 E0.75769
G1 X22.608 Y-2.899 E0.77211
G1 X23.012 Y-3.169 E0.78654
G1 X23.412 Y-3.366 E0.79976
G1 X23.908 Y-3.540 E0.81538
G1 X24.384 Y-3.635 E0.82980
G1 X24.952 Y-3.661 E0.84667
G1 X25.354 Y-3.635 E0.85863 F540.000
G1 X25.830 Y-3.540 E0.87306
G1 X26.290 Y-3.384 E0.88748
G1 X26.726 Y-3.169 E0.90190
G1 X27.130 Y-2.899 E0.91633
G1 X27.495 Y-2.579 E0.93075
G1 X27.816 Y-2.214 E0.94518
G1 X28.085 Y-1.810 E0.95960
G1 X28.300 Y-1.374 E0.97403
G1 X28.456 Y-0.914 E0.98845
G1 X28.551 Y-0.438 E1.00287
G1 X28.583 Y0.047 E1.01730
G1 X28.551 Y0.532 E1.03172
G1 X28.456 Y1.009 E1.04615
G1 X28.300 Y1.469 E1.06057
G1 X28.085 Y1.904 E1.07500
G1 X27.815 Y2.308 E1.08942
G1 X27.495 Y2.674 E1.10385
G1 X27.130 Y2.994 E1.11827
G1 X26.726 Y3.264 E1.13270
G1 X26.290 Y3.479 E1.14712
G1 X25.830 Y3.635 E1.16154
G1 X25.354 Y3.730 E1.17597
G1 X24.869 Y3.761 E1.19039
G1 X24.384 Y3.730 E1.20482
G1 X23.908 Y3.635 E1.21924
G1 X23.448 Y3.479 E1.23367
G1 X23.012 Y3.264 E1.24809
G1 X22.608 Y2.994 E1.26251
G1 X22.243 Y2.674 E1.27694
G1 X21.923 Y2.308 E1.29136
G1 X21.653 Y1.904 E1.30579
G1 X21.438 Y1.469 E1.32021
G1 X21.282 Y1.008 E1.33464
G1 X21.187 Y0.532 E1.34906
G1 X21.155 Y0.047 E1.36349
G1 X21.187 Y-0.437 E1.37791
G1 X21.271 Y-0.862 E1.39077
G1 X21.622 Y-0.793 F7800.000
G1 X21.768 Y-1.237 E1.40466 F378.000
G1 X21.963 Y-1.631 E1.41770
G1 X22.206 Y-1.996 E1.43074
G1 X22.496 Y-2.326 E1.44377
G1 X22.826 Y-2.615 E1.45681
G1 X23.191 Y-2.859 E1.46984
G1 X23.585 Y-3.053 E1.48287
G1 X24.000 Y-3.194 E1.49591
G1 X24.431 Y-3.280 E1.50894
G1 X24.852 Y-3.308 E1.52147
G1 X25.307 Y-3.280 E1.53501 F378.000
G1 X25.738 Y-3.194 E1.54804
G1 X26.153 Y-3.053 E1.56108
G1 X26.547 Y-2.859 E1.57411
G1 X26.912 Y-2.615 E1.58715
G1 X27.242 Y-2.326 E1.60018
G1 X27.532 Y-1.996 E1.61322
G1 X27.776 Y-1.631 E1.62625
G1 X27.970 Y-1.237 E1.63929
G1 X28.111 Y-0.821 E1.65232
G1 X28.196 Y-0.391 E1.66535
G1 X28.224 Y0.030 E1.67788
G1 X28.196 Y0.485 E1.69142
G1 X28.111 Y0.916 E1.70445
G1 X27.970 Y1.332 E1.71749
G1 X27.776 Y1.725 E1.73052
G1 X27.541 Y2.076 E1.74305
G1 X27.242 Y2.420 E1.75659
G1 X26.912 Y2.710 E1.76962
G1 X26.547 Y2.954 E1.78266
G1 X26.153 Y3.148 E1.79569
G1 X25.738 Y3.289 E1.80872
G1 X25.307 Y3.375 E1.82176
G1 X24.869 Y3.403 E1.83479
G1 X24.431 Y3.375 E1.84783
G1 X24.000 Y3.289 E1.86086
G1 X23.585 Y3.148 E1.87390
G1 X23.191 Y2.954 E1.88693
G1 X22.826 Y2.710 E1.89997
G1 X22.496 Y2.420 E1.91300
G1 X22.206 Y2.090 E1.92604
G1 X21.963 Y1.725 E1.93907
G1 X21.768 Y1.332 E1.95211
G1 X21.627 Y0.916 E1.96514
G1 X21.542 Y0.485 E1.97818
G1 X21.513 Y0.047 E1.99121
G1 X21.542 Y-0.391 E2.00424
G1 X21.611 Y-0.741 E2.01486
G1 F600.000 E1.31486
G1 Z0.400 F7800.000
G92 E0
G1 X24.963 Y-3.640 F7800.000
G1 X23.101 Y-4.009 F7800.000
G1 Z0.200 F7800.000
G1 E0.70000 F600.000
G1 X22.654 Y-3.789 E0.71479 F540.000
G1 X22.173 Y-3.467 E0.73199
G1 X21.737 Y-3.085 E0.74920
G1 X21.355 Y-2.649 E0.76640
G1 X21.033 Y-2.167 E0.78361
G1 X20.776 Y-1.648 E0.80082
G1 X20.590 Y-1.099 E0.81802
G1 X20.477 Y-0.531 E0.83523
G1 X20.439 Y0.047 E0.85241
G1 X20.477 Y0.626 E0.86963
G1 X20.590 Y1.194 E0.88682
G1 X20.777 Y1.742 E0.90403
G1 X21.033 Y2.262 E0.92124
G1 X21.355 Y2.744 E0.93844
G1 X21.737 Y3.180 E0.95565
G1 X22.172 Y3.562 E0.97285
G1 X22.917 Y4.059 E0.99945
G1 X9.418 Y7.753 E1.41500
G1 X11.114 Y-0.000 E1.65063
G1 X9.418 Y-7.753 E1.88627
G1 X23.050 Y-4.023 E2.30590
G1 X27.113 Y-3.769 F7800.000
G1 X27.175 Y-3.972 E2.31220 F540.000
G1 X29.357 Y-3.972 E2.37699
G1 X29.357 Y-1.227 E2.45850
G1 X29.118 Y-1.187 E2.46569
G1 X28.962 Y-1.648 E2.48014
G1 X28.705 Y-2.168 E2.49735
G1 X28.383 Y-2.649 E2.51455
G1 X28.001 Y-3.085 E2.53175
G1 X27.566 Y-3.467 E2.54895
G1 X27.157 Y-3.740 E2.56355
G1 X29.118 Y1.282 F7800.000
G1 X29.357 Y1.321 E2.57074 F540.000
G1 X29.357 Y3.972 E2.64944
G1 X27.317 Y3.972 E2.71003
G1 X27.255 Y3.769 E2.71632
G1 X27.566 Y3.562 E2.72741
G1 X28.001 Y3.180 E2.74461
G1 X28.383 Y2.744 E2.76181
G1 X28.705 Y2.262 E2.77902
G1 X28.962 Y1.742 E2.79623
G1 X29.101 Y1.331 E2.80911
G1 X29.714 Y4.329 F7800.000
G1 X25.491 Y4.329 E2.93449 F540.000
G1 X25.466 Y4.071 E2.94218
G1 X25.923 Y3.980 E2.95601
G1 X26.427 Y3.809 E2.97182
G1 X26.905 Y3.574 E2.98764
G1 X27.348 Y3.278 E3.00345
G1 X27.748 Y2.927 E3.01926
G1 X28.099 Y2.526 E3.03507
G1 X28.395 Y2.083 E3.05089
G1 X28.631 Y1.605 E3.06671
G1 X28.802 Y1.101 E3.08252
G1 X28.906 Y0.579 E3.09834
G1 X28.941 Y0.048 E3.11415
G1 X28.906 Y-0.484 E3.12997
G1 X28.802 Y-1.006 E3.14578
G1 X28.631 Y-1.511 E3.16159
G1 X28.395 Y-1.989 E3.17741
G1 X28.099 Y-2.431 E3.19322
G1 X27.748 Y-2.832 E3.20904
G1 X27.348 Y-3.183 E3.22485
G1 X26.905 Y-3.479 E3.24066
G1 X26.427 Y-3.715 E3.25648
G1 X25.923 Y-3.886 E3.27229
G1 X25.337 Y-3.994 E3.28999
G1 X24.869 Y-4.024 E3.30390
G1 X24.338 Y-3.990 E3.31972
G1 X23.815 Y-3.886 E3.33553
G1 X23.254 Y-3.686 E3.35323
G1 X22.833 Y-3.479 E3.36715
G1 X22.390 Y-3.183 E3.38296
G1 X21.990 Y-2.832 E3.39878
G1 X21.639 Y-2.431 E3.41459
G1 X21.343 Y-1.988 E3.43041
G1 X21.107 Y-1.511 E3.44623
G1 X20.936 Y-1.007 E3.46203
G1 X20.832 Y-0.484 E3.47785
G1 X20.797 Y0.047 E3.49365
G1 X20.832 Y0.579 E3.50948
G1 X20.956 Y1.162 E3.52717
G1 X21.107 Y1.606 E3.54109
G1 X21.343 Y2.083 E3.55691
G1 X21.639 Y2.526 E3.57272
G1 X21.990 Y2.927 E3.58853
G1 X22.390 Y3.278 E3.60435
G1 X22.833 Y3.574 E3.62016
G1 X23.311 Y3.809 E3.63597
G1 X23.815 Y3.980 E3.65179
G1 X24.272 Y4.071 E3.66562
G1 X24.247 Y4.329 E3.67331
G1 X23.285 Y4.329 E3.70185
G1 X8.943 Y8.253 E4.14334
G1 X10.748 Y-0.000 E4.39418
G1 X8.943 Y-8.253 E4.64501
G1 X23.285 Y-4.329 E5.08650
G1 X29.714 Y-4.329 E5.27738
G1 X29.714 Y4.276 E5.53289
G1 X30.071 Y4.686 F7800.000
G1 X23.333 Y4.686 E5.73294 F540.000
G1 X8.468 Y8.753 E6.19053
G1 X10.383 Y-0.000 E6.45656
G1 X8.468 Y-8.753 E6.72260
G1 X23.333 Y-4.686 E7.18019
G1 X30.071 Y-4.686 E7.38024
G1 X30.071 Y4.634 E7.65695
G1 X30.428 Y5.043 F7800.000
G1 X23.381 Y5.043 E7.86619 F378.000
G1 X7.993 Y9.253 E8.33987
G1 X10.017 Y-0.000 E8.62111
G1 X7.993 Y-9.253 E8.90234
G1 X23.381 Y-5.043 E9.37602
G1 X30.428 Y-5.043 E9.58526
G1 X30.428 Y4.991 E9.88317
G1 X30.125 Y4.868 F7800.000
G1 X22.188 Y4.011 F7800.000
G1 X11.144 Y-7.033 E10.34692 F1080.000
G1 X10.442 Y-7.225 E10.36852
G1 X21.788 Y4.121 E10.84493
G1 X21.388 Y4.230 F7800.000
G1 X9.765 Y-7.393 E11.33297 F1080.000
G1 X9.877 Y-6.770 E11.35176
G1 X20.987 Y4.340 E11.81826
G1 X20.587 Y4.449 E11.83058
G1 X10.020 Y-6.117 E12.27428
G1 X10.163 Y-5.465 E12.29412
G1 X20.187 Y4.559 E12.71501
G1 X19.786 Y4.668 E12.72733
G1 X10.306 Y-4.812 E13.12543
G1 X10.448 Y-4.160 E13.14526
G1 X19.386 Y4.778 E13.52055
G1 X18.986 Y4.887 E13.53287
G1 X10.591 Y-3.507 E13.88536
G1 X10.734 Y-2.855 E13.90520
G1 X18.585 Y4.997 E14.23488
G1 X18.185 Y5.107 E14.24720
G1 X10.877 Y-2.202 E14.55409
G1 X11.019 Y-1.549 E14.57392
G1 X17.785 Y5.216 E14.85800
G1 X17.384 Y5.326 E14.87032
G1 X11.162 Y-0.897 E15.13160
G1 X11.305 Y-0.244 E15.15143
G1 X16.984 Y5.435 E15.38991
G1 X16.584 Y5.545 E15.40223
G1 X11.301 Y0.262 E15.62406
G1 X11.210 Y0.680 E15.63677
G1 X16.184 Y5.654 E15.84563
G1 X15.783 Y5.764 E15.85795
G1 X11.118 Y1.098 E16.05384
G1 X11.026 Y1.517 E16.06656
G1 X15.383 Y5.873 E16.24948
G1 X14.983 Y5.983 E16.26181
G1 X10.935 Y1.935 E16.43177
G1 X10.843 Y2.353 E16.44448
G1 X14.582 Y6.092 E16.60147
G1 X14.182 Y6.202 E16.61379
G1 X10.752 Y2.772 E16.75782
G1 X10.660 Y3.190 E16.77053
G1 X13.782 Y6.311 E16.90159
G1 X13.381 Y6.421 E16.91391
G1 X10.569 Y3.608 E17.03201
G1 X10.477 Y4.027 E17.04472
G1 X12.981 Y6.530 E17.14984
G1 X12.581 Y6.640 E17.16217
G1 X10.386 Y4.445 E17.25432
G1 X10.294 Y4.863 E17.26704
G1 X12.180 Y6.749 E17.34623
G1 X11.780 Y6.859 E17.35855
G1 X10.203 Y5.282 E17.42477
G1 X10.111 Y5.700 E17.43749
G1 X11.380 Y6.968 E17.49075
G1 X10.979 Y7.078 E17.50307
G1 X10.020 Y6.118 E17.54336
G1 X9.928 Y6.537 E17.55607
G1 X10.579 Y7.187 E17.58340
G1 X10.179 Y7.297 E17.59572
G1 X9.837 Y6.955 E17.61007
G1 X9.745 Y7.373 E17.62279
G1 X9.779 Y7.406 E17.62418
G1 X20.589 Y1.902 F7800.000
G1 X11.846 Y-6.841 E17.99130 F1080.000
G1 X12.548 Y-6.649 E18.01290
G1 X20.336 Y1.139 E18.33992
G1 X20.231 Y0.525 E18.35843
G1 X13.250 Y-6.457 E18.65159
G1 X13.952 Y-6.265 E18.67319
G1 X20.204 Y-0.012 E18.93573
G1 X20.235 Y-0.491 E18.94997
G1 X14.653 Y-6.073 E19.18435
G1 X15.355 Y-5.881 E19.20596
G1 X20.312 Y-0.924 E19.41409
G1 X20.416 Y-1.330 E19.42652
G1 X16.057 Y-5.689 E19.60956
G1 X16.759 Y-5.497 E19.63117
G1 X20.545 Y-1.710 E19.79016
G1 X20.711 Y-2.055 E19.80150
G1 X17.461 Y-5.305 E19.93797
G1 X18.163 Y-5.113 E19.95958
G1 X20.891 Y-2.385 E20.07413
G1 X21.095 Y-2.690 E20.08504
G1 X18.865 Y-4.921 E20.17869
G1 X19.566 Y-4.729 E20.20030
G1 X21.321 Y-2.974 E20.27399
G1 X21.560 Y-3.245 E20.28472
G1 X20.268 Y-4.537 E20.33894
G1 X20.970 Y-4.345 E20.36055
G1 X21.830 Y-3.485 E20.39666
G1 X21.672 Y-4.153 E20.41704
G1 X22.111 Y-3.713 E20.43549
G1 X22.417 Y-3.918 E20.44640
G1 X22.374 Y-3.961 E20.44820
G1 X26.206 Y-4.067 F7800.000
G1 X26.970 Y-3.912 E20.45839 F360.000
G1 X29.078 Y-3.733 F7800.000
G1 X29.118 Y-3.693 E20.46007 F1080.000
G1 X29.118 Y-3.140 E20.47648
G1 X28.526 Y-3.733 E20.50136
G1 X27.973 Y-3.733 E20.51777
G1 X29.118 Y-2.588 E20.56585
G1 X28.958 Y-2.196 E20.57843
G1 X29.018 Y-2.135 E20.58098
G1 X29.260 Y-1.030 F7800.000
G1 X29.309 Y-0.522 E20.60458 F360.000
G1 X29.327 Y0.034 E20.63037
G1 X29.309 Y0.617 E20.65737
G1 X29.260 Y1.124 E20.68099
G1 X29.071 Y2.242 F7800.000
G1 X29.118 Y2.289 E20.68296 F1080.000
G1 X28.811 Y2.533 E20.69461
G1 X29.118 Y2.840 E20.70750
