; generated by Slic3r 1.0.1-dev on 2014-05-04 at 13:57:57

; layer_height = 0.18
; perimeters = 4
; top_solid_layers = 3
; bottom_solid_layers = 2
; fill_density = 0.8
; perimeter_speed = 30
; infill_speed = 60
; travel_speed = 130
; nozzle_diameter = 0.35
; filament_diameter = 1.75
; extrusion_multiplier = 1
; perimeters extrusion width = 0.35mm
; infill extrusion width = 0.57mm
; solid infill extrusion width = 0.57mm
; top infill extrusion width = 0.57mm
; first layer extrusion width = 0.40mm

G21 ; set units to millimeters
M107
G28
G92 X0 Y0 Z0 E0
G1 F5000 Y30 X30
G1 X220
G1 F100 E10
G28
G92 X0 Y0 Z0
G1 F4000 X101 Y127
G92 X0 Y0 Z0 E0
M106 S255
G90 ; use absolute coordinates
G92 E0
M82 ; use absolute distances for extrusion
G1 F600.000 E-0.70000
G1 Z0.400 F7800.000
G92 E0
G1 X5.315 Y-19.927 F7800.000
G1 Z0.200 F7800.000
G1 E0.70000 F600.000
G1 X32.230 Y-11.069 E1.61716 F540.000
G1 X34.212 Y-9.999 E1.69005
G1 X35.699 Y-8.308 E1.76294
G1 X36.507 Y-6.206 E1.83584
G1 X36.622 Y-5.000 E1.87505
G1 X36.622 Y5.000 E2.19873
G1 X36.225 Y7.217 E2.27162
G1 X35.084 Y9.158 E2.34451
G1 X33.340 Y10.583 E2.41741
G1 X32.230 Y11.069 E2.45662
G1 X5.172 Y19.972 E3.37862
G1 X2.358 Y20.826 E3.47380
G1 X1.130 Y21.070 E3.51434
G1 X-1.796 Y21.359 E3.60952
G1 X-3.049 Y21.359 E3.65006
G1 X-5.975 Y21.070 E3.74524
G1 X-7.204 Y20.826 E3.78578
G1 X-10.543 Y19.788 E3.89897
G1 X-32.613 Y10.929 E4.66872
G1 X-34.522 Y9.735 E4.74161
G1 X-35.899 Y7.953 E4.81451
G1 X-36.622 Y5.000 E4.91292
G1 X-36.622 Y-5.000 E5.23660
G1 X-36.225 Y-7.217 E5.30949
G1 X-35.084 Y-9.158 E5.38238
G1 X-32.613 Y-10.929 E5.48080
G1 X-10.018 Y-19.972 E6.26856
G1 X-7.204 Y-20.826 E6.36373
G1 X-5.975 Y-21.070 E6.40428
G1 X-3.048 Y-21.359 E6.49949
G1 X-1.796 Y-21.359 E6.54000
G1 X1.130 Y-21.070 E6.63517
G1 X2.358 Y-20.826 E6.67572
G1 X5.259 Y-19.944 E6.77385
G1 F600.000 E6.07385
G1 Z0.400 F7800.000
G92 E0
G1 X22.251 Y-2.493 F7800.000
G1 Z0.200 F7800.000
G1 E0.70000 F600.000
G1 X22.796 Y-2.939 E0.72279 F540.000
G1 X23.417 Y-3.271 E0.74559
G1 X24.091 Y-3.476 E0.76838
G1 X24.791 Y-3.545 E0.79117
G1 X25.492 Y-3.476 E0.81396
G1 X26.166 Y-3.271 E0.83676
G1 X26.787 Y-2.939 E0.85955
G1 X27.331 Y-2.493 E0.88234
G1 X27.778 Y-1.948 E0.90514
G1 X28.110 Y-1.327 E0.92793
G1 X28.314 Y-0.653 E0.95072
G1 X28.384 Y0.047 E0.97351
G1 X28.314 Y0.748 E0.99631
G1 X28.110 Y1.422 E1.01910
G1 X27.778 Y2.043 E1.04189
G1 X27.331 Y2.587 E1.06469
G1 X26.787 Y3.034 E1.08747
G1 X26.166 Y3.366 E1.11027
G1 X25.492 Y3.570 E1.13306
G1 X24.791 Y3.639 E1.15585
G1 X24.091 Y3.570 E1.17865
G1 X23.417 Y3.366 E1.20144
G1 X22.796 Y3.034 E1.22423
G1 X22.251 Y2.587 E1.24703
G1 X21.805 Y2.043 E1.26982
G1 X21.473 Y1.422 E1.29261
G1 X21.268 Y0.748 E1.31541
G1 X21.199 Y0.047 E1.33820
G1 X21.268 Y-0.654 E1.36099
G1 X21.473 Y-1.327 E1.38379
G1 X21.805 Y-1.948 E1.40658
G1 X22.214 Y-2.448 E1.42748
G1 X22.512 Y-2.196 F7800.000
G1 X23.013 Y-2.614 E1.44860 F540.000
G1 X23.566 Y-2.910 E1.46891
G1 X24.167 Y-3.092 E1.48923
G1 X24.791 Y-3.154 E1.50954
G1 X25.416 Y-3.092 E1.52985
G1 X26.016 Y-2.910 E1.55016
G1 X26.570 Y-2.614 E1.57047
G1 X27.055 Y-2.216 E1.59078
G1 X27.453 Y-1.731 E1.61109
G1 X27.749 Y-1.178 E1.63140
G1 X27.931 Y-0.577 E1.65171
G1 X27.992 Y0.047 E1.67202
G1 X27.931 Y0.672 E1.69233
G1 X27.749 Y1.272 E1.71265
G1 X27.453 Y1.826 E1.73296
G1 X27.055 Y2.311 E1.75327
G1 X26.570 Y2.709 E1.77358
G1 X26.016 Y3.005 E1.79389
G1 X25.416 Y3.187 E1.81420
G1 X24.791 Y3.248 E1.83451
G1 X24.167 Y3.187 E1.85482
G1 X23.566 Y3.005 E1.87513
G1 X23.013 Y2.709 E1.89544
G1 X22.528 Y2.311 E1.91575
G1 X22.130 Y1.826 E1.93607
G1 X21.834 Y1.272 E1.95638
G1 X21.652 Y0.672 E1.97669
G1 X21.590 Y0.047 E1.99700
G1 X21.652 Y-0.577 E2.01731
G1 X21.834 Y-1.178 E2.03762
G1 X22.130 Y-1.731 E2.05793
G1 X22.475 Y-2.151 E2.07552
G1 X22.421 Y-2.575 F7800.000
G1 X21.807 Y-3.135 F7800.000
G1 X21.698 Y-3.046 E2.08008 F540.000
G1 X21.154 Y-2.383 E2.10783
G1 X20.750 Y-1.627 E2.13559
G1 X20.501 Y-0.806 E2.16334
G1 X20.417 Y0.047 E2.19110
G1 X20.501 Y0.901 E2.21886
G1 X20.750 Y1.721 E2.24662
G1 X21.154 Y2.478 E2.27437
G1 X21.698 Y3.140 E2.30213
G1 X22.297 Y3.632 E2.32722
G1 X10.905 Y3.632 E2.69598
G1 X11.185 Y2.707 E2.72728
G1 X11.452 Y-0.000 E2.81532
G1 X11.185 Y-2.707 E2.90335
G1 X10.905 Y-3.632 E2.93465
G1 X22.413 Y-3.632 E3.30715
G1 X21.852 Y-3.172 E3.33062
G1 F600.000 E2.63062
G1 Z0.400 F7800.000
G92 E0
G1 X-15.750 Y-3.632 F7800.000
G1 Z0.200 F7800.000
G1 E0.70000 F600.000
G1 X-16.030 Y-2.707 E0.73130 F540.000
G1 X-16.064 Y-2.368 E0.74233
G1 X-28.865 Y-2.368 E1.15668
G1 X-28.865 Y-3.632 E1.19760
G1 X-15.808 Y-3.632 E1.62023
G1 F600.000 E0.92023
G1 Z0.400 F7800.000
G92 E0
G1 X-16.064 Y2.368 F7800.000
G1 Z0.200 F7800.000
G1 E0.70000 F600.000
G1 X-16.030 Y2.707 E0.71102 F540.000
G1 X-15.750 Y3.632 E0.74233
G1 X-28.865 Y3.632 E1.16684
G1 X-28.865 Y2.368 E1.20777
G1 X-16.122 Y2.368 E1.62023
G1 X-15.647 Y2.630 F7800.000
G1 X-14.880 Y5.160 E1.70579 F540.000
G1 X-13.634 Y7.491 E1.79134
G1 X-11.957 Y9.534 E1.87689
G1 X-9.913 Y11.211 E1.96245
G1 X-7.582 Y12.457 E2.04800
G1 X-5.053 Y13.224 E2.13356
G1 X-2.423 Y13.483 E2.21911
G1 X0.208 Y13.224 E2.30466
G1 X2.737 Y12.457 E2.39022
G1 X5.068 Y11.211 E2.47578
G1 X7.111 Y9.534 E2.56133
G1 X8.788 Y7.491 E2.64688
G1 X10.034 Y5.160 E2.73244
G1 X10.802 Y2.630 E2.81799
G1 X11.061 Y-0.000 E2.90355
G1 X10.802 Y-2.630 E2.98910
G1 X10.034 Y-5.160 E3.07465
G1 X8.788 Y-7.491 E3.16021
G1 X7.112 Y-9.534 E3.24576
G1 X5.068 Y-11.211 E3.33132
G1 X2.737 Y-12.457 E3.41687
G1 X0.208 Y-13.224 E3.50243
G1 X-2.423 Y-13.483 E3.58798
G1 X-5.053 Y-13.224 E3.67354
G1 X-7.582 Y-12.457 E3.75909
G1 X-9.913 Y-11.211 E3.84465
G1 X-11.957 Y-9.534 E3.93020
G1 X-13.633 Y-7.491 E4.01575
G1 X-14.880 Y-5.160 E4.10131
G1 X-15.647 Y-2.630 E4.18686
G1 X-15.711 Y-1.979 E4.20807
G1 X-29.254 Y-1.979 E4.64644
G1 X-29.254 Y-4.021 E4.71256
G1 X-15.780 Y-4.021 E5.14871
G1 X-15.372 Y-5.364 E5.19412
G1 X-14.077 Y-7.787 E5.28306
G1 X-12.334 Y-9.911 E5.37200
G1 X-10.210 Y-11.654 E5.46094
G1 X-7.787 Y-12.950 E5.54988
G1 X-5.157 Y-13.747 E5.63882
G1 X-2.423 Y-14.017 E5.72776
G1 X0.312 Y-13.747 E5.81670
G1 X2.941 Y-12.950 E5.90564
G1 X5.365 Y-11.654 E5.99458
G1 X7.489 Y-9.911 E6.08351
G1 X9.232 Y-7.787 E6.17245
G1 X10.527 Y-5.364 E6.26139
G1 X10.934 Y-4.021 E6.30680
G1 X23.404 Y-4.021 E6.71043
G1 X23.454 Y-3.689 E6.72129
G1 X23.267 Y-3.633 E6.72760
G1 X22.578 Y-3.265 E6.75288
G1 X21.975 Y-2.769 E6.77815
G1 X21.479 Y-2.166 E6.80343
G1 X21.111 Y-1.477 E6.82870
G1 X21.082 Y-1.379 E6.83201
G1 X20.885 Y-0.730 E6.85397
G1 X20.808 Y0.047 E6.87925
G1 X20.885 Y0.824 E6.90453
G1 X21.111 Y1.572 E6.92980
G1 X21.479 Y2.260 E6.95507
G1 X21.975 Y2.864 E6.98035
G1 X22.053 Y2.928 E6.98364
G1 X22.578 Y3.359 E7.00563
G1 X23.266 Y3.727 E7.03086
G1 X23.192 Y4.021 E7.04069
G1 X10.934 Y4.021 E7.43744
G1 X10.527 Y5.364 E7.48285
G1 X9.232 Y7.787 E7.57179
G1 X7.489 Y9.911 E7.66073
G1 X5.365 Y11.654 E7.74967
G1 X2.941 Y12.950 E7.83861
G1 X0.312 Y13.747 E7.92755
G1 X-2.423 Y14.017 E8.01649
G1 X-5.157 Y13.747 E8.10543
G1 X-7.787 Y12.950 E8.19437
G1 X-10.210 Y11.654 E8.28331
G1 X-12.334 Y9.911 E8.37225
G1 X-14.077 Y7.787 E8.46119
G1 X-15.372 Y5.364 E8.55012
G1 X-15.780 Y4.021 E8.59553
G1 X-29.254 Y4.021 E9.03168
G1 X-29.254 Y1.979 E9.09781
G1 X-15.711 Y1.979 E9.53618
G1 X-15.653 Y2.572 E9.55549
G1 F600.000 E8.85549
G1 Z0.400 F7800.000
G92 E0
G1 X27.285 Y3.632 F7800.000
G1 Z0.200 F7800.000
G1 E0.70000 F600.000
G1 X27.885 Y3.141 E0.72508 F540.000
G1 X28.429 Y2.478 E0.75284
G1 X28.570 Y2.212 E0.76258
G1 X28.865 Y2.286 E0.77241
G1 X28.865 Y3.632 E0.81598
G1 X27.344 Y3.632 E0.86522
G1 X28.570 Y-2.118 F7800.000
G1 X28.429 Y-2.383 E0.87496 F540.000
G1 X27.885 Y-3.046 E0.90272
G1 X27.170 Y-3.632 E0.93264
G1 X28.865 Y-3.632 E0.98750
G1 X28.865 Y-2.191 E1.03413
G1 X28.627 Y-2.132 E1.04208
G1 X28.152 Y-2.075 F7800.000
G1 X28.103 Y-2.166 E1.04539 F540.000
G1 X27.608 Y-2.769 E1.07066
G1 X27.004 Y-3.265 E1.09594
G1 X26.316 Y-3.633 E1.12121
G1 X26.129 Y-3.689 E1.12752
G1 X26.178 Y-4.021 E1.13839
G1 X29.254 Y-4.021 E1.23795
G1 X29.254 Y4.021 E1.49828
G1 X26.391 Y4.021 E1.59098
G1 X26.317 Y3.727 E1.60081
G1 X27.004 Y3.359 E1.62605
G1 X27.608 Y2.864 E1.65131
G1 X28.103 Y2.260 E1.67659
G1 X28.471 Y1.572 E1.70186
G1 X28.698 Y0.824 E1.72714
G1 X28.775 Y0.047 E1.75241
G1 X28.698 Y-0.730 E1.77769
G1 X28.471 Y-1.477 E1.80296
G1 X28.179 Y-2.024 E1.82304
G1 F600.000 E1.12304
G1 Z0.400 F7800.000
G92 E0
G1 X-29.644 Y-4.411 F7800.000
G1 Z0.200 F7800.000
G1 E0.70000 F600.000
G1 X-16.068 Y-4.411 E1.13941 F540.000
G1 X-15.734 Y-5.514 E1.17671
G1 X-14.402 Y-8.005 E1.26813
G1 X-12.611 Y-10.188 E1.35955
G1 X-10.427 Y-11.980 E1.45097
G1 X-7.936 Y-13.311 E1.54240
G1 X-5.233 Y-14.131 E1.63382
G1 X-2.423 Y-14.408 E1.72524
G1 X0.388 Y-14.131 E1.81666
G1 X3.091 Y-13.311 E1.90808
G1 X5.582 Y-11.980 E1.99950
G1 X7.765 Y-10.188 E2.09092
G1 X9.557 Y-8.005 E2.18234
G1 X10.889 Y-5.514 E2.27377
G1 X11.223 Y-4.411 E2.31107
G1 X29.644 Y-4.411 E2.90731
G1 X29.644 Y4.411 E3.19284
G1 X11.223 Y4.411 E3.78907
G1 X10.889 Y5.514 E3.82638
G1 X9.557 Y8.005 E3.91780
G1 X7.765 Y10.188 E4.00922
G1 X5.582 Y11.980 E4.10064
G1 X3.091 Y13.311 E4.19206
G1 X0.388 Y14.131 E4.28348
G1 X-2.423 Y14.408 E4.37490
G1 X-5.233 Y14.131 E4.46633
G1 X-7.936 Y13.311 E4.55775
G1 X-10.427 Y11.980 E4.64917
G1 X-12.610 Y10.188 E4.74059
G1 X-14.402 Y8.005 E4.83201
G1 X-15.734 Y5.514 E4.92343
G1 X-16.068 Y4.411 E4.96074
G1 X-29.644 Y4.411 E5.40014
G1 X-29.644 Y1.589 E5.49147
G1 X-15.358 Y1.589 E5.95386
G1 X-15.263 Y2.554 E5.98524
G1 X-14.518 Y5.010 E6.06831
G1 X-13.308 Y7.274 E6.15139
G1 X-11.680 Y9.258 E6.23446
G1 X-9.696 Y10.886 E6.31753
G1 X-7.433 Y12.096 E6.40060
G1 X-4.977 Y12.841 E6.48368
G1 X-2.423 Y13.092 E6.56675
G1 X0.132 Y12.841 E6.64982
G1 X2.588 Y12.096 E6.73289
G1 X4.851 Y10.886 E6.81597
G1 X6.835 Y9.258 E6.89904
G1 X7.526 Y8.415 E6.93430
G1 X8.463 Y7.274 E6.98211
G1 X9.673 Y5.010 E7.06518
G1 X10.418 Y2.554 E7.14825
G1 X10.670 Y-0.000 E7.23133
G1 X10.418 Y-2.554 E7.31440
G1 X9.673 Y-5.010 E7.39747
G1 X8.463 Y-7.274 E7.48054
G1 X6.835 Y-9.258 E7.56362
G1 X4.851 Y-10.886 E7.64669
G1 X2.588 Y-12.096 E7.72976
G1 X0.132 Y-12.841 E7.81283
G1 X-2.423 Y-13.092 E7.89591
G1 X-4.977 Y-12.841 E7.97898
G1 X-7.433 Y-12.096 E8.06205
G1 X-9.696 Y-10.886 E8.14512
G1 X-9.901 Y-10.718 E8.15370
G1 X-11.680 Y-9.258 E8.22820
G1 X-13.308 Y-7.274 E8.31127
G1 X-14.518 Y-5.010 E8.39434
G1 X-15.263 Y-2.554 E8.47741
G1 X-15.358 Y-1.589 E8.50880
G1 X-29.644 Y-1.589 E8.97119
G1 X-29.644 Y-4.352 E9.06062
G1 X-30.033 Y-4.800 F7800.000
G1 X-16.357 Y-4.800 E9.50328 F378.000
G1 X-16.095 Y-5.663 E9.53248
G1 X-14.728 Y-8.222 E9.62639
G1 X-12.887 Y-10.464 E9.72029
G1 X-10.645 Y-12.305 E9.81419
G1 X-8.086 Y-13.673 E9.90810
G1 X-5.310 Y-14.515 E10.00200
G1 X-2.423 Y-14.799 E10.09590
G1 X0.465 Y-14.515 E10.18981
G1 X3.241 Y-13.673 E10.28371
G1 X5.799 Y-12.305 E10.37761
G1 X8.042 Y-10.465 E10.47152
G1 X9.882 Y-8.222 E10.56542
G1 X11.250 Y-5.663 E10.65932
G1 X11.512 Y-4.800 E10.68852
G1 X30.033 Y-4.800 E11.28801
G1 X30.033 Y4.800 E11.59875
G1 X11.512 Y4.800 E12.19823
G1 X11.250 Y5.663 E12.22744
G1 X9.882 Y8.222 E12.32134
G1 X8.042 Y10.465 E12.41524
G1 X5.799 Y12.305 E12.50915
G1 X3.241 Y13.673 E12.60305
G1 X0.465 Y14.515 E12.69695
G1 X-2.423 Y14.799 E12.79086
G1 X-5.310 Y14.515 E12.88476
G1 X-8.086 Y13.673 E12.97866
G1 X-10.644 Y12.305 E13.07256
G1 X-12.887 Y10.465 E13.16647
G1 X-14.728 Y8.222 E13.26037
G1 X-16.095 Y5.663 E13.35427
G1 X-16.357 Y4.800 E13.38348
G1 X-30.033 Y4.800 E13.82614
G1 X-30.033 Y1.200 E13.94266
G1 X-15.005 Y1.200 E14.42907
G1 X-14.880 Y2.478 E14.47063
G1 X-14.157 Y4.860 E14.55122
G1 X-12.983 Y7.056 E14.63181
G1 X-11.404 Y8.981 E14.71240
G1 X-9.479 Y10.560 E14.79300
G1 X-7.283 Y11.734 E14.87359
G1 X-4.900 Y12.457 E14.95418
G1 X-2.423 Y12.701 E15.03477
G1 X0.055 Y12.457 E15.11536
G1 X2.438 Y11.734 E15.19595
G1 X4.634 Y10.560 E15.27654
G1 X6.558 Y8.981 E15.35713
G1 X7.226 Y8.167 E15.39120
G1 X8.138 Y7.056 E15.43772
G1 X9.312 Y4.860 E15.51831
G1 X10.034 Y2.478 E15.59890
G1 X10.278 Y-0.000 E15.67949
G1 X10.034 Y-2.478 E15.76008
G1 X9.312 Y-4.860 E15.84067
G1 X8.138 Y-7.056 E15.92126
G1 X6.558 Y-8.981 E16.00185
G1 X4.634 Y-10.560 E16.08244
G1 X2.438 Y-11.734 E16.16303
G1 X0.055 Y-12.457 E16.24362
G1 X-2.423 Y-12.701 E16.32421
G1 X-4.900 Y-12.457 E16.40480
G1 X-7.283 Y-11.734 E16.48539
G1 X-9.479 Y-10.560 E16.56599
G1 X-9.654 Y-10.417 E16.57332
G1 X-11.404 Y-8.981 E16.64658
G1 X-12.983 Y-7.056 E16.72717
G1 X-14.157 Y-4.860 E16.80776
G1 X-14.880 Y-2.478 E16.88835
G1 X-15.005 Y-1.200 E16.92991
G1 X-30.033 Y-1.200 E17.41632
G1 X-30.033 Y-4.742 E17.53095
G1 X-29.696 Y-4.605 F7800.000
G1 F600.000 E16.83095
G1 Z0.400 F7800.000
G92 E0
G1 X11.305 Y3.370 F7800.000
G1 Z0.200 F7800.000
G1 E0.70000 F600.000
G1 X11.269 Y3.334 E0.70170 F1080.000
G1 X11.401 Y2.899 E0.71683
G1 X11.872 Y3.370 E0.73901
G1 X12.438 Y3.370 E0.75789
G1 X11.478 Y2.410 E0.80313
G1 X11.529 Y1.894 E0.82040
G1 X13.005 Y3.370 E0.88994
G1 X13.571 Y3.370 E0.90881
G1 X11.580 Y1.378 E1.00265
G1 X11.630 Y0.862 E1.01992
G1 X14.138 Y3.370 E1.13806
G1 X14.705 Y3.370 E1.15694
G1 X11.681 Y0.347 E1.29938
G1 X11.695 Y-0.206 E1.31780
G1 X15.271 Y3.370 E1.48628
G1 X15.838 Y3.370 E1.50515
G1 X11.633 Y-0.835 E1.70325
G1 X11.571 Y-1.463 E1.72428
G1 X16.404 Y3.370 E1.95198
G1 X16.971 Y3.370 E1.97086
G1 X11.509 Y-2.092 E2.22817
G1 X11.447 Y-2.720 E2.24921
G1 X17.538 Y3.370 E2.53613
G1 X18.104 Y3.370 E2.55500
G1 X11.364 Y-3.370 E2.87254
G1 X11.931 Y-3.370 E2.89142
G1 X18.671 Y3.370 E3.20895
G1 X19.237 Y3.370 E3.22783
G1 X12.497 Y-3.370 E3.54536
G1 X13.064 Y-3.370 E3.56424
G1 X19.804 Y3.370 E3.88178
G1 X20.370 Y3.370 E3.90065
G1 X13.630 Y-3.370 E4.21819
G1 X14.197 Y-3.370 E4.23706
G1 X20.937 Y3.370 E4.55460
G1 X21.494 Y3.361 E4.57317
G1 X14.764 Y-3.370 E4.89027
G1 X15.330 Y-3.370 E4.90914
G1 X20.500 Y1.799 E5.15268
G1 X20.253 Y0.986 E5.18100
G1 X15.897 Y-3.370 E5.38622
G1 X16.463 Y-3.370 E5.40510
G1 X20.183 Y0.350 E5.58035
G1 X20.180 Y-0.220 E5.59934
G1 X17.030 Y-3.370 E5.74774
G1 X17.597 Y-3.370 E5.76662
G1 X20.231 Y-0.736 E5.89072
G1 X20.343 Y-1.190 E5.90629
G1 X18.163 Y-3.370 E6.00901
G1 X18.730 Y-3.370 E6.02789
G1 X20.475 Y-1.624 E6.11012
G1 X20.657 Y-2.009 E6.12430
G1 X19.296 Y-3.370 E6.18841
G1 X19.863 Y-3.370 E6.20729
G1 X20.854 Y-2.378 E6.25400
G1 X21.086 Y-2.713 E6.26757
G1 X20.429 Y-3.370 E6.29850
G1 X20.996 Y-3.370 E6.31738
G1 X21.342 Y-3.025 E6.33365
G1 X21.597 Y-3.336 E6.34707
G1 X21.563 Y-3.370 E6.34868
G1 X23.804 Y-3.841 F7800.000
G1 X24.320 Y-4.041 E6.37200 F360.000
G1 X24.477 Y-3.885 E6.38133 F360.000
G1 X25.037 Y-4.041 E6.40583 F360.000
G1 X25.203 Y-3.875 E6.41573 F360.000
G1 X25.753 Y-4.041 E6.43995 F360.000
G1 X25.801 Y-3.994 E6.44279 F360.000
G1 X23.855 Y-3.790 F7800.000
G1 X23.804 Y-3.841 E6.44579 F360.000
G1 X28.330 Y-3.094 F7800.000
G1 X28.470 Y-2.954 E6.45222 F360.000
G1 X28.831 Y-1.586 F7800.000
G1 X28.860 Y-1.556 E6.45356 F360.000
G1 X28.970 Y-1.301 F7800.000
G1 X28.991 Y-1.280 E6.45409 F360.000
G1 X28.970 Y-1.301 F7800.000
G1 X28.701 Y-1.261 E6.45904 F360.000
G1 X28.991 Y-0.971 E6.46650 F360.000
G1 X28.968 Y-0.685 E6.47173 F360.000
G1 X28.980 Y-0.672 E6.47204 F360.000
G1 X28.980 Y0.767 F7800.000
G1 X28.993 Y0.780 E6.47246 F360.000
G1 X28.899 Y1.063 E6.47905 F360.000
G1 X28.993 Y1.157 E6.48200 F360.000
G1 X28.811 Y1.352 E6.48790 F360.000
G1 X28.838 Y1.378 E6.48873 F360.000
G1 X28.753 Y1.840 F7800.000
G1 X28.794 Y1.882 E6.49061 F360.000
G1 X28.302 Y3.224 F7800.000
G1 X28.335 Y3.257 E6.49214 F360.000
G1 X25.967 Y3.874 F7800.000
G1 X25.924 Y3.831 E6.49413 F360.000
G1 X25.571 Y4.036 E6.50752 F360.000
G1 X25.483 Y3.948 E6.51160 F360.000
G1 X24.993 Y4.016 E6.52782 F360.000
G1 X25.013 Y4.036 E6.52874 F360.000
G1 X24.589 Y4.016 F7800.000
G1 X24.550 Y3.977 E6.53194 F360.000
G1 X23.571 Y3.987 E6.58888 F360.000
G1 X23.635 Y4.051 E6.59412 F360.000
G1 X10.404 Y-3.995 F7800.000
G1 X10.325 Y-4.074 E6.60002 F360.000
G1 X10.242 Y-5.052 E6.65170 F360.000
G1 X10.170 Y-5.125 E6.65713 F360.000
G1 F600.000 E5.95713
G1 Z0.400 F7800.000
G92 E0
G1 X-16.297 Y2.672 F7800.000
G1 Z0.200 F7800.000
G1 E0.70000 F600.000
G1 X-16.339 Y2.630 E0.70197 F1080.000
