; generated by Slic3r 1.0.1-dev on 2014-04-13 at 20:35:58

; layer_height = 0.18
; perimeters = 2
; top_solid_layers = 3
; bottom_solid_layers = 2
; fill_density = 0.55
; perimeter_speed = 30
; infill_speed = 60
; travel_speed = 130
; nozzle_diameter = 0.35
; filament_diameter = 1.75
; extrusion_multiplier = 1
; perimeters extrusion width = 0.35mm
; infill extrusion width = 0.57mm
; solid infill extrusion width = 0.57mm
; top infill extrusion width = 0.57mm
; first layer extrusion width = 0.40mm

G21 ; set units to millimeters
M107
G28
G92 X0 Y0 Z0 E0
G1 F5000 Y30 X30
G1 X220
G1 F100 E10
G28
G92 X0 Y0 Z0
G1 F4000 X101 Y127
G92 X0 Y0 Z0 E0
M106 S255
G90 ; use absolute coordinates
G92 E0
M82 ; use absolute distances for extrusion
G1 F600.000 E-0.70000
G1 Z0.400 F7800.000
G92 E0
G1 X6.860 Y19.972 F7800.000
G1 Z0.200 F7800.000
G1 E0.70000 F600.000
G1 X4.047 Y20.826 E0.79518 F540.000
G1 X2.818 Y21.070 E0.83572
G1 X-0.108 Y21.359 E0.93090
G1 X-1.361 Y21.359 E0.97144
G1 X-4.287 Y21.070 E1.06662
G1 X-5.516 Y20.826 E1.10716
G1 X-8.855 Y19.788 E1.22034
G1 X-30.925 Y10.929 E1.99010
G1 X-32.834 Y9.735 E2.06299
G1 X-34.211 Y7.953 E2.13588
G1 X-34.934 Y5.000 E2.23430
G1 X-34.934 Y-5.000 E2.55798
G1 X-34.537 Y-7.217 E2.63087
G1 X-33.396 Y-9.158 E2.70376
G1 X-30.925 Y-10.929 E2.80217
G1 X-8.329 Y-19.972 E3.58993
G1 X-5.516 Y-20.826 E3.68511
G1 X-4.287 Y-21.070 E3.72565
G1 X-1.360 Y-21.359 E3.82086
G1 X-0.108 Y-21.359 E3.86137
G1 X2.818 Y-21.070 E3.95655
G1 X4.047 Y-20.826 E3.99709
G1 X7.256 Y-19.838 E4.10579
G1 X30.795 Y-10.980 E4.91986
G1 X32.730 Y-9.828 E4.99275
G1 X34.145 Y-8.076 E5.06564
G1 X34.934 Y-5.000 E5.16842
G1 X34.934 Y5.000 E5.49210
G1 X34.537 Y7.217 E5.56500
G1 X33.396 Y9.158 E5.63789
G1 X30.795 Y10.980 E5.74067
G1 X6.915 Y19.952 E6.56637
G1 F600.000 E5.86637
G1 Z0.400 F7800.000
G92 E0
G1 X21.108 Y3.034 F7800.000
G1 Z0.200 F7800.000
G1 E0.70000 F600.000
G1 X20.563 Y2.587 E0.72279 F540.000
G1 X20.117 Y2.043 E0.74559
G1 X19.785 Y1.422 E0.76838
G1 X19.580 Y0.748 E0.79117
G1 X19.511 Y0.047 E0.81397
G1 X19.574 Y-0.590 E0.83469
G1 X19.785 Y-1.327 E0.85952
G1 X20.117 Y-1.948 E0.88231
G1 X20.563 Y-2.493 E0.90510
G1 X21.108 Y-2.939 E0.92789
G1 X21.729 Y-3.271 E0.95068
G1 X22.403 Y-3.476 E0.97348
G1 X23.103 Y-3.545 E0.99627
G1 X23.804 Y-3.476 E1.01906
G1 X24.478 Y-3.271 E1.04186
G1 X25.099 Y-2.939 E1.06465
G1 X25.643 Y-2.493 E1.08744
G1 X26.090 Y-1.948 E1.11024
G1 X26.422 Y-1.327 E1.13303
G1 X26.626 Y-0.653 E1.15582
G1 X26.695 Y0.047 E1.17862
G1 X26.626 Y0.748 E1.20141
G1 X26.422 Y1.422 E1.22420
G1 X26.090 Y2.043 E1.24699
G1 X25.643 Y2.587 E1.26979
G1 X25.099 Y3.034 E1.29257
G1 X24.478 Y3.366 E1.31537
G1 X23.804 Y3.570 E1.33816
G1 X23.103 Y3.639 E1.36095
G1 X22.403 Y3.570 E1.38375
G1 X21.729 Y3.366 E1.40654
G1 X21.159 Y3.062 E1.42744
G1 X21.325 Y2.709 F7800.000
G1 X20.840 Y2.311 E1.44775 F540.000
G1 X20.442 Y1.826 E1.46807
G1 X20.146 Y1.272 E1.48838
G1 X19.964 Y0.672 E1.50869
G1 X19.902 Y0.047 E1.52900
G1 X19.964 Y-0.577 E1.54931
G1 X20.146 Y-1.178 E1.56962
G1 X20.442 Y-1.731 E1.58993
G1 X20.840 Y-2.216 E1.61024
G1 X21.325 Y-2.614 E1.63055
G1 X21.878 Y-2.910 E1.65086
G1 X22.479 Y-3.092 E1.67117
G1 X23.103 Y-3.154 E1.69148
G1 X23.728 Y-3.092 E1.71180
G1 X24.328 Y-2.910 E1.73211
G1 X24.882 Y-2.614 E1.75242
G1 X25.367 Y-2.216 E1.77273
G1 X25.765 Y-1.731 E1.79304
G1 X26.061 Y-1.178 E1.81335
G1 X26.243 Y-0.577 E1.83366
G1 X26.304 Y0.047 E1.85397
G1 X26.243 Y0.672 E1.87428
G1 X26.061 Y1.272 E1.89459
G1 X25.765 Y1.826 E1.91490
G1 X25.367 Y2.311 E1.93522
G1 X24.882 Y2.709 E1.95552
G1 X24.328 Y3.005 E1.97584
G1 X23.728 Y3.187 E1.99615
G1 X23.103 Y3.248 E2.01646
G1 X22.479 Y3.187 E2.03677
G1 X21.878 Y3.005 E2.05708
G1 X21.376 Y2.736 E2.07550
G1 X20.970 Y2.869 F7800.000
G1 F600.000 E1.37550
G1 Z0.400 F7800.000
G92 E0
G1 X-27.956 Y-4.411 F7800.000
G1 Z0.200 F7800.000
G1 E0.70000 F600.000
G1 X-14.380 Y-4.411 E1.13941 F540.000
G1 X-14.046 Y-5.514 E1.17671
G1 X-12.714 Y-8.005 E1.26813
G1 X-10.922 Y-10.188 E1.35955
G1 X-8.739 Y-11.980 E1.45097
G1 X-6.248 Y-13.311 E1.54240
G1 X-3.545 Y-14.131 E1.63382
G1 X-0.735 Y-14.408 E1.72524
G1 X2.076 Y-14.131 E1.81666
G1 X4.779 Y-13.311 E1.90808
G1 X7.270 Y-11.980 E1.99950
G1 X9.453 Y-10.188 E2.09092
G1 X11.245 Y-8.005 E2.18234
G1 X12.577 Y-5.514 E2.27377
G1 X12.911 Y-4.411 E2.31107
G1 X27.956 Y-4.411 E2.79803
G1 X27.956 Y4.411 E3.08356
G1 X12.911 Y4.411 E3.57051
G1 X12.577 Y5.514 E3.60782
G1 X11.245 Y8.005 E3.69924
G1 X9.453 Y10.188 E3.79066
G1 X7.270 Y11.980 E3.88208
G1 X4.779 Y13.311 E3.97350
G1 X2.076 Y14.131 E4.06492
G1 X-0.734 Y14.408 E4.15634
G1 X-3.545 Y14.131 E4.24777
G1 X-6.248 Y13.311 E4.33919
G1 X-8.739 Y11.980 E4.43061
G1 X-10.922 Y10.188 E4.52203
G1 X-12.714 Y8.005 E4.61345
G1 X-14.046 Y5.514 E4.70487
G1 X-14.380 Y4.411 E4.74218
G1 X-27.956 Y4.411 E5.18158
G1 X-27.956 Y1.589 E5.27291
G1 X-13.670 Y1.589 E5.73530
G1 X-13.575 Y2.554 E5.76668
G1 X-12.830 Y5.010 E5.84975
G1 X-11.620 Y7.274 E5.93283
G1 X-9.992 Y9.258 E6.01590
G1 X-8.008 Y10.886 E6.09897
G1 X-5.745 Y12.096 E6.18204
G1 X-3.289 Y12.841 E6.26512
G1 X-0.734 Y13.092 E6.34819
G1 X1.820 Y12.841 E6.43126
G1 X4.276 Y12.096 E6.51433
G1 X6.539 Y10.886 E6.59741
G1 X8.523 Y9.258 E6.68048
G1 X9.215 Y8.414 E6.71579
G1 X10.151 Y7.274 E6.76355
G1 X11.361 Y5.010 E6.84662
G1 X12.106 Y2.554 E6.92969
G1 X12.358 Y0.000 E7.01277
G1 X12.106 Y-2.554 E7.09584
G1 X11.361 Y-5.010 E7.17891
G1 X10.151 Y-7.274 E7.26198
G1 X8.975 Y-8.707 E7.32202
G1 X8.523 Y-9.258 E7.34506
G1 X6.539 Y-10.886 E7.42813
G1 X4.276 Y-12.096 E7.51120
G1 X1.820 Y-12.841 E7.59427
G1 X-0.734 Y-13.092 E7.67735
G1 X-3.289 Y-12.841 E7.76042
G1 X-5.745 Y-12.096 E7.84349
G1 X-8.008 Y-10.886 E7.92656
G1 X-9.992 Y-9.258 E8.00964
G1 X-11.620 Y-7.274 E8.09271
G1 X-12.830 Y-5.010 E8.17578
G1 X-13.575 Y-2.554 E8.25885
G1 X-13.670 Y-1.589 E8.29024
G1 X-27.956 Y-1.589 E8.75263
G1 X-27.956 Y-4.352 E8.84206
G1 X-28.345 Y-4.800 F7800.000
G1 X-14.669 Y-4.800 E9.28472 F378.000
G1 X-14.407 Y-5.663 E9.31392
G1 X-13.039 Y-8.222 E9.40783
G1 X-11.199 Y-10.464 E9.50173
G1 X-8.956 Y-12.305 E9.59563
G1 X-6.398 Y-13.673 E9.68954
G1 X-3.622 Y-14.515 E9.78344
G1 X-0.735 Y-14.799 E9.87734
G1 X2.153 Y-14.515 E9.97125
G1 X4.929 Y-13.673 E10.06515
G1 X7.487 Y-12.305 E10.15905
G1 X9.730 Y-10.465 E10.25296
G1 X11.570 Y-8.222 E10.34686
G1 X12.938 Y-5.663 E10.44076
G1 X13.200 Y-4.800 E10.46996
G1 X28.345 Y-4.800 E10.96017
G1 X28.345 Y4.800 E11.27091
G1 X13.200 Y4.800 E11.76111
G1 X12.938 Y5.663 E11.79032
G1 X11.570 Y8.222 E11.88422
G1 X9.730 Y10.465 E11.97812
G1 X7.487 Y12.305 E12.07203
G1 X4.929 Y13.673 E12.16593
G1 X2.153 Y14.515 E12.25983
G1 X-0.734 Y14.799 E12.35374
G1 X-3.622 Y14.515 E12.44764
G1 X-6.398 Y13.673 E12.54154
G1 X-8.956 Y12.305 E12.63544
G1 X-11.199 Y10.465 E12.72935
G1 X-13.039 Y8.222 E12.82325
G1 X-14.407 Y5.663 E12.91715
G1 X-14.669 Y4.800 E12.94636
G1 X-28.345 Y4.800 E13.38902
G1 X-28.345 Y1.200 E13.50554
G1 X-13.317 Y1.200 E13.99195
G1 X-13.191 Y2.478 E14.03351
G1 X-12.469 Y4.860 E14.11410
G1 X-11.295 Y7.056 E14.19469
G1 X-9.715 Y8.981 E14.27528
G1 X-7.791 Y10.560 E14.35588
G1 X-5.595 Y11.734 E14.43647
G1 X-3.212 Y12.457 E14.51706
G1 X-0.734 Y12.701 E14.59765
G1 X1.743 Y12.457 E14.67824
G1 X4.126 Y11.734 E14.75883
G1 X6.322 Y10.560 E14.83942
G1 X8.246 Y8.981 E14.92001
G1 X8.914 Y8.167 E14.95408
G1 X9.826 Y7.056 E15.00060
G1 X11.000 Y4.860 E15.08119
G1 X11.722 Y2.478 E15.16178
G1 X11.966 Y0.000 E15.24237
G1 X11.722 Y-2.478 E15.32296
G1 X11.000 Y-4.860 E15.40355
G1 X9.826 Y-7.056 E15.48414
G1 X8.246 Y-8.981 E15.56473
G1 X6.322 Y-10.560 E15.64532
G1 X4.126 Y-11.734 E15.72591
G1 X1.743 Y-12.457 E15.80650
G1 X-0.734 Y-12.701 E15.88709
G1 X-3.212 Y-12.457 E15.96768
G1 X-5.595 Y-11.734 E16.04828
G1 X-7.791 Y-10.560 E16.12887
G1 X-9.715 Y-8.981 E16.20946
G1 X-11.295 Y-7.056 E16.29005
G1 X-12.469 Y-4.860 E16.37064
G1 X-13.191 Y-2.478 E16.45123
G1 X-13.317 Y-1.200 E16.49279
G1 X-28.345 Y-1.200 E16.97920
G1 X-28.345 Y-4.742 E17.09383
G1 X-28.008 Y-4.605 F7800.000
G1 X-27.568 Y-1.852 F7800.000
G1 X-27.693 Y-1.977 E17.09960 F1080.000
G1 X-27.693 Y-2.531 E17.11760
G1 X-27.014 Y-1.852 E17.14882
G1 X-26.461 Y-1.852 E17.16682
G1 X-27.693 Y-3.084 E17.22349
G1 X-27.693 Y-3.637 E17.24149
G1 X-25.908 Y-1.852 E17.32362
G1 X-25.354 Y-1.852 E17.34162
G1 X-27.651 Y-4.148 E17.44726
G1 X-27.097 Y-4.148 E17.46526
G1 X-24.801 Y-1.852 E17.57090
G1 X-24.248 Y-1.852 E17.58890
G1 X-26.544 Y-4.148 E17.69454
G1 X-25.991 Y-4.148 E17.71254
G1 X-23.695 Y-1.852 E17.81818
G1 X-23.141 Y-1.852 E17.83618
G1 X-25.437 Y-4.148 E17.94182
G1 X-24.884 Y-4.148 E17.95982
G1 X-22.588 Y-1.852 E18.06546
G1 X-22.035 Y-1.852 E18.08345
G1 X-24.331 Y-4.148 E18.18909
G1 X-23.778 Y-4.148 E18.20709
G1 X-21.481 Y-1.852 E18.31273
G1 X-20.928 Y-1.852 E18.33073
G1 X-23.224 Y-4.148 E18.43637
G1 X-22.671 Y-4.148 E18.45437
G1 X-20.375 Y-1.852 E18.56001
G1 X-19.821 Y-1.852 E18.57801
G1 X-22.118 Y-4.148 E18.68365
G1 X-21.564 Y-4.148 E18.70165
G1 X-19.268 Y-1.852 E18.80729
G1 X-18.715 Y-1.852 E18.82529
G1 X-21.011 Y-4.148 E18.93092
G1 X-20.458 Y-4.148 E18.94892
G1 X-18.162 Y-1.852 E19.05456
G1 X-17.608 Y-1.852 E19.07256
G1 X-19.905 Y-4.148 E19.17820
G1 X-19.351 Y-4.148 E19.19620
G1 X-17.055 Y-1.852 E19.30184
G1 X-16.502 Y-1.852 E19.31984
G1 X-18.798 Y-4.148 E19.42548
G1 X-18.245 Y-4.148 E19.44348
G1 X-15.948 Y-1.852 E19.54912
G1 X-15.395 Y-1.852 E19.56712
G1 X-17.691 Y-4.148 E19.67276
G1 X-17.138 Y-4.148 E19.69075
G1 X-14.842 Y-1.852 E19.79639
G1 X-14.289 Y-1.852 F7800.000
G1 X-16.585 Y-4.148 E19.90203 F1080.000
G1 X-16.031 Y-4.148 E19.92003
G1 X-13.893 Y-2.009 E20.01843
G1 X-13.843 Y-2.513 E20.03490
G1 X-15.478 Y-4.148 E20.11012
G1 X-14.925 Y-4.148 E20.12812
G1 X-13.729 Y-2.952 E20.18315
G1 X-13.600 Y-3.377 E20.19758
G1 X-14.372 Y-4.148 E20.23308
G1 X-14.100 Y-4.430 E20.24581
G1 X-13.471 Y-3.801 E20.27473
G1 X-13.342 Y-4.226 E20.28916
G1 X-13.971 Y-4.854 E20.31809
G1 X-13.842 Y-5.279 E20.33252
G1 X-13.214 Y-4.650 E20.36145
G1 X-13.085 Y-5.075 E20.37588
G1 X-13.670 Y-5.660 E20.40279
G1 X-13.477 Y-6.020 E20.41609
G1 X-12.898 Y-5.441 E20.44274
G1 X-12.705 Y-5.801 E20.45604
G1 X-13.284 Y-6.381 E20.48270
G1 X-13.092 Y-6.741 E20.49600
G1 X-12.512 Y-6.162 E20.52266
G1 X-12.320 Y-6.522 E20.53596
G1 X-12.899 Y-7.102 E20.56262
G1 X-12.706 Y-7.462 E20.57592
G1 X-12.127 Y-6.883 E20.60257
G1 X-11.934 Y-7.243 E20.61587
G1 X-12.514 Y-7.823 E20.64253
G1 X-12.270 Y-8.132 E20.65535
G1 X-11.712 Y-7.575 E20.68098
G1 X-11.463 Y-7.879 E20.69377
G1 X-12.020 Y-8.436 E20.71940
G1 X-11.771 Y-8.740 E20.73219
G1 X-11.214 Y-8.183 E20.75782
G1 X-10.964 Y-8.487 E20.77061
G1 X-11.521 Y-9.044 E20.79625
G1 X-11.272 Y-9.348 E20.80904
G1 X-10.715 Y-8.791 E20.83467
G1 X-10.465 Y-9.095 E20.84746
G1 X-11.023 Y-9.652 E20.87309
G1 X-10.773 Y-9.956 E20.88588
G1 X-10.216 Y-9.399 E20.91151
G1 X-9.920 Y-9.656 E20.92427
G1 X-10.478 Y-10.213 E20.94990
G1 X-10.174 Y-10.463 E20.96269
G1 X-9.616 Y-9.906 E20.98832
G1 X-9.313 Y-10.155 E21.00111
G1 X-9.870 Y-10.712 E21.02675
G1 X-9.566 Y-10.961 E21.03954
G1 X-9.009 Y-10.404 E21.06517
G1 X-8.705 Y-10.654 E21.07796
G1 X-9.262 Y-11.211 E21.10359
G1 X-8.958 Y-11.460 E21.11638
G1 X-8.401 Y-10.903 E21.14201
G1 X-8.086 Y-11.142 E21.15486
G1 X-8.654 Y-11.710 E21.18099
G1 X-8.305 Y-11.914 E21.19414
G1 X-7.726 Y-11.334 E21.22080
G1 X-7.365 Y-11.527 E21.23410
G1 X-7.945 Y-12.107 E21.26076
G1 X-7.584 Y-12.299 E21.27406
G1 X-7.005 Y-11.720 E21.30072
G1 X-6.644 Y-11.913 E21.31402
G1 X-7.223 Y-12.492 E21.34067
G1 X-6.863 Y-12.685 E21.35397
G1 X-6.283 Y-12.105 E21.38063
G1 X-5.923 Y-12.298 E21.39393
G1 X-6.502 Y-12.878 E21.42059
G1 X-6.141 Y-13.069 E21.43390
G1 X-5.512 Y-12.441 E21.46283
G1 X-5.088 Y-12.569 E21.47726
G1 X-5.716 Y-13.198 E21.50618
G1 X-5.292 Y-13.327 E21.52061
G1 X-4.663 Y-12.698 E21.54954
G1 X-4.238 Y-12.827 E21.56397
G1 X-4.867 Y-13.456 E21.59289
G1 X-4.443 Y-13.584 E21.60733
G1 X-3.814 Y-12.956 E21.63625
G1 X-3.389 Y-13.084 E21.65068
G1 X-4.018 Y-13.713 E21.67961
G1 X-3.594 Y-13.842 E21.69404
G1 X-2.895 Y-13.143 E21.72618
G1 X-2.391 Y-13.193 E21.74265
G1 X-3.109 Y-13.910 E21.77565
G1 X-2.605 Y-13.960 E21.79211
G1 X-1.888 Y-13.242 E21.82511
G1 X-1.384 Y-13.292 E21.84158
G1 X-2.101 Y-14.009 E21.87458
G1 X-1.598 Y-14.059 E21.89104
G1 X-0.880 Y-13.342 E21.92404
G1 X-0.298 Y-13.313 E21.94299
G1 X-1.094 Y-14.109 E21.97959
G1 X-0.559 Y-14.127 E21.99701
G1 X0.315 Y-13.253 E22.03722
G1 X0.929 Y-13.192 E22.05729
G1 X0.055 Y-14.066 E22.09750
G1 X0.669 Y-14.006 E22.11756
G1 X1.543 Y-13.132 E22.15777
G1 X2.241 Y-12.987 E22.18095
G1 X1.283 Y-13.945 E22.22502
G1 X1.896 Y-13.885 E22.24508
G1 X3.035 Y-12.746 E22.29746
G1 X3.447 Y-13.441 E22.32373
G1 X4.746 Y-12.142 E22.38348
G1 X5.213 Y-12.782 F7800.000
G1 X7.821 Y-10.174 E22.50345 F1080.000
G1 X8.335 Y-10.766 E22.52897
G1 X10.032 Y-9.069 E22.60705
G1 X9.439 Y-8.555 E22.63257
G1 X12.047 Y-5.947 E22.75255
G1 X11.408 Y-5.480 F7800.000
G1 X20.841 Y3.953 E23.18655 F1080.000
G1 X20.288 Y3.953 E23.20455
G1 X11.771 Y-4.563 E23.59639
G1 X12.465 Y-4.976 F7800.000
G1 X10.772 Y-6.669 E23.67428 F1080.000
G1 X11.412 Y-7.136 E23.70004
G1 X6.401 Y-12.146 E23.93055
G1 X5.934 Y-11.507 E23.95631
G1 X4.241 Y-13.200 E24.03420
G1 X3.829 Y-12.505 F7800.000
G1 X2.653 Y-13.682 E24.08832 F1080.000
G1 F600.000 E23.38832
G1 Z0.400 F7800.000
G92 E0
G1 X12.012 Y-3.769 F7800.000
G1 Z0.200 F7800.000
G1 E0.70000 F600.000
G1 X19.735 Y3.953 E1.05529 F1080.000
G1 X19.181 Y3.953 E1.07329
G1 X12.253 Y-2.975 E1.39205
G1 X12.397 Y-2.277 E1.41523
G1 X18.628 Y3.953 E1.70189
G1 X18.075 Y3.953 E1.71989
G1 X12.458 Y-1.664 E1.97831
G1 X12.518 Y-1.050 E1.99837
G1 X17.521 Y3.953 E2.22856
G1 X16.968 Y3.953 E2.24656
G1 X12.579 Y-0.436 E2.44851
G1 X12.607 Y0.146 E2.46746
G1 X16.415 Y3.953 E2.64264
G1 X15.862 Y3.953 E2.66064
G1 X12.558 Y0.649 E2.81265
G1 X12.508 Y1.153 E2.82911
G1 X15.308 Y3.953 E2.95794
G1 X14.755 Y3.953 E2.97594
G1 X12.458 Y1.657 E3.08161
G1 X12.409 Y2.160 E3.09807
G1 X14.202 Y3.953 E3.18056
G1 X13.648 Y3.953 E3.19856
G1 X12.350 Y2.655 E3.25830
G1 X12.221 Y3.079 E3.27273
G1 X13.095 Y3.953 E3.31294
G1 X12.542 Y3.953 E3.33094
G1 X12.092 Y3.504 E3.35162
G1 X11.964 Y3.929 E3.36605
G1 X12.592 Y4.557 E3.39497
G1 X12.464 Y4.982 E3.40940
G1 X11.835 Y4.353 E3.43833
G1 X11.706 Y4.778 E3.45276
G1 X12.335 Y5.406 E3.48168
G1 X12.143 Y5.768 E3.49500
G1 X11.564 Y5.188 E3.52165
G1 X11.371 Y5.549 E3.53496
G1 X11.950 Y6.128 E3.56161
G1 X11.758 Y6.489 E3.57491
G1 X11.178 Y5.909 E3.60157
G1 X10.985 Y6.270 E3.61487
G1 X11.565 Y6.849 E3.64153
G1 X11.372 Y7.210 E3.65483
G1 X10.793 Y6.631 E3.68148
G1 X10.600 Y6.991 E3.69478
G1 X11.179 Y7.571 E3.72144
G1 X10.837 Y7.781 E3.73453
G1 X10.407 Y7.352 E3.75429
G1 X10.169 Y7.666 E3.76714
G1 X10.587 Y8.085 E3.78641
G1 X10.338 Y8.389 E3.79920
G1 X9.919 Y7.970 E3.81847
G1 X9.670 Y8.274 E3.83126
G1 X10.089 Y8.693 E3.85053
G1 X9.839 Y8.997 E3.86332
G1 X9.420 Y8.578 E3.88259
G1 X9.171 Y8.882 E3.89538
G1 X9.590 Y9.301 E3.91465
G1 X9.340 Y9.605 E3.92744
G1 X8.922 Y9.186 E3.94671
G1 X8.664 Y9.482 E3.95946
G1 X9.083 Y9.900 E3.97873
G1 X8.779 Y10.150 E3.99152
G1 X8.360 Y9.731 E4.01079
G1 X8.056 Y9.980 E4.02358
G1 X8.475 Y10.399 E4.04285
G1 X8.171 Y10.649 E4.05564
G1 X7.752 Y10.230 E4.07491
G1 X7.448 Y10.479 E4.08770
G1 X7.867 Y10.898 E4.10697
G1 X7.563 Y11.147 E4.11976
G1 X7.145 Y10.729 E4.13903
G1 X6.841 Y10.978 E4.15182
G1 X7.260 Y11.397 E4.17109
G1 X6.945 Y11.635 E4.18394
G1 X6.509 Y11.200 E4.20398
G1 X6.148 Y11.392 E4.21728
G1 X6.584 Y11.828 E4.23732
G1 X6.223 Y12.021 E4.25062
G1 X5.788 Y11.585 E4.27066
G1 X5.427 Y11.778 E4.28396
G1 X5.863 Y12.213 E4.30400
G1 X5.502 Y12.406 E4.31730
G1 X5.067 Y11.970 E4.33734
G1 X4.706 Y12.163 E4.35064
G1 X5.142 Y12.599 E4.37068
G1 X4.781 Y12.792 E4.38398
G1 X4.340 Y12.350 E4.40428
G1 X3.916 Y12.479 E4.41871
G1 X4.388 Y12.952 E4.44045
G1 X3.964 Y13.081 E4.45488
G1 X3.491 Y12.608 E4.47663
G1 X3.067 Y12.737 E4.49106
G1 X3.539 Y13.209 E4.51281
G1 X3.115 Y13.338 E4.52724
G1 X2.642 Y12.866 E4.54898
G1 X2.218 Y12.994 E4.56341
G1 X2.690 Y13.467 E4.58516
G1 X2.266 Y13.596 E4.59959
G1 X1.778 Y13.109 E4.62201
G1 X1.275 Y13.158 E4.63847
G1 X1.814 Y13.697 E4.66328
G1 X1.310 Y13.747 E4.67975
