; generated by Slic3r 1.0.1-dev on 2014-04-13 at 19:22:16

; layer_height = 0.18
; perimeters = 2
; top_solid_layers = 3
; bottom_solid_layers = 2
; fill_density = 0.55
; perimeter_speed = 30
; infill_speed = 60
; travel_speed = 130
; nozzle_diameter = 0.35
; filament_diameter = 1.75
; extrusion_multiplier = 1
; perimeters extrusion width = 0.35mm
; infill extrusion width = 0.57mm
; solid infill extrusion width = 0.57mm
; top infill extrusion width = 0.57mm
; first layer extrusion width = 0.40mm

G21 ; set units to millimeters
M107
G28
G92 X0 Y0 Z0 E0
G1 F5000 Y30 X30
G1 X220
G1 F100 E10
G28
G92 X0 Y0 Z0
G1 F4000 X101 Y127
G92 X0 Y0 Z0 E0
M106 S255
G90 ; use absolute coordinates
G92 E0
M82 ; use absolute distances for extrusion
G1 F600.000 E-0.70000
G1 Z0.400 F7800.000
G92 E0
G1 X-7.440 Y-19.972 F7800.000
G1 Z0.200 F7800.000
G1 E0.70000 F600.000
G1 X-4.626 Y-20.826 E0.79518 F540.000
G1 X-3.397 Y-21.070 E0.83572
G1 X-0.470 Y-21.359 E0.93093
G1 X0.781 Y-21.359 E0.97144
G1 X3.708 Y-21.070 E1.06662
G1 X4.936 Y-20.826 E1.10716
G1 X8.304 Y-19.776 E1.22136
G1 X30.064 Y-10.918 E1.98180
G1 X31.968 Y-9.714 E2.05469
G1 X33.335 Y-7.925 E2.12758
G1 X34.044 Y-5.000 E2.22501
G1 X34.044 Y5.000 E2.54869
G1 X33.648 Y7.217 E2.62158
G1 X32.506 Y9.158 E2.69447
G1 X30.064 Y10.918 E2.79190
G1 X7.750 Y19.972 E3.57136
G1 X4.936 Y20.826 E3.66654
G1 X3.708 Y21.070 E3.70708
G1 X0.781 Y21.359 E3.80226
G1 X-0.471 Y21.359 E3.84280
G1 X-3.397 Y21.070 E3.93798
G1 X-4.626 Y20.826 E3.97852
G1 X-7.965 Y19.788 E4.09170
G1 X-30.035 Y10.929 E4.86146
G1 X-31.944 Y9.735 E4.93435
G1 X-33.321 Y7.953 E5.00724
G1 X-34.044 Y5.000 E5.10565
G1 X-34.044 Y-5.000 E5.42933
G1 X-33.648 Y-7.217 E5.50223
G1 X-32.506 Y-9.158 E5.57512
G1 X-30.035 Y-10.929 E5.67353
G1 X-7.494 Y-19.951 E6.45940
G1 F600.000 E5.75940
G1 Z0.400 F7800.000
G92 E0
G1 X-27.066 Y4.411 F7800.000
G1 Z0.200 F7800.000
G1 E0.70000 F600.000
G1 X-27.066 Y1.589 E0.79132 F540.000
G1 X-12.780 Y1.589 E1.25372
G1 X-12.685 Y2.554 E1.28510
G1 X-11.940 Y5.010 E1.36817
G1 X-10.731 Y7.274 E1.45124
G1 X-9.102 Y9.258 E1.53432
G1 X-7.118 Y10.886 E1.61739
G1 X-4.855 Y12.096 E1.70046
G1 X-2.399 Y12.841 E1.78353
G1 X0.155 Y13.092 E1.86660
G1 X2.709 Y12.841 E1.94968
G1 X5.165 Y12.096 E2.03275
G1 X7.429 Y10.886 E2.11582
G1 X9.413 Y9.258 E2.19889
G1 X10.104 Y8.415 E2.23416
G1 X11.041 Y7.274 E2.28197
G1 X12.251 Y5.010 E2.36504
G1 X12.996 Y2.554 E2.44811
G1 X13.247 Y-0.000 E2.53118
G1 X12.996 Y-2.554 E2.61426
G1 X12.251 Y-5.010 E2.69733
G1 X11.711 Y-6.019 E2.73436
G1 X11.041 Y-7.274 E2.78040
G1 X9.413 Y-9.258 E2.86347
G1 X7.429 Y-10.886 E2.94655
G1 X5.165 Y-12.096 E3.02962
G1 X2.709 Y-12.841 E3.11269
G1 X0.155 Y-13.092 E3.19576
G1 X-2.399 Y-12.841 E3.27884
G1 X-4.855 Y-12.096 E3.36191
G1 X-7.118 Y-10.886 E3.44498
G1 X-9.102 Y-9.258 E3.52805
G1 X-10.731 Y-7.274 E3.61113
G1 X-11.940 Y-5.010 E3.69420
G1 X-12.685 Y-2.554 E3.77727
G1 X-12.780 Y-1.589 E3.80865
G1 X-27.066 Y-1.589 E4.27104
G1 X-27.066 Y-4.411 E4.36237
G1 X-13.491 Y-4.411 E4.80177
G1 X-13.156 Y-5.514 E4.83908
G1 X-11.825 Y-8.005 E4.93050
G1 X-10.033 Y-10.188 E5.02192
G1 X-7.849 Y-11.980 E5.11334
G1 X-5.359 Y-13.311 E5.20476
G1 X-2.656 Y-14.131 E5.29619
G1 X0.155 Y-14.408 E5.38761
G1 X2.966 Y-14.131 E5.47903
G1 X5.669 Y-13.311 E5.57045
G1 X8.160 Y-11.980 E5.66187
G1 X10.343 Y-10.188 E5.75329
G1 X12.135 Y-8.005 E5.84471
G1 X13.466 Y-5.514 E5.93613
G1 X13.801 Y-4.411 E5.97344
G1 X27.066 Y-4.411 E6.40280
G1 X27.066 Y4.411 E6.68833
G1 X13.801 Y4.411 E7.11769
G1 X13.466 Y5.514 E7.15500
G1 X12.135 Y8.005 E7.24642
G1 X10.343 Y10.188 E7.33784
G1 X8.160 Y11.980 E7.42926
G1 X5.669 Y13.311 E7.52069
G1 X2.966 Y14.131 E7.61211
G1 X0.155 Y14.408 E7.70353
G1 X-2.656 Y14.131 E7.79495
G1 X-5.358 Y13.311 E7.88637
G1 X-7.849 Y11.980 E7.97779
G1 X-10.033 Y10.188 E8.06921
G1 X-11.825 Y8.005 E8.16063
G1 X-13.156 Y5.514 E8.25205
G1 X-13.491 Y4.411 E8.28936
G1 X-27.008 Y4.411 E8.72688
G1 X-27.455 Y4.800 F7800.000
G1 X-27.455 Y1.200 E8.84340 F378.000
G1 X-12.428 Y1.200 E9.32981
G1 X-12.302 Y2.478 E9.37137
G1 X-11.579 Y4.860 E9.45196
G1 X-10.405 Y7.056 E9.53255
G1 X-8.826 Y8.981 E9.61314
G1 X-6.901 Y10.560 E9.69373
G1 X-4.705 Y11.734 E9.77432
G1 X-2.323 Y12.457 E9.85492
G1 X0.155 Y12.701 E9.93551
G1 X2.633 Y12.457 E10.01610
G1 X5.016 Y11.734 E10.09669
G1 X7.211 Y10.560 E10.17728
G1 X9.136 Y8.981 E10.25787
G1 X9.804 Y8.167 E10.29194
G1 X10.716 Y7.056 E10.33846
G1 X11.889 Y4.860 E10.41905
G1 X12.612 Y2.478 E10.49964
G1 X12.856 Y-0.000 E10.58023
G1 X12.612 Y-2.478 E10.66082
G1 X11.889 Y-4.860 E10.74141
G1 X11.368 Y-5.836 E10.77720
G1 X10.716 Y-7.056 E10.82200
G1 X9.136 Y-8.981 E10.90259
G1 X7.211 Y-10.560 E10.98318
G1 X5.016 Y-11.734 E11.06377
G1 X2.633 Y-12.457 E11.14436
G1 X0.155 Y-12.701 E11.22495
G1 X-2.323 Y-12.457 E11.30554
G1 X-4.705 Y-11.734 E11.38613
G1 X-6.901 Y-10.560 E11.46672
G1 X-8.826 Y-8.981 E11.54732
G1 X-10.405 Y-7.056 E11.62791
G1 X-11.579 Y-4.860 E11.70850
G1 X-12.302 Y-2.478 E11.78909
G1 X-12.428 Y-1.200 E11.83065
G1 X-27.455 Y-1.200 E12.31706
G1 X-27.455 Y-4.800 E12.43358
G1 X-13.779 Y-4.800 E12.87624
G1 X-13.517 Y-5.663 E12.90544
G1 X-12.150 Y-8.222 E12.99935
G1 X-10.309 Y-10.464 E13.09325
G1 X-8.067 Y-12.305 E13.18715
G1 X-5.508 Y-13.673 E13.28106
G1 X-2.732 Y-14.515 E13.37496
G1 X0.155 Y-14.799 E13.46886
G1 X3.042 Y-14.515 E13.56277
G1 X5.819 Y-13.673 E13.65667
G1 X8.377 Y-12.305 E13.75057
G1 X10.620 Y-10.465 E13.84448
G1 X12.460 Y-8.222 E13.93838
G1 X13.828 Y-5.663 E14.03228
G1 X14.090 Y-4.800 E14.06149
G1 X27.455 Y-4.800 E14.49410
G1 X27.455 Y4.800 E14.80483
G1 X14.090 Y4.800 E15.23745
G1 X13.828 Y5.663 E15.26665
G1 X12.460 Y8.222 E15.36056
G1 X10.620 Y10.465 E15.45446
G1 X8.377 Y12.305 E15.54836
G1 X5.819 Y13.673 E15.64226
G1 X3.042 Y14.515 E15.73617
G1 X0.155 Y14.799 E15.83007
G1 X-2.732 Y14.515 E15.92397
G1 X-5.508 Y13.673 E16.01788
G1 X-8.067 Y12.305 E16.11178
G1 X-10.309 Y10.465 E16.20568
G1 X-12.150 Y8.222 E16.29959
G1 X-13.517 Y5.663 E16.39349
G1 X-13.779 Y4.800 E16.42269
G1 X-27.397 Y4.800 E16.86346
G1 X-27.261 Y4.463 F7800.000
G1 X-26.764 Y4.148 F7800.000
G1 X-26.803 Y4.109 E16.86525 F1080.000
G1 X-26.803 Y3.557 E16.88317
G1 X-26.212 Y4.148 E16.91030
G1 X-25.660 Y4.148 E16.92821
G1 X-26.803 Y3.005 E16.98068
G1 X-26.803 Y2.453 E16.99860
G1 X-25.108 Y4.148 E17.07640
G1 X-24.556 Y4.148 E17.09431
G1 X-26.803 Y1.901 E17.19745
G1 X-26.300 Y1.852 E17.21385
G1 X-24.004 Y4.148 E17.31924
G1 X-23.452 Y4.148 E17.33716
G1 X-25.748 Y1.852 E17.44255
G1 X-25.196 Y1.852 E17.46046
G1 X-22.900 Y4.148 E17.56585
G1 X-22.348 Y4.148 E17.58377
G1 X-24.644 Y1.852 E17.68916
G1 X-24.092 Y1.852 E17.70707
G1 X-21.796 Y4.148 E17.81246
G1 X-21.244 Y4.148 E17.83038
G1 X-23.540 Y1.852 E17.93577
G1 X-22.988 Y1.852 E17.95368
G1 X-20.692 Y4.148 E18.05907
G1 X-20.140 Y4.148 E18.07699
G1 X-22.436 Y1.852 E18.18238
G1 X-21.884 Y1.852 E18.20029
G1 X-19.588 Y4.148 E18.30568
G1 X-19.036 Y4.148 E18.32360
G1 X-21.332 Y1.852 E18.42899
G1 X-20.780 Y1.852 E18.44690
G1 X-18.484 Y4.148 E18.55229
G1 X-17.932 Y4.148 E18.57021
G1 X-20.228 Y1.852 E18.67560
G1 X-19.676 Y1.852 E18.69351
G1 X-17.380 Y4.148 E18.79890
G1 X-16.828 Y4.148 E18.81682
G1 X-19.124 Y1.852 E18.92221
G1 X-18.572 Y1.852 E18.94012
G1 X-16.276 Y4.148 E19.04551
G1 X-15.724 Y4.148 E19.06343
G1 X-18.020 Y1.852 E19.16882
G1 X-17.468 Y1.852 E19.18673
G1 X-15.172 Y4.148 E19.29212
G1 X-14.620 Y4.148 E19.31004
G1 X-16.916 Y1.852 E19.41543
G1 X-16.364 Y1.852 E19.43334
G1 X-14.068 Y4.148 E19.53873
G1 X-13.516 Y4.148 E19.55665
G1 X-15.812 Y1.852 E19.66204
G1 X-15.260 Y1.852 E19.67995
G1 X-12.264 Y4.848 E19.81747
G1 X-12.959 Y5.257 F7800.000
G1 X-11.127 Y7.089 E19.90158 F1080.000
G1 X-11.769 Y7.551 E19.92725
G1 X-7.396 Y11.924 E20.12799
G1 X-6.934 Y11.282 E20.15366
G1 X-5.102 Y13.115 E20.23777
G1 X-4.693 Y12.419 F7800.000
G1 X-3.517 Y13.595 E20.29175 F1080.000
G1 X-3.108 Y12.900 E20.31793
G1 X-2.085 Y13.923 E20.36490
G1 X-1.472 Y13.984 E20.38487
G1 X-2.346 Y13.110 E20.42498
G1 X-1.734 Y13.170 E20.44495
G1 X-0.860 Y14.044 E20.48506
G1 X-0.248 Y14.104 E20.50503
G1 X-1.122 Y13.230 E20.54514
G1 X-0.509 Y13.291 E20.56511
G1 X0.327 Y14.127 E20.60350
G1 X0.829 Y14.078 E20.61989
G1 X0.103 Y13.351 E20.65324
G1 X0.615 Y13.311 E20.66991
G1 X1.332 Y14.028 E20.70283
G1 X1.834 Y13.979 E20.71921
G1 X1.117 Y13.261 E20.75213
G1 X1.620 Y13.212 E20.76852
G1 X2.337 Y13.929 E20.80144
G1 X2.840 Y13.880 E20.81783
G1 X2.122 Y13.162 E20.85075
G1 X2.625 Y13.113 E20.86714
G1 X3.275 Y13.763 E20.89697
G1 X3.698 Y13.634 E20.91134
G1 X3.070 Y13.006 E20.94019
G1 X3.493 Y12.877 E20.95456
G1 X4.122 Y13.506 E20.98341
G1 X4.545 Y13.377 E20.99777
G1 X3.917 Y12.749 E21.02663
G1 X4.340 Y12.620 E21.04099
G1 X4.969 Y13.249 E21.06985
G1 X5.392 Y13.120 E21.08421
G1 X4.764 Y12.492 E21.11307
G1 X5.187 Y12.363 E21.12743
G1 X5.779 Y12.955 E21.15457
G1 X6.138 Y12.762 E21.16781
G1 X5.559 Y12.183 E21.19440
G1 X5.919 Y11.991 E21.20764
G1 X6.498 Y12.570 E21.23423
G1 X6.858 Y12.378 E21.24747
G1 X6.278 Y11.798 E21.27406
G1 X6.638 Y11.606 E21.28730
G1 X7.218 Y12.185 E21.31389
G1 X7.577 Y11.993 E21.32713
G1 X6.998 Y11.414 E21.35372
G1 X7.358 Y11.222 E21.36696
G1 X7.937 Y11.801 E21.39355
G1 X8.252 Y11.564 E21.40635
G1 X7.695 Y11.007 E21.43192
G1 X7.998 Y10.758 E21.44465
G1 X8.555 Y11.315 E21.47022
G1 X8.858 Y11.066 E21.48295
G1 X8.301 Y10.509 E21.50852
G1 X8.605 Y10.261 E21.52125
G1 X9.162 Y10.818 E21.54682
G1 X9.465 Y10.569 E21.55955
G1 X8.908 Y10.012 E21.58512
G1 X9.211 Y9.763 E21.59785
G1 X9.768 Y10.320 E21.62342
G1 X10.071 Y10.071 E21.63615
G1 X9.514 Y9.514 E21.66172
G1 X9.778 Y9.226 E21.67440
G1 X10.335 Y9.783 E21.69997
G1 X10.584 Y9.480 E21.71270
G1 X10.027 Y8.923 E21.73827
G1 X10.276 Y8.620 E21.75100
G1 X10.833 Y9.177 E21.77657
G1 X11.082 Y8.874 E21.78930
G1 X10.525 Y8.317 E21.81487
G1 X10.774 Y8.013 E21.82760
G1 X11.331 Y8.571 E21.85317
G1 X11.579 Y8.267 E21.86590
G1 X11.022 Y7.710 E21.89147
G1 X11.269 Y7.405 E21.90421
G1 X11.828 Y7.964 E21.92989
G1 X12.040 Y7.624 E21.94289
G1 X11.461 Y7.045 E21.96949
G1 X11.653 Y6.685 E21.98272
G1 X12.233 Y7.264 E22.00932
G1 X12.425 Y6.905 E22.02255
G1 X11.846 Y6.325 E22.04915
G1 X12.038 Y5.966 E22.06238
G1 X12.617 Y6.545 E22.08898
G1 X12.809 Y6.185 E22.10222
G1 X12.230 Y5.606 E22.12881
G1 X12.422 Y5.246 E22.14205
G1 X13.002 Y5.826 E22.16864
G1 X13.194 Y5.466 E22.18188
G1 X12.575 Y4.847 E22.21030
G1 X12.703 Y4.423 E22.22466
G1 X13.332 Y5.052 E22.25352
G1 X13.460 Y4.628 E22.26788
G1 X12.832 Y4.000 E22.29673
G1 X12.960 Y3.576 E22.31110
G1 X13.589 Y4.205 E22.33995
G1 X14.084 Y4.148 E22.35613
G1 X13.089 Y3.153 E22.40183
G1 X13.217 Y2.729 E22.41619
G1 X14.636 Y4.148 E22.48133
G1 X15.188 Y4.148 E22.49924
G1 X13.290 Y2.250 E22.58638
G1 X13.339 Y1.747 E22.60277
G1 X15.740 Y4.148 E22.71298
G1 X16.292 Y4.148 E22.73089
G1 X13.389 Y1.244 E22.86417
G1 X13.438 Y0.742 E22.88055
G1 X16.844 Y4.148 E23.03689
G1 X17.396 Y4.148 E23.05481
G1 X13.488 Y0.239 E23.23421
G1 X13.480 Y-0.321 E23.25239
G1 X17.948 Y4.148 E23.45749
G1 X18.500 Y4.148 E23.47541
G1 X13.419 Y-0.933 E23.70862
G1 X13.359 Y-1.545 E23.72859
G1 X19.052 Y4.148 E23.98990
G1 X19.604 Y4.148 E24.00782
G1 X13.299 Y-2.157 E24.29724
G1 X13.190 Y-2.818 E24.31896
G1 X20.156 Y4.148 E24.63870
G1 X20.708 Y4.148 E24.65662
G1 X12.950 Y-3.610 E25.01273
G1 X12.709 Y-4.403 E25.03960
G1 X21.260 Y4.148 E25.43208
G1 X21.812 Y4.148 E25.45000
G1 X12.427 Y-5.237 E25.88076
G1 X13.070 Y-5.699 E25.90643
G1 X10.859 Y-7.909 E26.00789
G1 X11.463 Y-8.410 E26.03334
G1 X8.565 Y-11.308 E26.16636
G1 X8.064 Y-10.704 E26.19180
G1 X5.854 Y-12.914 E26.29326
G1 X5.392 Y-12.272 E26.31893
G1 X4.174 Y-13.490 E26.37483
G1 X3.766 Y-12.795 E26.40101
G1 X2.663 Y-13.897 E26.45160
G1 X2.051 Y-13.957 E26.47157
G1 X2.973 Y-13.035 E26.51390
G1 X2.313 Y-13.144 E26.53563
G1 X1.439 Y-14.018 E26.57574
G1 X0.826 Y-14.078 E26.59571
G1 X1.700 Y-13.204 E26.63582
G1 X1.088 Y-13.264 E26.65579
G1 X0.214 Y-14.138 E26.69590
G1 X-0.299 Y-14.099 E26.71260
G1 X0.476 Y-13.325 E26.74816
G1 X-0.084 Y-13.332 E26.76634
G1 X-0.802 Y-14.050 E26.79926
G1 X-1.304 Y-14.000 E26.81564
G1 X-0.587 Y-13.283 E26.84856
G1 X-1.089 Y-13.234 E26.86495
G1 X-1.807 Y-13.951 E26.89787
G1 X-2.309 Y-13.901 E26.91426
G1 X-1.592 Y-13.184 E26.94718
G1 X-2.094 Y-13.135 E26.96357
G1 X-2.779 Y-13.819 E26.99499
G1 X-3.202 Y-13.691 E27.00935
G1 X-2.574 Y-13.062 E27.03821
G1 X-2.997 Y-12.934 E27.05257
G1 X-3.626 Y-13.562 E27.08143
G1 X-4.050 Y-13.434 E27.09579
G1 X-3.421 Y-12.805 E27.12465
G1 X-3.844 Y-12.677 E27.13901
G1 X-4.473 Y-13.305 E27.16786
G1 X-4.897 Y-13.177 E27.18223
G1 X-4.268 Y-12.548 E27.21108
G1 X-4.692 Y-12.420 E27.22545
G1 X-5.311 Y-13.039 E27.25387
G1 X-5.670 Y-12.847 E27.26711
G1 X-5.091 Y-12.267 E27.29370
G1 X-5.451 Y-12.075 E27.30694
G1 X-6.030 Y-12.654 E27.33353
G1 X-6.390 Y-12.462 E27.34677
G1 X-5.811 Y-11.883 E27.37336
G1 X-6.170 Y-11.690 E27.38660
G1 X-6.750 Y-12.270 E27.41319
G1 X-7.109 Y-12.077 E27.42643
G1 X-6.530 Y-11.498 E27.45302
G1 X-6.890 Y-11.306 E27.46626
G1 X-7.469 Y-11.885 E27.49285
G1 X-7.809 Y-11.673 E27.50585
G1 X-7.249 Y-11.114 E27.53154
G1 X-7.555 Y-10.867 E27.54428
G1 X-8.112 Y-11.424 E27.56985
G1 X-8.415 Y-11.175 E27.58258
G1 X-7.858 Y-10.618 E27.60815
G1 X-8.161 Y-10.370 E27.62088
G1 X-8.719 Y-10.927 E27.64645
G1 X-9.022 Y-10.678 E27.65918
G1 X-8.465 Y-10.121 E27.68475
G1 X-8.768 Y-9.872 E27.69748
G1 X-9.325 Y-10.429 E27.72305
G1 X-9.628 Y-10.180 E27.73578
G1 X-9.071 Y-9.623 E27.76135
G1 X-9.359 Y-9.359 E27.77403
G1 X-9.916 Y-9.916 E27.79960
G1 X-10.165 Y-9.613 E27.81233
G1 X-9.608 Y-9.056 E27.83790
G1 X-9.857 Y-8.753 E27.85063
G1 X-10.414 Y-9.310 E27.87620
G1 X-10.662 Y-9.007 E27.88893
G1 X-10.105 Y-8.449 E27.91450
G1 X-10.354 Y-8.146 E27.92723
G1 X-10.911 Y-8.703 E27.95280
G1 X-11.160 Y-8.400 E27.96553
G1 X-10.603 Y-7.843 E27.99110
G1 X-10.852 Y-7.540 E28.00383
G1 X-11.409 Y-8.097 E28.02940
G1 X-11.646 Y-7.782 E28.04219
G1 X-11.066 Y-7.202 E28.06878
G1 X-11.259 Y-6.843 E28.08202
G1 X-11.838 Y-7.422 E28.10862
G1 X-12.030 Y-7.062 E28.12185
G1 X-11.451 Y-6.483 E28.14845
G1 X-11.643 Y-6.123 E28.16168
G1 X-12.223 Y-6.703 E28.18828
G1 X-12.415 Y-6.343 E28.20151
G1 X-11.836 Y-5.764 E28.22811
G1 X-12.028 Y-5.404 E28.24135
G1 X-12.607 Y-5.983 E28.26794
G1 X-12.799 Y-5.623 E28.28118
G1 X-12.208 Y-5.032 E28.30831
G1 X-12.337 Y-4.609 E28.32268
G1 X-12.965 Y-5.237 E28.35153
G1 X-13.094 Y-4.814 E28.36590
G1 X-12.465 Y-4.185 E28.39475
G1 X-12.594 Y-3.762 E28.40912
G1 X-13.222 Y-4.390 E28.43797
G1 X-13.532 Y-4.148 E28.45073
G1 X-12.722 Y-3.338 E28.48791
G1 X-12.851 Y-2.915 E28.50227
G1 X-14.084 Y-4.148 E28.55889
G1 X-14.636 Y-4.148 E28.57681
G1 X-12.958 Y-2.470 E28.65384
G1 X-13.007 Y-1.967 E28.67023
G1 X-15.188 Y-4.148 E28.77033
G1 X-15.740 Y-4.148 E28.78825
G1 X-13.444 Y-1.852 E28.89364
G1 X-13.996 Y-1.852 E28.91156
G1 X-16.292 Y-4.148 E29.01694
G1 X-16.844 Y-4.148 E29.03486
G1 X-14.548 Y-1.852 E29.14025
G1 X-15.100 Y-1.852 E29.15817
G1 X-17.396 Y-4.148 E29.26355
G1 X-17.948 Y-4.148 E29.28147
G1 X-15.652 Y-1.852 E29.38686
G1 X-16.204 Y-1.852 E29.40478
G1 X-18.500 Y-4.148 E29.51017
G1 X-19.052 Y-4.148 E29.52808
G1 X-16.756 Y-1.852 E29.63347
G1 X-17.308 Y-1.852 E29.65139
G1 X-19.604 Y-4.148 E29.75678
G1 X-20.156 Y-4.148 E29.77469
G1 X-17.860 Y-1.852 E29.88008
G1 X-18.412 Y-1.852 E29.89800
G1 X-20.708 Y-4.148 E30.00339
G1 X-21.260 Y-4.148 E30.02130
G1 X-18.964 Y-1.852 E30.12669
G1 X-19.516 Y-1.852 E30.14461
G1 X-21.812 Y-4.148 E30.25000
G1 X-22.364 Y-4.148 E30.26791
G1 X-20.068 Y-1.852 E30.37330
G1 X-20.620 Y-1.852 E30.39122
G1 X-22.916 Y-4.148 E30.49661
G1 X-23.468 Y-4.148 E30.51452
G1 X-21.172 Y-1.852 E30.61991
G1 X-21.724 Y-1.852 E30.63783
G1 X-24.020 Y-4.148 E30.74322
G1 X-24.572 Y-4.148 E30.76113
G1 X-22.276 Y-1.852 E30.86652
G1 X-22.828 Y-1.852 E30.88444
G1 X-25.124 Y-4.148 E30.98983
G1 X-25.676 Y-4.148 E31.00774
G1 X-23.380 Y-1.852 E31.11313
G1 X-23.932 Y-1.852 E31.13105
G1 X-26.228 Y-4.148 E31.23644
G1 X-26.772 Y-4.140 E31.25409
G1 X-24.484 Y-1.852 E31.35912
G1 X-25.036 Y-1.852 E31.37703
G1 X-26.803 Y-3.619 E31.45814
G1 X-26.803 Y-3.067 E31.47606
G1 X-25.588 Y-1.852 E31.53183
G1 X-26.140 Y-1.852 E31.54975
G1 X-26.803 Y-2.515 E31.58018
G1 X-26.803 Y-1.963 E31.59810
