; generated by Slic3r 1.0.1-dev on 2014-04-13 at 17:47:07

; layer_height = 0.18
; perimeters = 2
; top_solid_layers = 3
; bottom_solid_layers = 2
; fill_density = 0.25
; perimeter_speed = 30
; infill_speed = 60
; travel_speed = 130
; nozzle_diameter = 0.35
; filament_diameter = 1.75
; extrusion_multiplier = 1
; perimeters extrusion width = 0.35mm
; infill extrusion width = 0.57mm
; solid infill extrusion width = 0.57mm
; top infill extrusion width = 0.57mm
; first layer extrusion width = 0.40mm

G21 ; set units to millimeters
M107
G28
G92 X0 Y0 Z0 E0
G1 F5000 Y30 X30
G1 X220
G1 F100 E10
G28
G92 X0 Y0 Z0
G1 F4000 X101 Y127
G92 X0 Y0 Z0 E0
M106 S255
G90 ; use absolute coordinates
G92 E0
M82 ; use absolute distances for extrusion
G1 F600.000 E-0.70000
G1 Z0.400 F7800.000
G92 E0
G1 X-30.718 Y-14.339 F7800.000
G1 Z0.200 F7800.000
G1 E0.70000 F600.000
G1 X-30.728 Y-16.591 E0.77289 F540.000
G1 X-30.379 Y-17.832 E0.81462
G1 X-19.745 Y-44.841 E1.75414
G1 X-18.563 Y-46.758 E1.82703
G1 X-16.790 Y-48.146 E1.89993
G1 X-13.800 Y-48.889 E1.99967
G1 X13.800 Y-48.889 E2.89301
G1 X16.017 Y-48.492 E2.96590
G1 X17.958 Y-47.351 E3.03879
G1 X19.745 Y-44.841 E3.13853
G1 X30.379 Y-17.832 E4.07805
G1 X30.822 Y-15.624 E4.15095
G1 X30.718 Y-14.339 E4.19267
G1 X20.084 Y43.652 E6.10104
G1 X19.294 Y45.761 E6.17393
G1 X17.821 Y47.465 E6.24683
G1 X15.849 Y48.552 E6.31972
G1 X13.800 Y48.889 E6.38694
G1 X-13.800 Y48.889 E7.28028
G1 X-16.017 Y48.492 E7.35318
G1 X-17.958 Y47.351 E7.42607
G1 X-19.383 Y45.607 E7.49896
G1 X-20.084 Y43.652 E7.56618
G1 X-30.708 Y-14.282 E9.47266
G1 F600.000 E8.77266
G1 Z0.400 F7800.000
G92 E0
G1 X-21.347 Y-15.459 F7800.000
G1 Z0.200 F7800.000
G1 E0.70000 F600.000
G1 X-20.936 Y-19.624 E0.83545 F540.000
G1 X-19.722 Y-23.628 E0.97090
G1 X-17.749 Y-27.319 E1.10635
G1 X-15.094 Y-30.554 E1.24180
G1 X-11.860 Y-33.208 E1.37724
G1 X-8.169 Y-35.181 E1.51269
G1 X-5.778 Y-35.906 E1.59357
G1 X-5.778 Y-41.160 E1.76361
G1 X5.778 Y-41.160 E2.13765
G1 X5.778 Y-35.906 E2.30770
G1 X8.169 Y-35.181 E2.38857
G1 X11.860 Y-33.208 E2.52402
G1 X15.094 Y-30.554 E2.65947
G1 X17.749 Y-27.319 E2.79492
G1 X19.722 Y-23.628 E2.93037
G1 X20.936 Y-19.624 E3.06582
G1 X21.347 Y-15.459 E3.20126
G1 X20.936 Y-11.295 E3.33671
G1 X19.722 Y-7.290 E3.47216
G1 X17.749 Y-3.600 E3.60761
G1 X15.094 Y-0.365 E3.74306
G1 X11.860 Y2.290 E3.87851
G1 X8.169 Y4.262 E4.01396
G1 X4.165 Y5.477 E4.14941
G1 X0.000 Y5.887 E4.28485
G1 X-4.164 Y5.477 E4.42030
G1 X-8.169 Y4.262 E4.55575
G1 X-11.859 Y2.290 E4.69120
G1 X-15.094 Y-0.365 E4.82665
G1 X-17.749 Y-3.600 E4.96210
G1 X-19.722 Y-7.290 E5.09755
G1 X-20.936 Y-11.295 E5.23299
G1 X-21.341 Y-15.401 E5.36655
G1 X-20.955 Y-15.459 F7800.000
G1 X-20.553 Y-19.548 E5.49952 F378.000
G1 X-19.360 Y-23.479 E5.63249
G1 X-17.424 Y-27.102 E5.76545
G1 X-14.818 Y-30.277 E5.89842
G1 X-11.642 Y-32.883 E6.03139
G1 X-8.019 Y-34.820 E6.16435
G1 X-5.389 Y-35.618 E6.25334
G1 X-5.389 Y-40.771 E6.42013
G1 X5.389 Y-40.771 E6.76896
G1 X5.389 Y-35.618 E6.93575
G1 X8.019 Y-34.820 E7.02473
G1 X11.642 Y-32.883 E7.15770
G1 X14.818 Y-30.277 E7.29067
G1 X17.424 Y-27.102 E7.42363
G1 X19.360 Y-23.479 E7.55660
G1 X20.553 Y-19.548 E7.68957
G1 X20.955 Y-15.459 E7.82253
G1 X20.553 Y-11.371 E7.95550
G1 X19.360 Y-7.440 E8.08847
G1 X17.424 Y-3.817 E8.22143
G1 X14.818 Y-0.642 E8.35440
G1 X11.642 Y1.964 E8.48737
G1 X8.019 Y3.901 E8.62033
G1 X4.088 Y5.093 E8.75330
G1 X0.000 Y5.496 E8.88627
G1 X-4.088 Y5.093 E9.01923
G1 X-8.019 Y3.901 E9.15220
G1 X-11.642 Y1.964 E9.28517
G1 X-14.818 Y-0.642 E9.41813
G1 X-17.424 Y-3.817 E9.55110
G1 X-19.360 Y-7.440 E9.68407
G1 X-20.553 Y-11.371 E9.81703
G1 X-20.950 Y-15.401 E9.94811
G1 X-21.286 Y-15.665 F7800.000
G1 F600.000 E9.24811
G1 Z0.400 F7800.000
G92 E0
G1 X-4.819 Y16.463 F7800.000
G1 Z0.200 F7800.000
G1 E0.70000 F600.000
G1 X-2.457 Y15.747 E0.77990 F540.000
G1 X-0.000 Y15.505 E0.85980
G1 X2.457 Y15.747 E0.93970
G1 X4.819 Y16.463 E1.01960
G1 X6.996 Y17.627 E1.09950
G1 X8.904 Y19.193 E1.17940
G1 X10.470 Y21.101 E1.25930
G1 X11.634 Y23.278 E1.33920
G1 X12.350 Y25.640 E1.41910
G1 X12.592 Y28.097 E1.49900
G1 X12.350 Y30.553 E1.57890
G1 X11.634 Y32.916 E1.65880
G1 X10.470 Y35.093 E1.73870
G1 X8.904 Y37.001 E1.81860
G1 X6.996 Y38.567 E1.89850
G1 X4.819 Y39.730 E1.97840
G1 X2.457 Y40.447 E2.05830
G1 X0.000 Y40.689 E2.13820
G1 X-2.457 Y40.447 E2.21810
G1 X-4.819 Y39.730 E2.29800
G1 X-6.996 Y38.567 E2.37790
G1 X-8.904 Y37.001 E2.45780
G1 X-10.470 Y35.093 E2.53770
G1 X-11.634 Y32.916 E2.61760
G1 X-12.350 Y30.553 E2.69749
G1 X-12.592 Y28.097 E2.77739
G1 X-12.350 Y25.640 E2.85729
G1 X-11.634 Y23.278 E2.93719
G1 X-10.470 Y21.101 E3.01709
G1 X-8.904 Y19.193 E3.09699
G1 X-6.996 Y17.627 E3.17689
G1 X-4.870 Y16.491 E3.25490
G1 X-4.669 Y16.825 F7800.000
G1 X-2.380 Y16.130 E3.33232 F378.000
G1 X-0.000 Y15.896 E3.40974
G1 X2.380 Y16.130 E3.48716
G1 X4.669 Y16.825 E3.56458
G1 X6.778 Y17.952 E3.64199
G1 X8.627 Y19.469 E3.71941
G1 X10.145 Y21.318 E3.79683
G1 X11.272 Y23.428 E3.87425
G1 X11.967 Y25.717 E3.95166
G1 X12.201 Y28.097 E4.02908
G1 X11.967 Y30.477 E4.10650
G1 X11.272 Y32.766 E4.18392
G1 X10.145 Y34.875 E4.26134
G1 X8.627 Y36.724 E4.33875
G1 X6.778 Y38.242 E4.41617
G1 X4.669 Y39.369 E4.49359
G1 X2.380 Y40.063 E4.57101
G1 X0.000 Y40.298 E4.64843
G1 X-2.380 Y40.063 E4.72584
G1 X-4.669 Y39.369 E4.80326
G1 X-6.778 Y38.242 E4.88068
G1 X-8.627 Y36.724 E4.95810
G1 X-10.145 Y34.875 E5.03551
G1 X-11.272 Y32.766 E5.11293
G1 X-11.967 Y30.477 E5.19035
G1 X-12.201 Y28.097 E5.26777
G1 X-11.967 Y25.717 E5.34519
G1 X-11.272 Y23.428 E5.42260
G1 X-10.145 Y21.318 E5.50002
G1 X-8.627 Y19.469 E5.57744
G1 X-6.779 Y17.952 E5.65486
G1 X-4.721 Y16.852 E5.73039
G1 X-4.606 Y16.441 F7800.000
G1 F600.000 E5.03039
G1 Z0.400 F7800.000
G92 E0
G1 X13.213 Y41.911 F7800.000
G1 Z0.200 F7800.000
G1 E0.70000 F600.000
G1 X-13.213 Y41.911 E1.55536 F540.000
G1 X-13.333 Y13.399 E2.47821
G1 X-23.804 Y-15.483 E3.47262
G1 X-13.399 Y-41.911 E4.39194
G1 X13.399 Y-41.911 E5.25931
G1 X23.804 Y-15.483 E6.17863
G1 X13.333 Y13.399 E7.17303
G1 X13.213 Y41.852 E8.09400
G1 X13.601 Y42.300 F7800.000
G1 X-13.601 Y42.300 E8.97445 F378.000
G1 X-13.722 Y13.469 E9.90767
G1 X-24.220 Y-15.489 E10.90466
G1 X-13.664 Y-42.300 E11.83732
G1 X13.664 Y-42.300 E12.72185
G1 X24.220 Y-15.489 E13.65451
G1 X13.722 Y13.469 E14.65149
G1 X13.601 Y42.242 E15.58283
G1 X13.264 Y42.105 F7800.000
G1 X12.964 Y29.050 F7800.000
G1 X13.004 Y29.091 E15.58470 F1080.000
G1 X12.730 Y29.374 E15.59762
G1 X13.002 Y29.646 E15.61023
G1 X12.680 Y29.881 E15.62332
G1 X13.000 Y30.201 E15.63814
G1 X12.630 Y30.389 E15.65173
G1 X12.997 Y30.756 E15.66876
G1 X12.985 Y31.302 E15.68665
G1 X12.549 Y30.865 E15.70689
G1 X12.468 Y31.342 E15.72274
G1 X12.993 Y31.867 E15.74708
G1 X12.990 Y32.422 E15.76528
G1 X12.275 Y31.706 E15.79847
G1 X12.145 Y32.134 E15.81313
G1 X12.988 Y32.977 E15.85222
G1 X12.986 Y33.533 E15.87042
G1 X12.015 Y32.562 E15.91543
G1 X11.885 Y32.990 E15.93008
G1 X12.983 Y34.088 E15.98099
G1 X12.981 Y34.643 E15.99920
G1 X11.695 Y33.357 E16.05882
G1 X11.501 Y33.721 E16.07233
G1 X12.979 Y35.198 E16.14085
G1 X12.976 Y35.754 E16.15905
G1 X11.307 Y34.084 E16.23647
G1 X11.112 Y34.447 E16.24998
G1 X12.974 Y36.309 E16.33629
G1 X12.972 Y36.864 E16.35449
G1 X10.918 Y34.811 E16.44970
G1 X10.724 Y35.174 E16.46321
G1 X12.969 Y37.420 E16.56732
G1 X12.967 Y37.975 E16.58552
G1 X10.483 Y35.491 E16.70070
G1 X10.232 Y35.797 E16.71369
G1 X12.965 Y38.530 E16.84041
G1 X12.962 Y39.085 E16.85861
G1 X9.980 Y36.103 E16.99688
G1 X9.729 Y36.409 E17.00987
G1 X12.960 Y39.641 E17.15968
G1 X12.958 Y40.196 E17.17789
G1 X9.478 Y36.716 E17.33925
G1 X9.226 Y37.022 E17.35224
G1 X12.955 Y40.751 E17.52514
G1 X12.953 Y41.306 E17.54334
G1 X8.950 Y37.303 E17.72896
G1 X8.643 Y37.554 E17.74195
G1 X12.737 Y41.648 E17.93177
G1 X12.180 Y41.648 E17.95005
G1 X8.337 Y37.806 E18.12821
G1 X8.031 Y38.057 E18.14120
G1 X11.622 Y41.648 E18.30771
G1 X11.064 Y41.648 E18.32599
G1 X7.725 Y38.308 E18.48085
G1 X7.418 Y38.560 E18.49383
G1 X10.507 Y41.648 E18.63704
G1 X9.949 Y41.648 E18.65532
G1 X7.106 Y38.805 E18.78713
G1 X6.743 Y39.000 E18.80064
G1 X9.392 Y41.648 E18.92344
G1 X8.834 Y41.648 E18.94172
G1 X6.380 Y39.194 E19.05552
G1 X6.016 Y39.388 E19.06903
G1 X8.277 Y41.648 E19.17383
G1 X7.719 Y41.648 E19.19211
G1 X5.653 Y39.582 E19.28790
G1 X5.290 Y39.776 E19.30141
G1 X7.161 Y41.648 E19.38819
G1 X6.604 Y41.648 E19.40647
G1 X4.926 Y39.971 E19.48425
G1 X4.499 Y40.102 E19.49888
G1 X6.046 Y41.648 E19.57059
G1 X5.489 Y41.648 E19.58887
G1 X4.072 Y40.231 E19.65457
G1 X3.644 Y40.361 E19.66922
G1 X4.931 Y41.648 E19.72890
G1 X4.373 Y41.648 E19.74718
G1 X3.216 Y40.491 E19.80084
G1 X2.788 Y40.621 E19.81550
G1 X3.816 Y41.648 E19.86314
G1 X3.258 Y41.648 E19.88142
G1 X2.333 Y40.723 E19.92432
G1 X1.825 Y40.773 E19.94104
G1 X2.701 Y41.648 E19.98163
G1 X2.143 Y41.648 E19.99991
G1 X1.318 Y40.823 E20.03817
G1 X0.810 Y40.873 E20.05490
G1 X1.585 Y41.648 E20.09084
G1 X1.028 Y41.648 E20.10912
G1 X0.302 Y40.923 E20.14275
G1 X-0.250 Y40.928 E20.16087
G1 X0.470 Y41.648 E20.19426
G1 X-0.087 Y41.648 E20.21254
G1 X-0.869 Y40.867 E20.24875
G1 X-1.487 Y40.806 E20.26913
G1 X-0.645 Y41.648 E20.30817
G1 X-1.203 Y41.648 E20.32645
G1 X-2.106 Y40.745 E20.36831
G1 X-2.788 Y40.621 E20.39104
G1 X-1.760 Y41.648 E20.43868
G1 X-2.318 Y41.648 E20.45696
G1 X-3.588 Y40.378 E20.51585
G1 X-4.388 Y40.135 E20.54327
G1 X-2.875 Y41.648 E20.61342
G1 X-3.433 Y41.648 E20.63170
G1 X-5.323 Y39.759 E20.71930
G1 X-6.520 Y39.119 F7800.000
G1 X-3.991 Y41.648 E20.83659 F1080.000
G1 X-4.548 Y41.648 E20.85487
G1 X-8.637 Y37.559 E21.04446
G1 X-9.462 Y36.734 F7800.000
G1 X-12.987 Y33.209 E21.20789 F1080.000
G1 X-12.985 Y33.769 E21.22625
G1 X-5.106 Y41.648 E21.59155
G1 X-5.663 Y41.648 E21.60983
G1 X-12.982 Y34.329 E21.94917
G1 X-12.980 Y34.889 E21.96753
G1 X-6.221 Y41.648 E22.28090
G1 X-6.779 Y41.648 E22.29919
G1 X-12.978 Y35.449 E22.58660
G1 X-12.975 Y36.009 E22.60496
G1 X-7.336 Y41.648 E22.86641
G1 X-7.894 Y41.648 E22.88469
G1 X-12.973 Y36.569 E23.12018
G1 X-12.971 Y37.129 E23.13854
G1 X-8.451 Y41.648 E23.34807
G1 X-9.009 Y41.648 E23.36635
G1 X-12.968 Y37.689 E23.54992
G1 X-12.966 Y38.249 E23.56827
G1 X-9.567 Y41.648 E23.72588
G1 X-10.124 Y41.648 E23.74416
G1 X-12.964 Y38.809 E23.87580
G1 X-12.961 Y39.369 E23.89416
G1 X-10.682 Y41.648 E23.99984
G1 X-11.239 Y41.648 E24.01812
G1 X-12.959 Y39.929 E24.09784
G1 X-12.957 Y40.489 E24.11620
G1 X-11.797 Y41.648 E24.16995
G1 X-12.355 Y41.648 E24.18823
G1 X-12.954 Y41.049 E24.21603
G1 X-12.952 Y41.609 E24.23439
G1 X-12.912 Y41.648 E24.23622
G1 X-11.022 Y34.617 F7800.000
G1 X-12.989 Y32.649 E24.32745 F1080.000
G1 X-12.992 Y32.090 E24.34581
G1 X-11.662 Y33.419 E24.40747
G1 X-12.038 Y32.485 F7800.000
G1 X-12.994 Y31.530 E24.45178 F1080.000
G1 X-12.954 Y31.013 E24.46878
G1 X-12.281 Y31.685 E24.49995
G1 X-12.524 Y30.884 E24.52737
G1 X-12.548 Y30.860 E24.52849
G1 X-12.979 Y24.873 F7800.000
G1 X-13.022 Y24.830 E24.53047 F1080.000
G1 X-13.025 Y24.274 E24.54860
G1 X-12.400 Y24.899 E24.57740
G1 X-12.271 Y24.473 E24.59188
G1 X-13.027 Y23.717 E24.62674
G1 X-13.029 Y23.160 E24.64487
G1 X-12.142 Y24.048 E24.68578
G1 X-12.013 Y23.623 E24.70026
G1 X-13.032 Y22.604 E24.74722
G1 X-13.034 Y22.047 E24.76535
G1 X-11.884 Y23.198 E24.81836
G1 X-11.694 Y22.833 E24.83175
G1 X-13.036 Y21.491 E24.89362
G1 X-13.039 Y20.934 E24.91176
G1 X-11.501 Y22.472 E24.98263
G1 X-11.308 Y22.111 E24.99598
G1 X-13.041 Y20.378 E25.07586
G1 X-13.043 Y19.821 E25.09399
G1 X-11.115 Y21.750 E25.18288
G1 X-10.921 Y21.389 E25.19622
G1 X-13.046 Y19.265 E25.29411
G1 X-13.048 Y18.708 E25.31225
G1 X-10.728 Y21.027 E25.41914
G1 X-10.490 Y20.712 E25.43203
G1 X-13.050 Y18.151 E25.55002
G1 X-13.053 Y17.595 E25.56815
G1 X-10.240 Y20.407 E25.69776
G1 X-9.990 Y20.103 E25.71059
G1 X-13.055 Y17.038 E25.85181
G1 X-13.057 Y16.482 E25.86995
G1 X-9.741 Y19.798 E26.02279
G1 X-9.491 Y19.494 E26.03563
G1 X-13.060 Y15.925 E26.20009
G1 X-13.062 Y15.369 E26.21823
G1 X-9.379 Y19.051 E26.38794
G1 X-9.108 Y18.769 E26.40071
G1 X-13.064 Y14.812 E26.58305
G1 X-13.067 Y14.255 E26.60118
G1 X-8.803 Y18.519 E26.79765
G1 X-8.499 Y18.269 E26.81048
G1 X-13.069 Y13.699 E27.02109
G1 X-13.190 Y13.024 E27.04343
G1 X-8.195 Y18.019 E27.27362
G1 X-7.890 Y17.769 E27.28645
G1 X-13.505 Y12.155 E27.54519
G1 X-13.820 Y11.285 F7800.000
G1 X-7.586 Y17.520 E27.83249 F1080.000
G1 X-7.143 Y17.408 E27.84737
G1 X-14.135 Y10.416 E28.16959
G1 X-14.450 Y9.546 F7800.000
G1 X-6.782 Y17.215 E28.52297 F1080.000
G1 X-6.421 Y17.022 E28.53632
G1 X-14.766 Y8.677 E28.92087
G1 X-15.081 Y7.808 F7800.000
G1 X-6.060 Y16.829 E29.33660 F1080.000
G1 X-5.699 Y16.636 E29.34994
G1 X-15.396 Y6.938 E29.79683
G1 X-15.711 Y6.069 F7800.000
G1 X-5.337 Y16.443 E30.27490 F1080.000
G1 X-4.976 Y16.250 E30.28824
G1 X-16.026 Y5.199 E30.79747
G1 X-16.342 Y4.330 F7800.000
G1 X-4.561 Y16.111 E31.34036 F1080.000
G1 X-4.136 Y15.982 E31.35484
G1 X-16.657 Y3.461 E31.93185
G1 X-16.972 Y2.591 F7800.000
G1 X-3.711 Y15.853 E32.54298 F1080.000
G1 X-3.285 Y15.724 E32.55746
G1 X-17.287 Y1.722 E33.20272
G1 X-17.602 Y0.852 F7800.000
G1 X-2.860 Y15.595 E33.88209 F1080.000
G1 X-2.421 Y15.479 E33.89688
G1 X-17.917 Y-0.017 E34.61100
G1 X-18.233 Y-0.886 F7800.000
G1 X-2.095 Y15.252 E35.35470 F1080.000
G1 X-1.590 Y15.202 E35.37122
G1 X-18.548 Y-1.756 E36.15269
G1 X-18.863 Y-2.625 F7800.000
G1 X-1.086 Y15.152 E36.97194 F1080.000
G1 X-0.581 Y15.102 E36.98846
G1 X-19.178 Y-3.495 E37.84548
G1 X-18.374 Y-3.799 F7800.000
G1 X-19.809 Y-5.233 E37.91160 F1080.000
G1 X-19.010 Y-4.989 E37.93881
G1 X-20.124 Y-6.103 E37.99013
G1 X-19.646 Y-6.180 E38.00589
G1 X-20.439 Y-6.972 E38.04240
G1 X-20.007 Y-7.094 E38.05704
G1 X-20.754 Y-7.842 E38.09149
G1 X-20.322 Y-7.964 E38.10612
G1 X-21.069 Y-8.711 E38.14057
G1 X-20.637 Y-8.833 E38.15521
G1 X-21.384 Y-9.580 E38.18965
G1 X-20.922 Y-9.672 E38.20502
G1 X-21.700 Y-10.450 E38.24086
G1 X-21.163 Y-10.468 E38.25834
G1 X-22.015 Y-11.319 E38.29759
G1 X-21.234 Y-11.092 E38.32409
G1 X-22.330 Y-12.189 E38.37462
G1 X-22.645 Y-13.058 F7800.000
G1 X-21.235 Y-11.648 E38.43960 F1080.000
G1 X-21.296 Y-12.263 E38.45973
G1 X-22.960 Y-13.927 E38.53645
G1 X-23.276 Y-14.797 F7800.000
G1 X-21.356 Y-12.877 E38.62491 F1080.000
G1 X-21.417 Y-13.492 E38.64504
G1 X-23.489 Y-15.565 E38.74055
G1 X-23.333 Y-15.962 E38.75448
G1 X-21.477 Y-14.107 E38.83998
G1 X-21.538 Y-14.722 E38.86011
G1 X-23.176 Y-16.360 E38.93562
G1 X-23.020 Y-16.758 E38.94954
G1 X-21.598 Y-15.337 E39.01504
G1 X-21.571 Y-15.863 E39.03222
G1 X-22.863 Y-17.155 E39.09178
G1 X-22.706 Y-17.553 E39.10570
G1 X-21.521 Y-16.368 E39.16033
G1 X-21.471 Y-16.872 E39.17685
G1 X-22.550 Y-17.951 E39.22656
G1 X-22.393 Y-18.348 E39.24049
G1 X-21.422 Y-17.377 E39.28527
G1 X-21.372 Y-17.881 E39.30179
G1 X-22.237 Y-18.746 E39.34164
G1 X-22.080 Y-19.144 E39.35557
G1 X-21.322 Y-18.386 E39.39050
G1 X-21.273 Y-18.890 E39.40702
G1 X-21.924 Y-19.541 E39.43702
G1 X-21.705 Y-19.877 E39.45007
G1 X-21.223 Y-19.395 E39.47228
G1 F600.000 E38.77228
G1 Z0.400 F7800.000
G92 E0
G1 X-19.493 Y-4.364 F7800.000
G1 Z0.200 F7800.000
G1 E0.70000 F600.000
G1 X-0.077 Y15.053 E1.59480 F1080.000
G1 X0.521 Y15.097 E1.61434
G1 X-12.341 Y2.235 E2.20707
G1 X-10.944 Y3.077 F7800.000
G1 X1.136 Y15.157 E2.76379 F1080.000
G1 X1.751 Y15.218 E2.78392
G1 X-9.754 Y3.713 E3.31410
G1 X-8.563 Y4.349 F7800.000
G1 X2.605 Y15.517 E3.82875 F1080.000
G1 X3.400 Y15.758 E3.85584
G1 X-7.670 Y4.688 E4.36601
G1 X-6.875 Y4.929 E4.39310
G1 X4.196 Y16.000 E4.90327
G1 X5.027 Y16.277 E4.93182
G1 X-6.079 Y5.171 E5.44362
G1 X-5.284 Y5.412 E5.47071
G1 X6.217 Y16.913 E6.00073
G1 X7.832 Y17.974 F7800.000
G1 X-4.488 Y5.653 E6.56849 F1080.000
G1 X-3.811 Y5.776 E6.59090
G1 X13.032 Y22.619 E7.36708
G1 X13.034 Y22.067 E7.38507
G1 X-3.197 Y5.836 E8.13303
G1 X-2.582 Y5.897 E8.15316
G1 X13.036 Y21.515 E8.87290
G1 X13.038 Y20.963 E8.89089
G1 X-1.967 Y5.957 E9.58240
G1 X-1.352 Y6.018 E9.60253
G1 X13.041 Y20.411 E10.26582
G1 X13.043 Y19.859 E10.28381
G1 X-0.738 Y6.078 E10.91888
G1 X-0.123 Y6.139 E10.93901
G1 X13.045 Y19.307 E11.54585
G1 X13.048 Y18.755 E11.56384
G1 X0.404 Y6.111 E12.14652
G1 X0.908 Y6.062 E12.16304
G1 X13.050 Y18.203 E12.72258
G1 X13.052 Y17.652 E12.74057
