; generated by Slic3r 1.0.1-dev on 2014-04-13 at 17:16:07

; layer_height = 0.18
; perimeters = 2
; top_solid_layers = 3
; bottom_solid_layers = 2
; fill_density = 0.3
; perimeter_speed = 30
; infill_speed = 60
; travel_speed = 130
; nozzle_diameter = 0.35
; filament_diameter = 1.75
; extrusion_multiplier = 1
; perimeters extrusion width = 0.35mm
; infill extrusion width = 0.57mm
; solid infill extrusion width = 0.57mm
; top infill extrusion width = 0.57mm
; first layer extrusion width = 0.40mm

G21 ; set units to millimeters
M107
M190 S80 ; wait for bed temperature to be reached
M104 S200 ; set temperature
G28
G92 X0 Y0 Z0 E0
G1 F5000 Y30 X30
G1 X220
G1 F100 E10
G28
G92 X0 Y0 Z0
G1 F4000 X101 Y127
G92 X0 Y0 Z0 E0
M106 S255
M109 S200 ; wait for temperature to be reached
G90 ; use absolute coordinates
G92 E0
M82 ; use absolute distances for extrusion
G1 F600.000 E-0.70000
G1 Z0.400 F7800.000
G92 E0
G1 X-30.718 Y-14.339 F7800.000
G1 Z0.200 F7800.000
G1 E0.70000 F600.000
G1 X-30.728 Y-16.591 E0.77289 F540.000
G1 X-30.379 Y-17.832 E0.81462
G1 X-19.745 Y-44.841 E1.75414
G1 X-18.563 Y-46.758 E1.82703
G1 X-16.790 Y-48.146 E1.89993
G1 X-13.800 Y-48.889 E1.99967
G1 X13.800 Y-48.889 E2.89301
G1 X16.017 Y-48.492 E2.96590
G1 X17.958 Y-47.351 E3.03879
G1 X19.745 Y-44.841 E3.13853
G1 X30.379 Y-17.832 E4.07805
G1 X30.822 Y-15.624 E4.15095
G1 X30.718 Y-14.339 E4.19267
G1 X20.084 Y43.652 E6.10104
G1 X19.294 Y45.761 E6.17393
G1 X17.821 Y47.465 E6.24683
G1 X15.849 Y48.552 E6.31972
G1 X13.800 Y48.889 E6.38694
G1 X-13.800 Y48.889 E7.28028
G1 X-16.017 Y48.492 E7.35318
G1 X-17.958 Y47.351 E7.42607
G1 X-19.383 Y45.607 E7.49896
G1 X-20.084 Y43.652 E7.56618
G1 X-30.708 Y-14.282 E9.47266
G1 F600.000 E8.77266
G1 Z0.400 F7800.000
G92 E0
G1 X-20.592 Y-15.459 F7800.000
G1 Z0.200 F7800.000
G1 E0.70000 F600.000
G1 X-20.196 Y-19.477 E0.83066 F540.000
G1 X-19.025 Y-23.340 E0.96132
G1 X-17.122 Y-26.900 E1.09198
G1 X-14.561 Y-30.020 E1.22265
G1 X-11.440 Y-32.581 E1.35331
G1 X-7.880 Y-34.484 E1.48397
G1 X-5.589 Y-35.179 E1.56146
G1 X-5.589 Y-40.247 E1.72550
G1 X5.589 Y-40.247 E2.08733
G1 X5.589 Y-35.179 E2.25137
G1 X7.880 Y-34.484 E2.32886
G1 X11.440 Y-32.581 E2.45953
G1 X14.561 Y-30.020 E2.59019
G1 X17.122 Y-26.900 E2.72085
G1 X19.025 Y-23.340 E2.85151
G1 X20.196 Y-19.477 E2.98217
G1 X20.583 Y-15.549 E3.10991
G1 X20.592 Y-15.459 E3.11283
G1 X20.196 Y-11.442 E3.24349
G1 X19.025 Y-7.579 E3.37416
G1 X17.122 Y-4.019 E3.50482
G1 X14.561 Y-0.899 E3.63548
G1 X11.440 Y1.662 E3.76614
G1 X7.880 Y3.565 E3.89680
G1 X4.017 Y4.737 E4.02746
G1 X0.000 Y5.133 E4.15813
G1 X-4.017 Y4.737 E4.28879
G1 X-7.880 Y3.565 E4.41945
G1 X-11.440 Y1.662 E4.55011
G1 X-14.561 Y-0.899 E4.68077
G1 X-17.122 Y-4.019 E4.81143
G1 X-19.025 Y-7.579 E4.94209
G1 X-20.196 Y-11.442 E5.07276
G1 X-20.586 Y-15.401 E5.20153
G1 X-20.201 Y-15.459 F7800.000
G1 X-19.813 Y-19.400 E5.32971 F378.000
G1 X-18.663 Y-23.190 E5.45789
G1 X-16.796 Y-26.682 E5.58607
G1 X-14.284 Y-29.744 E5.71425
G1 X-11.223 Y-32.256 E5.84243
G1 X-7.731 Y-34.123 E5.97061
G1 X-5.200 Y-34.890 E6.05620
G1 X-5.200 Y-39.858 E6.21699
G1 X5.200 Y-39.858 E6.55362
G1 X5.200 Y-34.890 E6.71440
G1 X7.731 Y-34.123 E6.80000
G1 X11.223 Y-32.256 E6.92818
G1 X14.284 Y-29.744 E7.05636
G1 X16.796 Y-26.682 E7.18454
G1 X18.663 Y-23.190 E7.31272
G1 X19.813 Y-19.400 E7.44090
G1 X20.201 Y-15.459 E7.56908
G1 X19.813 Y-11.518 E7.69726
G1 X18.663 Y-7.729 E7.82543
G1 X16.796 Y-4.236 E7.95361
G1 X14.284 Y-1.175 E8.08179
G1 X11.223 Y1.337 E8.20997
G1 X7.731 Y3.204 E8.33815
G1 X3.941 Y4.353 E8.46633
G1 X0.000 Y4.742 E8.59451
G1 X-3.941 Y4.353 E8.72269
G1 X-7.731 Y3.204 E8.85087
G1 X-11.223 Y1.337 E8.97905
G1 X-14.284 Y-1.175 E9.10723
G1 X-16.796 Y-4.236 E9.23541
G1 X-18.663 Y-7.729 E9.36359
G1 X-19.813 Y-11.518 E9.49177
G1 X-20.195 Y-15.401 E9.61806
G1 X-20.532 Y-15.665 F7800.000
G1 F600.000 E8.91806
G1 Z0.400 F7800.000
G92 E0
G1 X-4.532 Y17.156 F7800.000
G1 Z0.200 F7800.000
G1 E0.70000 F600.000
G1 X-2.310 Y16.482 E0.77514 F540.000
G1 X-0.000 Y16.255 E0.85028
G1 X2.310 Y16.482 E0.92542
G1 X4.532 Y17.156 E1.00056
G1 X6.579 Y18.250 E1.07570
G1 X8.374 Y19.723 E1.15085
G1 X9.846 Y21.518 E1.22599
G1 X10.941 Y23.565 E1.30113
G1 X11.615 Y25.787 E1.37627
G1 X11.842 Y28.097 E1.45141
G1 X11.615 Y30.407 E1.52655
G1 X10.941 Y32.629 E1.60169
G1 X9.846 Y34.676 E1.67683
G1 X8.374 Y36.470 E1.75197
G1 X6.579 Y37.943 E1.82711
G1 X4.532 Y39.038 E1.90225
G1 X2.310 Y39.711 E1.97740
G1 X0.000 Y39.939 E2.05254
G1 X-2.310 Y39.711 E2.12768
G1 X-4.532 Y39.038 E2.20282
G1 X-6.579 Y37.943 E2.27796
G1 X-8.374 Y36.470 E2.35310
G1 X-9.846 Y34.676 E2.42824
G1 X-10.941 Y32.629 E2.50338
G1 X-11.615 Y30.407 E2.57852
G1 X-11.842 Y28.097 E2.65366
G1 X-11.615 Y25.787 E2.72880
G1 X-10.941 Y23.565 E2.80394
G1 X-9.846 Y21.518 E2.87909
G1 X-8.374 Y19.723 E2.95423
G1 X-6.579 Y18.250 E3.02937
G1 X-4.583 Y17.184 E3.10262
G1 X-4.382 Y17.518 F7800.000
G1 X-2.234 Y16.866 E3.17528 F378.000
G1 X-0.000 Y16.646 E3.24794
G1 X2.234 Y16.866 E3.32060
G1 X4.382 Y17.518 E3.39325
G1 X6.362 Y18.576 E3.46591
G1 X8.097 Y20.000 E3.53857
G1 X9.521 Y21.735 E3.61123
G1 X10.579 Y23.715 E3.68389
G1 X11.231 Y25.863 E3.75655
G1 X11.451 Y28.097 E3.82921
G1 X11.231 Y30.331 E3.90187
G1 X10.579 Y32.479 E3.97453
G1 X9.521 Y34.459 E4.04719
G1 X8.097 Y36.194 E4.11984
G1 X6.362 Y37.618 E4.19250
G1 X4.382 Y38.676 E4.26516
G1 X2.234 Y39.328 E4.33782
G1 X0.000 Y39.548 E4.41048
G1 X-2.234 Y39.328 E4.48314
G1 X-4.382 Y38.676 E4.55580
G1 X-6.362 Y37.618 E4.62846
G1 X-8.097 Y36.194 E4.70112
G1 X-9.521 Y34.459 E4.77377
G1 X-10.579 Y32.479 E4.84643
G1 X-11.231 Y30.331 E4.91909
G1 X-11.451 Y28.097 E4.99175
G1 X-11.231 Y25.863 E5.06441
G1 X-10.579 Y23.715 E5.13707
G1 X-9.521 Y21.735 E5.20973
G1 X-8.097 Y20.000 E5.28239
G1 X-6.362 Y18.576 E5.35505
G1 X-4.434 Y17.545 E5.42581
G1 X-4.319 Y17.133 F7800.000
G1 F600.000 E4.72581
G1 Z0.400 F7800.000
G92 E0
G1 X13.399 Y-41.911 F7800.000
G1 Z0.200 F7800.000
G1 E0.70000 F600.000
G1 X23.804 Y-15.483 E1.61932 F540.000
G1 X13.333 Y13.399 E2.61373
G1 X13.213 Y41.911 E3.53659
G1 X-13.213 Y41.911 E4.39194
G1 X-13.333 Y13.399 E5.31480
G1 X-23.804 Y-15.483 E6.30921
G1 X-13.399 Y-41.911 E7.22853
G1 X13.340 Y-41.911 E8.09400
G1 X13.664 Y-42.300 F7800.000
G1 X24.220 Y-15.489 E9.02667 F378.000
G1 X13.722 Y13.469 E10.02365
G1 X13.601 Y42.300 E10.95687
G1 X-13.601 Y42.300 E11.83732
G1 X-13.722 Y13.469 E12.77054
G1 X-24.220 Y-15.489 E13.76752
G1 X-13.664 Y-42.300 E14.70019
G1 X13.605 Y-42.300 E15.58283
G1 X13.558 Y-41.925 F7800.000
G1 X13.600 Y-40.683 F7800.000
G1 X12.635 Y-41.648 E15.62716 F1080.000
G1 X12.082 Y-41.648 E15.64511
G1 X13.958 Y-39.772 E15.73131
G1 X14.317 Y-38.860 F7800.000
G1 X11.530 Y-41.648 E15.85938 F1080.000
G1 X10.977 Y-41.648 E15.87732
G1 X14.676 Y-37.949 E16.04726
G1 X15.035 Y-37.038 F7800.000
G1 X10.425 Y-41.648 E16.25906 F1080.000
G1 X9.872 Y-41.648 E16.27701
G1 X15.394 Y-36.126 E16.53067
G1 X15.752 Y-35.215 F7800.000
G1 X9.320 Y-41.648 E16.82620 F1080.000
G1 X8.767 Y-41.648 E16.84415
G1 X16.111 Y-34.304 E17.18155
G1 X16.470 Y-33.393 F7800.000
G1 X8.215 Y-41.648 E17.56081 F1080.000
G1 X5.852 Y-40.143 F7800.000
G1 X18.982 Y-27.013 E18.16400 F1080.000
G1 X18.623 Y-27.925 F7800.000
G1 X4.900 Y-41.648 E18.79446 F1080.000
G1 X5.452 Y-41.648 E18.81241
G1 X18.264 Y-28.836 E19.40101
G1 X17.905 Y-29.747 F7800.000
G1 X6.005 Y-41.648 E19.94774 F1080.000
G1 X6.557 Y-41.648 E19.96568
G1 X17.546 Y-30.659 E20.47055
G1 X17.188 Y-31.570 F7800.000
G1 X7.110 Y-41.648 E20.93354 F1080.000
G1 X7.662 Y-41.648 E20.95149
G1 X16.829 Y-32.481 E21.37262
G1 X14.389 Y-30.501 F7800.000
G1 X5.852 Y-39.038 E21.76483 F1080.000
G1 X5.852 Y-39.591 E21.78277
G1 X19.340 Y-26.102 E22.40245
G1 X19.699 Y-25.191 F7800.000
G1 X15.042 Y-29.848 E22.61642 F1080.000
G1 X17.399 Y-26.939 F7800.000
G1 X20.058 Y-24.280 E22.73860 F1080.000
G1 X20.417 Y-23.368 F7800.000
G1 X18.033 Y-25.752 E22.84811 F1080.000
G1 X18.667 Y-24.565 F7800.000
G1 X20.776 Y-22.457 E22.94496 F1080.000
G1 X21.134 Y-21.546 F7800.000
G1 X19.281 Y-23.399 E23.03011 F1080.000
G1 X19.522 Y-22.606 E23.05703
G1 X21.493 Y-20.634 E23.14760
G1 X21.852 Y-19.723 F7800.000
G1 X19.762 Y-21.813 E23.24361 F1080.000
G1 X20.003 Y-21.020 E23.27053
G1 X22.211 Y-18.812 E23.37197
G1 X22.570 Y-17.900 F7800.000
G1 X20.243 Y-20.227 E23.47883 F1080.000
G1 X20.463 Y-19.455 E23.50489
G1 X22.928 Y-16.989 E23.61818
G1 X23.287 Y-16.078 F7800.000
G1 X20.523 Y-18.842 E23.74517 F1080.000
G1 X20.583 Y-18.229 E23.76518
G1 X23.472 Y-15.340 E23.89791
G1 X23.325 Y-14.935 E23.91192
G1 X20.644 Y-17.616 E24.03513
G1 X20.704 Y-17.004 E24.05513
G1 X23.178 Y-14.529 E24.16881
G1 X23.031 Y-14.124 E24.18282
G1 X20.764 Y-16.391 E24.28698
G1 X20.825 Y-15.778 E24.30698
G1 X22.884 Y-13.718 E24.40161
G1 X22.737 Y-13.313 E24.41562
G1 X20.832 Y-15.218 E24.50314
G1 X20.783 Y-14.715 E24.51956
G1 X22.590 Y-12.907 E24.60261
G1 X22.443 Y-12.502 E24.61662
G1 X20.733 Y-14.212 E24.69519
G1 X20.684 Y-13.709 E24.71161
G1 X22.296 Y-12.096 E24.78570
G1 X22.149 Y-11.691 E24.79971
G1 X20.634 Y-13.206 E24.86932
G1 X20.585 Y-12.703 E24.88574
G1 X22.002 Y-11.285 E24.95088
G1 X21.855 Y-10.880 E24.96489
G1 X20.535 Y-12.200 E25.02555
G1 X20.485 Y-11.697 E25.04197
G1 X21.708 Y-10.474 E25.09815
G1 X21.561 Y-10.069 E25.11216
G1 X20.405 Y-11.225 E25.16528
G1 X20.276 Y-10.801 E25.17967
G1 X21.414 Y-9.663 E25.23195
G1 X21.267 Y-9.258 E25.24596
G1 X20.148 Y-10.377 E25.29739
G1 X20.019 Y-9.953 E25.31178
G1 X21.120 Y-8.852 E25.36236
G1 X20.973 Y-8.447 E25.37638
G1 X19.891 Y-9.529 E25.42611
G1 X19.762 Y-9.105 E25.44051
G1 X20.826 Y-8.041 E25.48940
G1 X20.679 Y-7.636 E25.50341
G1 X19.634 Y-8.681 E25.55146
G1 X19.505 Y-8.258 E25.56585
G1 X20.532 Y-7.230 E25.61305
G1 X20.385 Y-6.825 E25.62706
G1 X19.376 Y-7.834 E25.67341
G1 X19.237 Y-7.420 E25.68759
G1 X20.238 Y-6.419 E25.73357
G1 X20.091 Y-6.014 E25.74758
G1 X19.045 Y-7.060 E25.79565
G1 X18.853 Y-6.700 E25.80891
G1 X19.944 Y-5.608 E25.85907
G1 X19.797 Y-5.203 E25.87308
G1 X18.660 Y-6.340 E25.92533
G1 X18.468 Y-5.980 E25.93859
G1 X19.650 Y-4.797 E25.99293
G1 X19.503 Y-4.392 E26.00694
G1 X18.275 Y-5.620 E26.06336
G1 X18.083 Y-5.260 E26.07662
G1 X19.356 Y-3.986 E26.13513
G1 X19.209 Y-3.581 E26.14914
G1 X17.890 Y-4.900 E26.20974
G1 X17.698 Y-4.540 E26.22300
G1 X19.062 Y-3.175 E26.28569
G1 X18.915 Y-2.770 E26.29970
G1 X17.505 Y-4.180 E26.36447
G1 X17.305 Y-3.828 E26.37763
G1 X18.768 Y-2.364 E26.44487
G1 X18.621 Y-1.959 E26.45889
G1 X17.056 Y-3.524 E26.53082
G1 X16.807 Y-3.221 E26.54357
G1 X18.474 Y-1.553 E26.62019
G1 X18.327 Y-1.148 E26.63420
G1 X16.557 Y-2.917 E26.71551
G1 X16.308 Y-2.614 E26.72826
G1 X18.180 Y-0.742 E26.81425
G1 X18.033 Y-0.337 E26.82826
G1 X16.059 Y-2.311 E26.91894
G1 X15.810 Y-2.007 E26.93170
G1 X17.886 Y0.069 E27.02707
G1 X17.739 Y0.474 E27.04108
G1 X15.561 Y-1.704 E27.14113
G1 X15.312 Y-1.400 E27.15389
G1 X17.592 Y0.880 E27.25863
G1 X17.445 Y1.285 E27.27264
G1 X15.063 Y-1.097 E27.38208
G1 X14.814 Y-0.793 E27.39483
G1 X17.298 Y1.691 E27.50895
G1 X17.151 Y2.096 E27.52296
G1 X14.525 Y-0.530 E27.64360
G1 X14.222 Y-0.281 E27.65635
G1 X17.004 Y2.502 E27.78418
G1 X16.857 Y2.907 E27.79819
G1 X13.918 Y-0.032 E27.93320
G1 X13.615 Y0.218 E27.94595
G1 X16.710 Y3.313 E28.08816
G1 X16.563 Y3.718 E28.10217
G1 X13.311 Y0.467 E28.25156
G1 X13.008 Y0.716 E28.26431
G1 X16.416 Y4.124 E28.42089
G1 X16.269 Y4.529 E28.43490
G1 X12.705 Y0.965 E28.59866
G1 X12.401 Y1.214 E28.61141
G1 X16.122 Y4.935 E28.78237
G1 X15.975 Y5.340 E28.79638
G1 X12.098 Y1.463 E28.97452
G1 X11.794 Y1.712 E28.98727
G1 X15.828 Y5.746 E29.17260
G1 X15.681 Y6.151 E29.18661
G1 X11.473 Y1.943 E29.37995
G1 X11.113 Y2.135 E29.39321
G1 X15.534 Y6.557 E29.59634
G1 X15.387 Y6.962 E29.61035
G1 X10.753 Y2.328 E29.82326
G1 X10.393 Y2.520 E29.83653
G1 X15.240 Y7.368 E30.05923
G1 X15.093 Y7.773 E30.07324
G1 X10.033 Y2.713 E30.30573
G1 X9.672 Y2.905 E30.31899
G1 X14.946 Y8.179 E30.56127
G1 X14.799 Y8.584 E30.57528
G1 X9.312 Y3.098 E30.82735
G1 X8.952 Y3.290 E30.84061
G1 X14.652 Y8.990 E31.10246
G1 X14.505 Y9.395 E31.11647
G1 X8.592 Y3.482 E31.38812
G1 X8.232 Y3.675 E31.40138
G1 X14.358 Y9.801 E31.68281
G1 X14.211 Y10.206 E31.69682
G1 X7.853 Y3.848 E31.98892
G1 X7.429 Y3.977 E32.00331
G1 X14.064 Y10.612 E32.30814
G1 X13.917 Y11.017 E32.32215
G1 X7.005 Y4.105 E32.63970
G1 X6.581 Y4.234 E32.65409
G1 X13.770 Y11.423 E32.98435
G1 X13.623 Y11.828 E32.99837
G1 X6.157 Y4.362 E33.34136
G1 X5.733 Y4.491 E33.35575
G1 X13.476 Y12.234 E33.71146
G1 X13.329 Y12.639 E33.72547
G1 X5.309 Y4.620 E34.09390
G1 X4.885 Y4.748 E34.10829
G1 X13.182 Y13.045 E34.48944
G1 X13.070 Y13.485 E34.50420
G1 X4.462 Y4.877 E34.89968
G1 X4.032 Y5.000 E34.91419
G1 X13.068 Y14.035 E35.32930
G1 X13.065 Y14.585 E35.34718
G1 X3.529 Y5.049 E35.78529
G1 X3.026 Y5.099 E35.80170
G1 X13.063 Y15.136 E36.26281
G1 X13.061 Y15.686 E36.28069
G1 X2.523 Y5.148 E36.76480
G1 X2.020 Y5.198 E36.78121
G1 X13.058 Y16.236 E37.28832
G1 X13.056 Y16.786 E37.30620
G1 X1.517 Y5.247 E37.83631
G1 X1.014 Y5.297 E37.85273
G1 X13.054 Y17.336 E38.40584
G1 X13.051 Y17.887 E38.42371
G1 X0.511 Y5.346 E38.99982
G1 X0.008 Y5.396 E39.01624
G1 X13.049 Y18.437 E39.61535
G1 X13.047 Y18.987 E39.63322
G1 X-0.603 Y5.337 E40.26030
G1 X-1.216 Y5.277 E40.28031
G1 X13.044 Y19.537 E40.93544
G1 X13.042 Y20.087 E40.95331
G1 X-1.829 Y5.217 E41.63649
G1 X-2.442 Y5.156 E41.65649
G1 X13.040 Y20.638 E42.36772
G1 X13.037 Y21.188 E42.38559
G1 X-3.054 Y5.096 E43.12487
G1 X-3.667 Y5.035 E43.14487
G1 X13.035 Y21.738 E43.91220
G1 X10.884 Y22.902 F7800.000
G1 X13.021 Y25.039 E44.01039 F1080.000
G1 X13.024 Y24.489 E44.02826
G1 X10.250 Y21.715 E44.15570
G1 X11.311 Y23.881 F7800.000
G1 X13.019 Y25.589 E44.23416 F1080.000
G1 X13.017 Y26.139 E44.25203
G1 X11.552 Y24.675 E44.31933
G1 X11.792 Y25.468 E44.34626
G1 X13.014 Y26.690 E44.40240
G1 X13.012 Y27.240 E44.42027
G1 X11.913 Y26.141 E44.47074
G1 X11.974 Y26.754 E44.49075
G1 X13.010 Y27.790 E44.53834
G1 X13.007 Y28.340 E44.55621
G1 X12.034 Y27.367 E44.60092
G1 X12.095 Y27.980 E44.62093
G1 X13.005 Y28.890 E44.66276
G1 X13.003 Y29.441 E44.68063
G1 X12.066 Y28.504 E44.72367
G1 X12.016 Y29.007 E44.74009
G1 X13.000 Y29.991 E44.78529
G1 X12.998 Y30.541 E44.80317
G1 X11.967 Y29.510 E44.85054
G1 X11.917 Y30.013 E44.86696
G1 X12.996 Y31.091 E44.91651
G1 X12.994 Y31.641 E44.93438
G1 X11.859 Y30.507 E44.98651
G1 X11.730 Y30.931 E45.00090
G1 X12.991 Y32.192 E45.05883
G1 X12.989 Y32.742 E45.07670
G1 X11.602 Y31.354 E45.14043
G1 X11.473 Y31.778 E45.15482
G1 X12.987 Y33.292 E45.22435
G1 X12.984 Y33.842 E45.24223
G1 X11.344 Y32.202 E45.31756
G1 X11.216 Y32.626 E45.33195
G1 X12.982 Y34.392 E45.41308
G1 X12.980 Y34.942 E45.43096
G1 X11.039 Y33.002 E45.52011
G1 X10.847 Y33.362 E45.53337
G1 X12.977 Y35.493 E45.63126
G1 X12.975 Y36.043 E45.64913
G1 X10.654 Y33.722 E45.75576
G1 X10.462 Y34.082 E45.76902
G1 X12.973 Y36.593 E45.88438
G1 X12.970 Y37.143 E45.90225
G1 X10.269 Y34.442 E46.02635
G1 X10.077 Y34.802 E46.03961
G1 X12.968 Y37.693 E46.17244
G1 X12.966 Y38.244 E46.19031
G1 X9.831 Y35.109 E46.33433
G1 X9.582 Y35.412 E46.34708
G1 X12.963 Y38.794 E46.50243
G1 X12.961 Y39.344 E46.52030
G1 X9.333 Y35.716 E46.68699
G1 X9.084 Y36.019 E46.69974
G1 X12.959 Y39.894 E46.87776
G1 X12.957 Y40.444 E46.89564
G1 X8.835 Y36.323 E47.08499
G1 X8.586 Y36.626 E47.09775
G1 X12.954 Y40.995 E47.29844
G1 X12.952 Y41.545 E47.31631
G1 X8.288 Y36.881 E47.53058
G1 X7.984 Y37.130 E47.54333
G1 X12.503 Y41.648 E47.75091
G1 X11.950 Y41.648 E47.76886
G1 X7.681 Y37.379 E47.96499
G1 X7.377 Y37.628 E47.97774
G1 X11.398 Y41.648 E48.16244
G1 X10.845 Y41.648 E48.18038
G1 X7.074 Y37.877 E48.35364
G1 X6.771 Y38.126 E48.36639
G1 X10.293 Y41.648 E48.52820
G1 X9.740 Y41.648 E48.54615
G1 X6.419 Y38.327 E48.69873
G1 X6.059 Y38.519 E48.71200
G1 X9.188 Y41.648 E48.85574
G1 X8.635 Y41.648 E48.87369
G1 X5.699 Y38.712 E49.00859
G1 X5.339 Y38.904 E49.02186
G1 X8.083 Y41.648 E49.14792
G1 X7.530 Y41.648 E49.16587
G1 X4.979 Y39.097 E49.28309
G1 X4.616 Y39.286 E49.29638
G1 X6.978 Y41.648 E49.40488
G1 X6.425 Y41.648 E49.42283
G1 X4.192 Y39.415 E49.52541
G1 X3.768 Y39.544 E49.53980
G1 X5.873 Y41.648 E49.63648
G1 X5.320 Y41.648 E49.65443
G1 X3.344 Y39.672 E49.74520
