; generated by Slic3r 0.9.11-dev on 2013-09-22 at 09:36:30

; layer_height = .3
; perimeters = 1
; top_solid_layers = 2
; bottom_solid_layers = 2
; fill_density = 0.10
; perimeter_speed = 60
; infill_speed = 85
; travel_speed = 300
; nozzle_diameter = 0.35
; filament_diameter = 1.75
; extrusion_multiplier = 1
; perimeters extrusion width = 0.35mm
; infill extrusion width = 0.37mm
; solid infill extrusion width = 0.37mm
; top infill extrusion width = 0.37mm

G21 ; set units to millimeters
M107
G28
G92 X0 Y0 Z0 E0
G1 F5000 Y30 X30
G1 X220
G1 F100 E10
G28
G92 X0 Y0 Z0
G1 F4000 X101 Y127
G92 X0 Y0 Z0 E0
M106 S255
G90 ; use absolute coordinates
G92 E0
M82 ; use absolute distances for extrusion
G1 F600.000 E-0.70000
G1 Z0.400 F18000.000
G92 E0
G1 X43.790 Y-112.505 F18000.000
;AAA selfz = 0.4, lifted = .2
G1 Z0.200 F18000.000
G1 E0.70000 F600.000
G1 X43.790 Y112.505 E7.24838 F2880.000
G1 X43.690 Y112.755 E7.25622
G1 X43.440 Y112.855 E7.26405
G1 X-43.440 Y112.855 E9.79249
G1 X-43.690 Y112.755 E9.80032
G1 X-43.790 Y112.505 E9.80816
G1 X-43.790 Y-112.505 E16.35654
G1 X-43.690 Y-112.755 E16.36438
G1 X-43.440 Y-112.855 E16.37221
G1 X43.440 Y-112.855 E18.90065
G1 X43.690 Y-112.755 E18.90848
G1 X43.770 Y-112.553 E18.91479
G1 X44.786 Y-112.840 F18000.000
G1 X44.840 Y-112.563 E18.92301 F2880.000
G1 X44.840 Y112.564 E25.47479
G1 X44.786 Y112.841 E25.48301
G1 X44.618 Y113.261 E25.49618
G1 X44.520 Y113.410 E25.50135
G1 X44.344 Y113.586 E25.50862
G1 X44.195 Y113.684 E25.51379
G1 X43.775 Y113.852 E25.52696
G1 X43.498 Y113.905 E25.53518
G1 X-43.499 Y113.905 E28.06701
G1 X-43.776 Y113.852 E28.07523
G1 X-44.196 Y113.684 E28.08840
G1 X-44.345 Y113.586 E28.09357
G1 X-44.521 Y113.410 E28.10083
G1 X-44.619 Y113.261 E28.10601
G1 X-44.787 Y112.841 E28.11917
G1 X-44.840 Y112.564 E28.12740
G1 X-44.840 Y-112.563 E34.67917
G1 X-44.787 Y-112.840 E34.68739
G1 X-44.619 Y-113.260 E34.70056
G1 X-44.521 Y-113.409 E34.70573
G1 X-44.345 Y-113.585 E34.71300
G1 X-44.196 Y-113.683 E34.71817
G1 X-43.776 Y-113.851 E34.73134
G1 X-43.499 Y-113.905 E34.73956
G1 X43.004 Y-113.905 E37.25701
G1 X43.331 Y-114.029 E37.26719
G1 X43.610 Y-113.917 E37.27595
G1 X43.977 Y-113.905 E37.28663
G1 X44.192 Y-113.690 E37.29547
G1 X44.344 Y-113.585 E37.30084
G1 X44.520 Y-113.409 E37.30811
G1 X44.618 Y-113.260 E37.31328
G1 X44.767 Y-112.889 E37.32492
G1 X44.455 Y-112.726 F18000.000
G1 X44.490 Y-112.546 E37.33024 F2880.000
G1 X44.490 Y112.547 E43.88105
G1 X44.455 Y112.727 E43.88637
G1 X44.306 Y113.098 E43.89801
G1 X44.248 Y113.187 E43.90112
G1 X44.121 Y113.314 E43.90631
G1 X44.032 Y113.372 E43.90942
G1 X43.661 Y113.521 E43.92106
G1 X43.481 Y113.555 E43.92638
G1 X-43.482 Y113.555 E46.45725
G1 X-43.662 Y113.521 E46.46257
G1 X-44.033 Y113.372 E46.47422
G1 X-44.122 Y113.314 E46.47732
G1 X-44.249 Y113.187 E46.48251
G1 X-44.307 Y113.098 E46.48562
G1 X-44.456 Y112.727 E46.49726
G1 X-44.490 Y112.547 E46.50259
G1 X-44.490 Y-112.546 E53.05339
G1 X-44.456 Y-112.726 E53.05872
G1 X-44.307 Y-113.097 E53.07036
G1 X-44.249 Y-113.186 E53.07347
G1 X-44.122 Y-113.313 E53.07866
G1 X-44.033 Y-113.371 E53.08176
G1 X-43.662 Y-113.520 E53.09341
G1 X-43.482 Y-113.555 E53.09873
G1 X43.076 Y-113.555 E55.61779
G1 X43.335 Y-113.650 E55.62584
G1 X43.543 Y-113.567 E55.63235
G1 X43.832 Y-113.555 E55.64077
G1 X44.248 Y-113.186 E55.65693
G1 X44.306 Y-113.097 E55.66004
G1 X44.435 Y-112.775 E55.67015
G1 X44.124 Y-112.611 F18000.000
G1 X44.140 Y-112.530 E55.67258 F2880.000
G1 X44.140 Y112.530 E62.22241
G1 X44.124 Y112.612 E62.22483
G1 X43.995 Y112.935 E62.23496
G1 X43.899 Y113.041 E62.23911
G1 X43.546 Y113.190 E62.25025
G1 X43.465 Y113.205 E62.25267
G1 X-43.465 Y113.205 E64.78256
G1 X-43.547 Y113.190 E64.78498
G1 X-43.870 Y113.060 E64.79511
G1 X-43.976 Y112.965 E64.79926
G1 X-44.125 Y112.612 E64.81040
G1 X-44.140 Y112.530 E64.81282
G1 X-44.140 Y-112.530 E71.36266
G1 X-44.125 Y-112.611 E71.36508
G1 X-43.995 Y-112.934 E71.37521
G1 X-43.900 Y-113.040 E71.37935
G1 X-43.547 Y-113.189 E71.39049
G1 X-43.465 Y-113.205 E71.39291
G1 X43.147 Y-113.205 E73.91358
G1 X43.340 Y-113.271 E73.91950
G1 X43.541 Y-113.205 E73.92567
G1 X43.687 Y-113.205 E73.92993
G1 X43.781 Y-113.110 E73.93381
G1 X43.899 Y-113.040 E73.93780
G1 X43.995 Y-112.934 E73.94194
G1 X44.104 Y-112.660 E73.95054
G1 X43.265 Y-112.334 F18000.000
G1 X43.265 Y112.334 E80.48898 F2592.000
G1 X-43.265 Y112.334 E83.00726
G1 X-43.265 Y-112.334 E89.54570
G1 X43.213 Y-112.334 E92.06245
G1 F600.000 E91.36245
G1 Z0.400 F18000.000
G92 E0
G1 X36.097 Y-86.698 F18000.000
;AAA selfz = 0.4, lifted = .2
G1 Z0.200 F18000.000
G1 E0.70000 F600.000
G1 X36.097 Y86.698 E5.74630 F2592.000
G1 X-36.097 Y86.698 E7.84733
G1 X-36.097 Y-86.698 E12.89363
G1 X36.044 Y-86.698 E14.99313
G1 X36.335 Y-86.806 F18000.000
G1 X43.027 Y-80.115 E15.27981 F3840.000
G1 X43.027 Y-79.600 E15.29541
G1 X36.335 Y-86.291 E15.58209
G1 X36.335 Y-85.776 E15.59769
G1 X43.027 Y-79.084 E15.88437
G1 X43.027 Y-78.569 E15.89997
G1 X36.335 Y-85.261 E16.18665
G1 X36.335 Y-84.745 E16.20225
G1 X43.027 Y-78.054 E16.48893
G1 X43.027 Y-77.539 E16.50453
G1 X36.335 Y-84.230 E16.79121
G1 X36.335 Y-83.715 E16.80681
G1 X43.027 Y-77.024 E17.09349
G1 X43.027 Y-76.508 E17.10909
G1 X36.335 Y-83.200 E17.39577
G1 X36.335 Y-82.684 E17.41137
G1 X43.027 Y-75.993 E17.69805
G1 X43.027 Y-75.478 E17.71365
G1 X36.335 Y-82.169 E18.00033
G1 X36.335 Y-81.654 E18.01593
G1 X43.027 Y-74.963 E18.30261
G1 X43.027 Y-74.447 E18.31821
G1 X36.335 Y-81.139 E18.60489
G1 X36.335 Y-80.623 E18.62050
G1 X43.027 Y-73.932 E18.90717
G1 X43.027 Y-73.417 E18.92278
G1 X36.335 Y-80.108 E19.20945
G1 X36.335 Y-79.593 E19.22506
G1 X43.027 Y-72.902 E19.51173
G1 X43.027 Y-72.386 E19.52734
G1 X36.335 Y-79.078 E19.81401
G1 X36.335 Y-78.563 E19.82962
G1 X43.027 Y-71.871 E20.11629
G1 X43.027 Y-71.356 E20.13190
G1 X36.335 Y-78.047 E20.41857
G1 X36.335 Y-77.532 E20.43418
G1 X43.027 Y-70.841 E20.72085
G1 X43.027 Y-70.325 E20.73646
G1 X36.335 Y-77.017 E21.02313
G1 X36.335 Y-76.502 E21.03874
G1 X43.027 Y-69.810 E21.32541
G1 X43.027 Y-69.295 E21.34102
G1 X36.335 Y-75.986 E21.62769
G1 X36.335 Y-75.471 E21.64330
G1 X43.027 Y-68.780 E21.92997
G1 X43.027 Y-68.265 E21.94558
G1 X36.335 Y-74.956 E22.23225
G1 X36.335 Y-74.441 E22.24786
G1 X43.027 Y-67.749 E22.53453
G1 X43.027 Y-67.234 E22.55014
G1 X36.335 Y-73.925 E22.83681
G1 X36.335 Y-73.410 E22.85242
G1 X43.027 Y-66.719 E23.13909
G1 X43.027 Y-66.204 E23.15470
G1 X36.335 Y-72.895 E23.44137
G1 X36.335 Y-72.380 E23.45698
G1 X43.027 Y-65.688 E23.74365
G1 X43.027 Y-65.173 E23.75926
G1 X36.335 Y-71.864 E24.04593
G1 X36.335 Y-71.349 E24.06154
G1 X43.027 Y-64.658 E24.34821
G1 X43.027 Y-64.143 E24.36382
G1 X36.335 Y-70.834 E24.65049
G1 X36.335 Y-70.319 E24.66610
G1 X43.027 Y-63.627 E24.95277
G1 X43.027 Y-63.112 E24.96838
G1 X36.335 Y-69.803 E25.25505
G1 X36.335 Y-69.288 E25.27066
G1 X43.027 Y-62.597 E25.55733
G1 X43.027 Y-62.082 E25.57294
G1 X36.335 Y-68.773 E25.85961
G1 X36.335 Y-68.258 E25.87522
G1 X43.027 Y-61.566 E26.16189
G1 X43.027 Y-61.051 E26.17750
G1 X36.335 Y-67.743 E26.46417
G1 X36.335 Y-67.227 E26.47978
G1 X43.027 Y-60.536 E26.76645
G1 X43.027 Y-60.021 E26.78206
G1 X36.335 Y-66.712 E27.06873
G1 X36.335 Y-66.197 E27.08434
G1 X43.027 Y-59.505 E27.37101
G1 X43.027 Y-58.990 E27.38662
G1 X36.335 Y-65.682 E27.67329
G1 X36.335 Y-65.166 E27.68890
G1 X43.027 Y-58.475 E27.97557
G1 X43.027 Y-57.960 E27.99118
G1 X36.335 Y-64.651 E28.27785
G1 X36.335 Y-64.136 E28.29346
G1 X43.027 Y-57.445 E28.58013
G1 X43.027 Y-56.929 E28.59574
G1 X36.335 Y-63.621 E28.88241
G1 X36.335 Y-63.105 E28.89802
G1 X43.027 Y-56.414 E29.18469
G1 X43.027 Y-55.899 E29.20030
G1 X36.335 Y-62.590 E29.48697
G1 X36.335 Y-62.075 E29.50258
G1 X43.027 Y-55.384 E29.78925
G1 X43.027 Y-54.868 E29.80486
G1 X36.335 Y-61.560 E30.09153
G1 X36.335 Y-61.044 E30.10714
G1 X43.027 Y-54.353 E30.39381
G1 X43.027 Y-53.838 E30.40942
G1 X36.335 Y-60.529 E30.69609
G1 X36.335 Y-60.014 E30.71170
G1 X43.027 Y-53.323 E30.99837
G1 X43.027 Y-52.807 E31.01398
G1 X36.335 Y-59.499 E31.30065
G1 X36.335 Y-58.984 E31.31626
G1 X43.027 Y-52.292 E31.60293
G1 X43.027 Y-51.777 E31.61854
G1 X36.335 Y-58.468 E31.90521
G1 X36.335 Y-57.953 E31.92082
G1 X43.027 Y-51.262 E32.20749
G1 X43.027 Y-50.746 E32.22310
G1 X36.335 Y-57.438 E32.50977
G1 X36.335 Y-56.923 E32.52538
G1 X43.027 Y-50.231 E32.81205
G1 X43.027 Y-49.716 E32.82766
G1 X36.335 Y-56.407 E33.11433
G1 X36.335 Y-55.892 E33.12994
G1 X43.027 Y-49.201 E33.41661
G1 X43.027 Y-48.686 E33.43222
G1 X36.335 Y-55.377 E33.71889
G1 X36.335 Y-54.862 E33.73450
G1 X43.027 Y-48.170 E34.02117
G1 X43.027 Y-47.655 E34.03678
G1 X36.335 Y-54.346 E34.32345
G1 X36.335 Y-53.831 E34.33906
G1 X43.027 Y-47.140 E34.62573
G1 X43.027 Y-46.625 E34.64134
G1 X36.335 Y-53.316 E34.92801
G1 X36.335 Y-52.801 E34.94362
G1 X43.027 Y-46.109 E35.23029
G1 X43.027 Y-45.594 E35.24590
G1 X36.335 Y-52.285 E35.53257
G1 X36.335 Y-51.770 E35.54818
G1 X43.027 Y-45.079 E35.83485
G1 X43.027 Y-44.564 E35.85046
G1 X36.335 Y-51.255 E36.13713
G1 X36.335 Y-50.740 E36.15274
G1 X43.027 Y-44.048 E36.43941
G1 X43.027 Y-43.533 E36.45502
G1 X36.335 Y-50.225 E36.74169
G1 X36.335 Y-49.709 E36.75730
G1 X43.027 Y-43.018 E37.04397
G1 X43.027 Y-42.503 E37.05958
G1 X36.335 Y-49.194 E37.34625
G1 X36.335 Y-48.679 E37.36186
G1 X43.027 Y-41.987 E37.64853
G1 X43.027 Y-41.472 E37.66414
G1 X36.335 Y-48.164 E37.95081
G1 X36.335 Y-47.648 E37.96642
G1 X43.027 Y-40.957 E38.25309
G1 X43.027 Y-40.442 E38.26870
G1 X36.335 Y-47.133 E38.55537
G1 X36.335 Y-46.618 E38.57098
G1 X43.027 Y-39.926 E38.85765
G1 X43.027 Y-39.411 E38.87326
G1 X36.335 Y-46.103 E39.15993
G1 X36.335 Y-45.587 E39.17554
G1 X43.027 Y-38.896 E39.46221
G1 X43.027 Y-38.381 E39.47782
G1 X36.335 Y-45.072 E39.76449
G1 X36.335 Y-44.557 E39.78010
G1 X43.027 Y-37.866 E40.06677
G1 X43.027 Y-37.350 E40.08238
G1 X36.335 Y-44.042 E40.36905
G1 X36.335 Y-43.526 E40.38466
G1 X43.027 Y-36.835 E40.67133
G1 X43.027 Y-36.320 E40.68694
G1 X36.335 Y-43.011 E40.97361
G1 X36.335 Y-42.496 E40.98922
G1 X43.027 Y-35.805 E41.27589
G1 X43.027 Y-35.289 E41.29150
G1 X36.335 Y-41.981 E41.57817
G1 X36.335 Y-41.465 E41.59378
G1 X43.027 Y-34.774 E41.88045
G1 X43.027 Y-34.259 E41.89606
G1 X36.335 Y-40.950 E42.18273
G1 X36.335 Y-40.435 E42.19834
G1 X43.027 Y-33.744 E42.48501
G1 X43.027 Y-33.228 E42.50062
G1 X36.335 Y-39.920 E42.78729
G1 X36.335 Y-39.405 E42.80290
G1 X43.027 Y-32.713 E43.08957
G1 X43.027 Y-32.198 E43.10518
G1 X36.335 Y-38.889 E43.39185
G1 X36.335 Y-38.374 E43.40746
G1 X43.027 Y-31.683 E43.69413
G1 X43.027 Y-31.167 E43.70974
G1 X36.335 Y-37.859 E43.99641
G1 X36.335 Y-37.344 E44.01202
G1 X43.027 Y-30.652 E44.29869
G1 X43.027 Y-30.137 E44.31430
G1 X36.335 Y-36.828 E44.60097
G1 X36.335 Y-36.313 E44.61658
G1 X43.027 Y-29.622 E44.90325
G1 X43.027 Y-29.107 E44.91886
G1 X36.335 Y-35.798 E45.20553
G1 X36.335 Y-35.283 E45.22114
G1 X43.027 Y-28.591 E45.50781
G1 X43.027 Y-28.076 E45.52342
G1 X36.335 Y-34.767 E45.81009
G1 X36.335 Y-34.252 E45.82570
G1 X43.027 Y-27.561 E46.11237
G1 X43.027 Y-27.046 E46.12798
G1 X36.335 Y-33.737 E46.41465
G1 X36.335 Y-33.222 E46.43026
G1 X43.027 Y-26.530 E46.71693
G1 X43.027 Y-26.015 E46.73254
G1 X36.335 Y-32.706 E47.01921
G1 X36.335 Y-32.191 E47.03482
G1 X43.027 Y-25.500 E47.32149
G1 X43.027 Y-24.985 E47.33710
G1 X36.335 Y-31.676 E47.62377
G1 X36.335 Y-31.161 E47.63938
G1 X43.027 Y-24.469 E47.92605
G1 X43.027 Y-23.954 E47.94166
G1 X36.335 Y-30.646 E48.22833
G1 X36.335 Y-30.130 E48.24394
G1 X43.027 Y-23.439 E48.53061
G1 X43.027 Y-22.924 E48.54622
G1 X36.335 Y-29.615 E48.83289
G1 X36.335 Y-29.100 E48.84850
G1 X43.027 Y-22.408 E49.13517
G1 X43.027 Y-21.893 E49.15078
G1 X36.335 Y-28.585 E49.43745
G1 X36.335 Y-28.069 E49.45306
G1 X43.027 Y-21.378 E49.73973
G1 X43.027 Y-20.863 E49.75534
G1 X36.335 Y-27.554 E50.04201
G1 X36.335 Y-27.039 E50.05762
G1 X43.027 Y-20.347 E50.34429
G1 X43.027 Y-19.832 E50.35990
G1 X36.335 Y-26.524 E50.64657
G1 X36.335 Y-26.008 E50.66218
G1 X43.027 Y-19.317 E50.94885
G1 X43.027 Y-18.802 E50.96446
G1 X36.335 Y-25.493 E51.25113
G1 X36.335 Y-24.978 E51.26674
G1 X43.027 Y-18.287 E51.55341
G1 X43.027 Y-17.771 E51.56902
G1 X36.335 Y-24.463 E51.85569
G1 X36.335 Y-23.947 E51.87130
G1 X43.027 Y-17.256 E52.15797
G1 X43.027 Y-16.741 E52.17358
G1 X36.335 Y-23.432 E52.46025
G1 X36.335 Y-22.917 E52.47586
G1 X43.027 Y-16.226 E52.76253
G1 X43.027 Y-15.710 E52.77814
G1 X36.335 Y-22.402 E53.06481
G1 X36.335 Y-21.886 E53.08042
G1 X43.027 Y-15.195 E53.36709
G1 X43.027 Y-14.680 E53.38270
G1 X36.335 Y-21.371 E53.66937
G1 X36.335 Y-20.856 E53.68498
G1 X43.027 Y-14.165 E53.97165
G1 X43.027 Y-13.649 E53.98726
G1 X36.335 Y-20.341 E54.27393
G1 X36.335 Y-19.826 E54.28954
G1 X43.027 Y-13.134 E54.57621
G1 X43.027 Y-12.619 E54.59182
G1 X36.335 Y-19.310 E54.87849
G1 X36.335 Y-18.795 E54.89410
G1 X43.027 Y-12.104 E55.18077
G1 X43.027 Y-11.588 E55.19638
G1 X36.335 Y-18.280 E55.48305
G1 X36.335 Y-17.765 E55.49866
G1 X43.027 Y-11.073 E55.78533
G1 X43.027 Y-10.558 E55.80094
G1 X36.335 Y-17.249 E56.08761
G1 X36.335 Y-16.734 E56.10322
G1 X43.027 Y-10.043 E56.38989
G1 X43.027 Y-9.528 E56.40550
G1 X36.335 Y-16.219 E56.69217
G1 X36.335 Y-15.704 E56.70778
G1 X43.027 Y-9.012 E56.99445
G1 X43.027 Y-8.497 E57.01006
G1 X36.335 Y-15.188 E57.29673
G1 X36.335 Y-14.673 E57.31234
G1 X43.027 Y-7.982 E57.59901
G1 X43.027 Y-7.467 E57.61462
G1 X36.335 Y-14.158 E57.90129
G1 X36.335 Y-13.643 E57.91690
G1 X43.027 Y-6.951 E58.20357
G1 X43.027 Y-6.436 E58.21918
G1 X36.335 Y-13.127 E58.50585
G1 X36.335 Y-12.612 E58.52146
G1 X43.027 Y-5.921 E58.80813
G1 X43.027 Y-5.406 E58.82374
G1 X36.335 Y-12.097 E59.11041
G1 X36.335 Y-11.582 E59.12602
G1 X43.027 Y-4.890 E59.41269
G1 X43.027 Y-4.375 E59.42830
G1 X36.335 Y-11.067 E59.71497
G1 X36.335 Y-10.551 E59.73058
G1 X43.027 Y-3.860 E60.01725
G1 X43.027 Y-3.345 E60.03286
G1 X36.335 Y-10.036 E60.31953
G1 X36.335 Y-9.521 E60.33514
G1 X43.027 Y-2.829 E60.62181
G1 X43.027 Y-2.314 E60.63742
G1 X36.335 Y-9.006 E60.92409
G1 X36.335 Y-8.490 E60.93970
G1 X43.027 Y-1.799 E61.22637
G1 X43.027 Y-1.284 E61.24198
G1 X36.335 Y-7.975 E61.52865
G1 X36.335 Y-7.460 E61.54426
G1 X43.027 Y-0.769 E61.83093
G1 X43.027 Y-0.253 E61.84654
G1 X36.335 Y-6.945 E62.13321
G1 X36.335 Y-6.429 E62.14882
G1 X43.027 Y0.262 E62.43549
G1 X43.027 Y0.777 E62.45110
G1 X36.335 Y-5.914 E62.73777
G1 X36.335 Y-5.399 E62.75338
G1 X43.027 Y1.292 E63.04005
G1 X43.027 Y1.808 E63.05566
G1 X36.335 Y-4.884 E63.34233
G1 X36.335 Y-4.368 E63.35794
G1 X43.027 Y2.323 E63.64462
G1 X43.027 Y2.838 E63.66022
G1 X36.335 Y-3.853 E63.94690
G1 X36.335 Y-3.338 E63.96250
G1 X43.027 Y3.353 E64.24918
G1 X43.027 Y3.869 E64.26478
G1 X36.335 Y-2.823 E64.55146
G1 X36.335 Y-2.307 E64.56706
G1 X43.027 Y4.384 E64.85374
G1 X43.027 Y4.899 E64.86934
G1 X36.335 Y-1.792 E65.15602
G1 X36.335 Y-1.277 E65.17162
G1 X43.027 Y5.414 E65.45830
G1 X43.027 Y5.930 E65.47390
G1 X36.335 Y-0.762 E65.76058
G1 X36.335 Y-0.247 E65.77618
G1 X43.027 Y6.445 E66.06286
G1 X43.027 Y6.960 E66.07846
G1 X36.335 Y0.269 E66.36514
G1 X36.335 Y0.784 E66.38074
G1 X43.027 Y7.475 E66.66742
G1 X43.027 Y7.991 E66.68302
G1 X36.335 Y1.299 E66.96970
G1 X36.335 Y1.814 E66.98530
G1 X43.027 Y8.506 E67.27198
G1 X43.027 Y9.021 E67.28758
G1 X36.335 Y2.330 E67.57426
G1 X36.335 Y2.845 E67.58986
G1 X43.027 Y9.536 E67.87654
G1 X43.027 Y10.051 E67.89214
G1 X36.335 Y3.360 E68.17882
G1 X36.335 Y3.875 E68.19442
G1 X43.027 Y10.567 E68.48110
G1 X43.027 Y11.082 E68.49670
G1 X36.335 Y4.391 E68.78338
G1 X36.335 Y4.906 E68.79898
G1 X43.027 Y11.597 E69.08566
G1 X43.027 Y12.112 E69.10126
G1 X36.335 Y5.421 E69.38794
G1 X36.335 Y5.936 E69.40354
G1 X43.027 Y12.628 E69.69022
G1 X43.027 Y13.143 E69.70582
G1 X36.335 Y6.452 E69.99250
G1 X36.335 Y6.967 E70.00810
G1 X43.027 Y13.658 E70.29478
G1 X43.027 Y14.173 E70.31038
G1 X36.335 Y7.482 E70.59706
G1 X36.335 Y7.997 E70.61266
G1 X43.027 Y14.689 E70.89934
G1 X43.027 Y15.204 E70.91494
G1 X36.335 Y8.512 E71.20162
G1 X36.335 Y9.028 E71.21723
G1 X43.027 Y15.719 E71.50390
G1 X43.027 Y16.234 E71.51951
G1 X36.335 Y9.543 E71.80618
G1 X36.335 Y10.058 E71.82179
G1 X43.027 Y16.750 E72.10846
G1 X43.027 Y17.265 E72.12407
G1 X36.335 Y10.573 E72.41074
G1 X36.335 Y11.089 E72.42635
