; generated by Slic3r 1.2.0 on 2014-10-08 at 13:28:16

; external perimeters extrusion width = 0.35mm
; perimeters extrusion width = 0.40mm
; infill extrusion width = 0.40mm
; solid infill extrusion width = 0.40mm
; top infill extrusion width = 0.40mm

G21 ; set units to millimeters
M107
G28
G92 X0 Y0 Z0 E0
G1 F5000 Y30 X30
G1 X220
G1 F100 E10

G28
G92 X0 Y0 Z0
G1 F4000 X101 Y127
G92 X0 Y0 Z0 E0
G90 ; use absolute coordinates
G92 E0
M82 ; use absolute distances for extrusion
G1 F600.000 E-0.70000
G92 E0
G1 Z0.400 F5400.000
G1 X0.000 Y-27.848 F5400.000
G1 Z0.200 F5400.000
G1 E0.70000 F600.000
G1 X42.044 Y-27.848 E1.94834 F1800.000
G1 X43.929 Y-27.791 E2.00432 F1800.000
G1 X45.805 Y-27.650 E2.06020
G1 X47.667 Y-27.416 E2.11590
G1 X48.581 Y-27.264 E2.14342
G1 X49.481 Y-27.089 E2.17064
G1 X51.234 Y-26.672 E2.22413
G1 X52.920 Y-26.174 E2.27634
G1 X54.535 Y-25.597 E2.32725
G1 X56.073 Y-24.947 E2.37685
G1 X56.813 Y-24.594 E2.40117
G1 X57.531 Y-24.224 E2.42517
G1 X58.229 Y-23.837 E2.44886
G1 X58.905 Y-23.431 E2.47227
G1 X59.559 Y-23.007 E2.49541
G1 X60.191 Y-22.564 E2.51831
G1 X60.798 Y-22.102 E2.54097
G1 X61.381 Y-21.620 E2.56344
G1 X61.938 Y-21.118 E2.58571
G1 X62.469 Y-20.595 E2.60782
G1 X62.972 Y-20.054 E2.62976
G1 X63.446 Y-19.495 E2.65153
G1 X63.891 Y-18.919 E2.67314
G1 X64.307 Y-18.328 E2.69458
G1 X64.693 Y-17.725 E2.71584
G1 X65.051 Y-17.112 E2.73692
G1 X65.382 Y-16.489 E2.75786
G1 X65.705 Y-15.819 E2.77995
G1 X65.987 Y-15.180 E2.80069
G1 X66.474 Y-13.922 E2.84073
G1 X66.912 Y-12.591 E2.88234
G1 X67.125 Y-11.863 E2.90488
G1 X67.476 Y-10.522 E2.94602
G1 X67.796 Y-9.117 E2.98881
G1 X73.469 Y18.352 E3.82161
G1 X73.526 Y18.709 E3.83236
G1 X73.586 Y19.286 E3.84957
G1 X73.609 Y19.735 E3.86292
G1 X73.592 Y20.660 E3.89039
G1 X73.555 Y21.097 E3.90342
G1 X73.483 Y21.612 E3.91884
G1 X73.397 Y22.054 E3.93223
G1 X73.227 Y22.701 E3.95209
G1 X73.092 Y23.094 E3.96442
G1 X72.929 Y23.485 E3.97701
G1 X72.729 Y23.889 E3.99038
G1 X72.506 Y24.264 E4.00335
G1 X72.073 Y24.857 E4.02514
G1 X71.824 Y25.143 E4.03641
G1 X71.411 Y25.536 E4.05332
G1 X70.822 Y25.983 E4.07527
G1 X70.178 Y26.356 E4.09739
G1 X69.510 Y26.641 E4.11895
G1 X68.863 Y26.835 E4.13900
G1 X68.376 Y26.936 E4.15377
G1 X67.848 Y27.008 E4.16960
G1 X67.156 Y27.056 E4.19019
G1 X48.194 Y27.714 E4.75354
G1 X44.137 Y27.777 E4.87401
G1 X21.313 Y27.935 E5.55169
G1 X-21.339 Y27.935 E6.81809
G1 X-44.151 Y27.777 E7.49543
G1 X-47.179 Y27.736 E7.58533
G1 X-50.198 Y27.657 E7.67500
G1 X-67.248 Y27.052 E8.18157
G1 X-67.924 Y27.001 E8.20168
G1 X-68.709 Y26.871 E8.22530
G1 X-69.329 Y26.703 E8.24438
G1 X-70.029 Y26.428 E8.26672
G1 X-70.690 Y26.068 E8.28905
G1 X-71.294 Y25.634 E8.31113
G1 X-71.822 Y25.145 E8.33251
G1 X-72.081 Y24.847 E8.34424
G1 X-72.413 Y24.405 E8.36065
G1 X-72.732 Y23.884 E8.37879
G1 X-73.073 Y23.142 E8.40303
G1 X-73.197 Y22.792 E8.41406
G1 X-73.349 Y22.261 E8.43047
G1 X-73.517 Y21.393 E8.45670
G1 X-73.604 Y20.450 E8.48482
G1 X-73.601 Y19.525 E8.51230
G1 X-73.507 Y18.580 E8.54049
G1 X-67.783 Y-9.177 E9.38196
G1 X-67.457 Y-10.598 E9.42527
G1 X-67.086 Y-11.999 E9.46828
G1 X-66.665 Y-13.368 E9.51083
G1 X-66.181 Y-14.705 E9.55303
G1 X-65.617 Y-16.009 E9.59521
G1 X-65.070 Y-17.076 E9.63080
G1 X-64.588 Y-17.895 E9.65902
G1 X-64.190 Y-18.499 E9.68050
G1 X-63.765 Y-19.088 E9.70207
G1 X-63.311 Y-19.659 E9.72375
G1 X-62.829 Y-20.212 E9.74552
G1 X-61.968 Y-21.089 E9.78199
G1 X-61.230 Y-21.749 E9.81140
G1 X-60.649 Y-22.219 E9.83359
G1 X-60.045 Y-22.669 E9.85595
G1 X-59.418 Y-23.101 E9.87856
G1 X-58.768 Y-23.516 E9.90145
G1 X-58.051 Y-23.938 E9.92618
G1 X-56.685 Y-24.657 E9.97201
G1 X-55.189 Y-25.333 E10.02074
G1 X-53.613 Y-25.939 E10.07088
G1 X-51.962 Y-26.469 E10.12236
G1 X-50.241 Y-26.921 E10.17519
G1 X-49.356 Y-27.115 E10.20210
G1 X-48.455 Y-27.286 E10.22932
G1 X-47.540 Y-27.435 E10.25684
G1 X-45.691 Y-27.661 E10.31215
G1 X-43.824 Y-27.796 E10.36773
G1 X-41.959 Y-27.849 E10.42314
G1 X-0.052 Y-27.848 E11.66739
G1 X-0.052 Y-27.491 F5400.000
G1 X42.038 Y-27.491 E12.91710 F1800.000
G1 X43.907 Y-27.435 E12.97261 F1800.000
G1 X45.766 Y-27.295 E13.02798
G1 X47.609 Y-27.064 E13.08312
G1 X49.404 Y-26.740 E13.13728
G1 X51.138 Y-26.329 E13.19020
G1 X52.806 Y-25.836 E13.24183
G1 X54.401 Y-25.266 E13.29213
G1 X55.921 Y-24.624 E13.34111
G1 X57.359 Y-23.912 E13.38876
G1 X58.046 Y-23.530 E13.41211
G1 X58.712 Y-23.131 E13.43516
G1 X59.355 Y-22.714 E13.45792
G1 X59.976 Y-22.279 E13.48041
G1 X60.572 Y-21.826 E13.50265
G1 X61.144 Y-21.353 E13.52466
G1 X61.689 Y-20.862 E13.54648
G1 X62.209 Y-20.351 E13.56811
G1 X62.701 Y-19.821 E13.58957
G1 X63.165 Y-19.274 E13.61087
G1 X63.600 Y-18.711 E13.63200
G1 X64.007 Y-18.134 E13.65297
G1 X64.385 Y-17.544 E13.67378
G1 X64.736 Y-16.943 E13.69444
G1 X65.061 Y-16.332 E13.71498
G1 X65.379 Y-15.674 E13.73669
G1 X65.656 Y-15.045 E13.75709
G1 X66.136 Y-13.806 E13.79654
G1 X66.569 Y-12.490 E13.83767
G1 X66.780 Y-11.768 E13.86000
G1 X67.129 Y-10.440 E13.90077
G1 X67.446 Y-9.045 E13.94326
G1 X73.116 Y18.410 E14.77564
G1 X73.172 Y18.757 E14.78608
G1 X73.230 Y19.308 E14.80251
G1 X73.252 Y19.741 E14.81539
G1 X73.236 Y20.633 E14.84187
G1 X73.131 Y21.548 E14.86922
G1 X73.049 Y21.974 E14.88210
G1 X72.887 Y22.591 E14.90104
G1 X72.759 Y22.965 E14.91279
G1 X72.605 Y23.335 E14.92467
G1 X72.415 Y23.719 E14.93741
G1 X72.208 Y24.068 E14.94944
G1 X71.799 Y24.629 E14.97006
G1 X71.564 Y24.899 E14.98071
G1 X71.181 Y25.262 E14.99636
G1 X70.628 Y25.683 E15.01699
G1 X70.022 Y26.035 E15.03779
G1 X69.394 Y26.304 E15.05809
G1 X68.822 Y26.478 E15.07584
G1 X68.320 Y26.584 E15.09108
G1 X67.621 Y26.671 E15.11197
G1 X50.167 Y27.300 E15.63057
G1 X48.186 Y27.357 E15.68940
G1 X44.134 Y27.420 E15.80971
G1 X21.313 Y27.578 E16.48732
G1 X-21.337 Y27.578 E17.75366
G1 X-44.148 Y27.420 E18.43095
G1 X-47.171 Y27.379 E18.52073
G1 X-50.185 Y27.300 E18.61025
G1 X-67.229 Y26.696 E19.11661
G1 X-67.887 Y26.646 E19.13621
G1 X-68.627 Y26.523 E19.15849
G1 X-69.214 Y26.365 E19.17655
G1 X-69.874 Y26.106 E19.19759
G1 X-70.496 Y25.769 E19.21859
G1 X-71.064 Y25.361 E19.23936
G1 X-71.562 Y24.902 E19.25946
G1 X-71.807 Y24.619 E19.27057
G1 X-72.115 Y24.208 E19.28583
G1 X-72.418 Y23.715 E19.30301
G1 X-72.740 Y23.014 E19.32592
G1 X-72.857 Y22.682 E19.33637
G1 X-73.001 Y22.180 E19.35187
G1 X-73.163 Y21.346 E19.37709
G1 X-73.247 Y20.439 E19.40414
G1 X-73.244 Y19.547 E19.43063
G1 X-73.154 Y18.638 E19.45775
G1 X-67.434 Y-9.100 E20.29865
G1 X-67.111 Y-10.510 E20.34161
G1 X-66.744 Y-11.898 E20.38423
G1 X-66.327 Y-13.252 E20.42630
G1 X-65.850 Y-14.570 E20.46791
G1 X-65.296 Y-15.852 E20.50937
G1 X-64.756 Y-16.907 E20.54456
G1 X-64.289 Y-17.700 E20.57190
G1 X-63.900 Y-18.291 E20.59291
G1 X-63.483 Y-18.868 E20.61402
G1 X-63.040 Y-19.427 E20.63521
G1 X-62.569 Y-19.968 E20.65650
G1 X-61.719 Y-20.833 E20.69250
G1 X-61.004 Y-21.472 E20.72100
G1 X-60.434 Y-21.934 E20.74277
G1 X-59.842 Y-22.376 E20.76472
G1 X-59.225 Y-22.801 E20.78695
G1 X-58.585 Y-23.209 E20.80948
G1 X-57.878 Y-23.625 E20.83385
G1 X-56.532 Y-24.335 E20.87903
G1 X-55.056 Y-25.002 E20.92714
G1 X-53.498 Y-25.601 E20.97668
G1 X-51.866 Y-26.125 E21.02758
G1 X-50.164 Y-26.572 E21.07983
G1 X-49.288 Y-26.764 E21.10645
G1 X-47.492 Y-27.082 E21.16061
G1 X-45.661 Y-27.305 E21.21539
G1 X-43.810 Y-27.439 E21.27048
G1 X-41.959 Y-27.491 E21.32547
G1 X-0.105 Y-27.491 E22.56816
G1 F600.000 E21.86816
G92 E0
G1 Z0.400 F5400.000
G1 X18.448 Y-13.667 F5400.000
G1 Z0.200 F5400.000
G1 E0.70000 F600.000
G1 X19.231 Y-14.653 E0.73738 F720.000
G1 X19.827 Y-15.289 E0.76326
G1 X20.136 Y-15.583 E0.77592
G1 X20.785 Y-16.129 E0.80111
G1 X21.129 Y-16.385 E0.81384
G1 X21.865 Y-16.871 E0.84003
G1 X22.261 Y-17.104 E0.85367
G1 X23.119 Y-17.558 E0.88249
G1 X24.598 Y-18.235 E0.93079
G1 X26.306 Y-18.906 E0.98526
G1 X27.556 Y-19.340 E1.02454
G1 X29.575 Y-19.953 E1.08722
G1 X31.005 Y-20.327 E1.13110
G1 X32.491 Y-20.666 E1.17635
G1 X33.252 Y-20.820 E1.19940
G1 X34.804 Y-21.093 E1.24619
G1 X36.387 Y-21.315 E1.29367
G1 X37.187 Y-21.406 E1.31757
G1 X38.796 Y-21.548 E1.36553
G1 X40.408 Y-21.632 E1.41344
G1 X41.211 Y-21.651 E1.43730
G1 X42.742 Y-21.645 E1.48275
G1 X44.374 Y-21.572 E1.53126 F720.000
G1 X45.906 Y-21.432 E1.57692
G1 X46.654 Y-21.336 E1.59932
G1 X48.109 Y-21.091 E1.64312
G1 X48.869 Y-20.930 E1.66622
G1 X50.175 Y-20.599 E1.70621
G1 X51.469 Y-20.196 E1.74643
G1 X52.088 Y-19.974 E1.76597
G1 X53.269 Y-19.490 E1.80385
G1 X54.368 Y-18.960 E1.84009
G1 X54.885 Y-18.678 E1.85757
G1 X55.852 Y-18.085 E1.89124
G1 X56.723 Y-17.456 E1.92315
G1 X57.124 Y-17.129 E1.93851
G1 X57.858 Y-16.444 E1.96832
G1 X58.510 Y-15.716 E1.99735
G1 X58.808 Y-15.334 E2.01174
G1 X59.352 Y-14.531 E2.04053
G1 X59.835 Y-13.673 E2.06975
G1 X60.056 Y-13.223 E2.08466
G1 X60.462 Y-12.273 E2.11531
G1 X60.828 Y-11.257 E2.14738
G1 X61.317 Y-9.607 E2.19849
G1 X61.605 Y-8.444 E2.23406
G1 X61.863 Y-7.252 E2.27027
G1 X62.091 Y-6.047 E2.30667
G1 X62.379 Y-4.256 E2.36054
G1 X62.535 Y-3.097 E2.39526
G1 X62.714 Y-1.455 E2.44430
G1 X62.829 Y0.059 E2.48939
G1 X62.869 Y1.058 E2.51907
G1 X62.870 Y2.422 E2.55958
G1 X62.831 Y3.352 E2.58720
G1 X62.760 Y4.294 E2.61524
G1 X62.656 Y5.261 E2.64414
G1 X62.519 Y6.269 E2.67433
G1 X62.254 Y7.847 E2.72186
G1 X61.927 Y9.456 E2.77059
G1 X61.680 Y10.516 E2.80291
G1 X61.414 Y11.547 E2.83453
G1 X61.132 Y12.532 E2.86494
G1 X60.836 Y13.453 E2.89368
G1 X60.530 Y14.295 E2.92028
G1 X60.207 Y15.056 E2.94481
G1 X59.850 Y15.744 E2.96784
G1 X59.443 Y16.369 E2.98999
G1 X59.216 Y16.660 E3.00094
G1 X58.730 Y17.180 E3.02207
G1 X58.420 Y17.459 E3.03446
G1 X58.110 Y17.704 E3.04617
G1 X57.416 Y18.167 E3.07095
G1 X56.609 Y18.605 E3.09821
G1 X55.675 Y19.026 E3.12864
G1 X55.114 Y19.246 E3.14651
G1 X54.027 Y19.621 E3.18068
G1 X52.760 Y19.989 E3.21984
G1 X51.355 Y20.328 E3.26273
G1 X49.810 Y20.634 E3.30950
G1 X48.985 Y20.773 E3.33435
G1 X47.227 Y21.022 E3.38708
G1 X46.293 Y21.130 E3.41499
G1 X44.548 Y21.292 E3.46701
G1 X43.275 Y21.383 E3.50493
G1 X41.115 Y21.494 E3.56912
G1 X39.460 Y21.546 E3.61830
G1 X37.748 Y21.578 E3.66913
G1 X35.472 Y21.585 E3.73672
G1 X33.207 Y21.554 E3.80399
G1 X30.975 Y21.485 E3.87029
G1 X28.754 Y21.370 E3.93631
G1 X27.543 Y21.281 E3.97235
G1 X26.205 Y21.140 E4.01230
G1 X25.198 Y21.007 E4.04245
G1 X24.074 Y20.830 E4.07625
G1 X22.888 Y20.614 E4.11206
G1 X21.607 Y20.350 E4.15088
G1 X19.838 Y19.944 E4.20478
G1 X18.706 Y19.652 E4.23947
G1 X17.606 Y19.330 E4.27350
G1 X16.557 Y18.969 E4.30645
G1 X16.064 Y18.768 E4.32225
G1 X15.144 Y18.334 E4.35246
G1 X14.714 Y18.099 E4.36701
G1 X14.303 Y17.853 E4.38123
G1 X13.535 Y17.329 E4.40883
G1 X12.879 Y16.806 E4.43372
G1 X12.503 Y16.473 E4.44867
G1 X12.186 Y16.171 E4.46167
G1 X11.588 Y15.545 E4.48737
G1 X11.046 Y14.915 E4.51204
G1 X10.474 Y14.187 E4.53954
G1 X10.632 Y13.934 E4.54838
G1 X10.689 Y13.744 E4.55428
G1 X10.726 Y13.469 E4.56252
G1 X10.718 Y13.014 E4.57604
G1 X10.600 Y12.125 E4.60266
G1 X10.357 Y10.829 E4.64182
G1 X10.214 Y9.940 E4.66854
G1 X10.130 Y9.201 E4.69061
G1 X10.078 Y8.110 E4.72306
G1 X10.088 Y7.382 E4.74467
G1 X10.137 Y6.645 E4.76662
G1 X10.223 Y5.888 E4.78922
G1 X10.421 Y4.698 E4.82505
G1 X10.632 Y3.712 E4.85497
G1 X10.937 Y2.494 E4.89226
G1 X11.208 Y1.530 E4.92201
G1 X11.621 Y0.204 E4.96324
G1 X12.055 Y-1.057 E5.00282
G1 X12.465 Y-2.150 E5.03748
G1 X12.910 Y-3.273 E5.07337
G1 X13.397 Y-4.423 E5.11042
G1 X13.922 Y-5.593 E5.14851
G1 X14.766 Y-7.360 E5.20664
G1 X15.355 Y-8.522 E5.24534
G1 X15.957 Y-9.654 E5.28340
G1 X16.566 Y-10.738 E5.32033
G1 X17.175 Y-11.760 E5.35564
G1 X17.776 Y-12.704 E5.38885
G1 X18.416 Y-13.625 E5.42218
G1 F600.000 E4.72218
G92 E0
G1 Z0.400 F5400.000
G1 X42.891 Y-21.962 F5400.000
G1 X-12.255 Y-1.599 F5400.000
G1 Z0.200 F5400.000
G1 E0.70000 F600.000
G1 X-11.866 Y-0.522 E0.73402 F720.000
G1 X-11.517 Y0.523 E0.76671
G1 X-10.937 Y2.494 E0.82773
G1 X-10.632 Y3.712 E0.86502
G1 X-10.421 Y4.698 E0.89494
G1 X-10.280 Y5.500 E0.91912
G1 X-10.175 Y6.269 E0.94218
G1 X-10.108 Y7.016 E0.96442
G1 X-10.078 Y7.747 E0.98615
G1 X-10.087 Y8.473 E1.00772
G1 X-10.130 Y9.201 E1.02938
G1 X-10.270 Y10.317 E1.06278
G1 X-10.652 Y12.445 E1.12696
G1 X-10.730 Y13.255 E1.15111
G1 X-10.712 Y13.613 E1.16177
G1 X-10.674 Y13.810 E1.16772
G1 X-10.632 Y13.934 E1.17161
G1 X-10.480 Y14.177 E1.18011
G1 X-11.311 Y15.222 E1.21977
G1 X-11.886 Y15.861 E1.24527
G1 X-12.505 Y16.473 E1.27112
G1 X-13.178 Y17.053 E1.29750
G1 X-13.911 Y17.596 E1.32459
G1 X-14.714 Y18.099 E1.35273
G1 X-15.144 Y18.334 E1.36727
G1 X-16.064 Y18.768 E1.39748
G1 X-17.073 Y19.156 E1.42957
G1 X-18.150 Y19.496 E1.46311
G1 X-19.268 Y19.801 E1.49751
G1 X-20.414 Y20.083 E1.53254
G1 X-22.233 Y20.482 E1.58785
G1 X-23.584 Y20.745 E1.62871
G1 X-24.969 Y20.973 E1.67039
G1 X-26.205 Y21.140 E1.70743
G1 X-27.486 Y21.277 E1.74567
G1 X-28.754 Y21.370 E1.78343
G1 X-32.085 Y21.524 E1.88243
G1 X-35.472 Y21.585 E1.98301
G1 X-38.882 Y21.560 E2.08425
G1 X-42.207 Y21.444 E2.18304
G1 X-43.571 Y21.363 E2.22361
G1 X-45.323 Y21.226 E2.27578
G1 X-46.293 Y21.130 E2.30473
G1 X-48.124 Y20.903 E2.35952
G1 X-48.985 Y20.773 E2.38538
G1 X-50.601 Y20.485 E2.43411
G1 X-51.355 Y20.328 E2.45699
G1 X-52.760 Y19.989 E2.49988
G1 X-53.981 Y19.635 E2.53764
G1 X-54.609 Y19.428 E2.55727
G1 X-55.632 Y19.043 E2.58973
G1 X-56.158 Y18.817 E2.60671
G1 X-57.027 Y18.389 E2.63549
G1 X-57.776 Y17.939 E2.66143
G1 X-58.138 Y17.682 E2.67461
G1 X-58.706 Y17.204 E2.69664
G1 X-58.993 Y16.913 E2.70879
G1 X-59.443 Y16.369 E2.72973
G1 X-59.653 Y16.064 E2.74074
G1 X-60.034 Y15.408 E2.76325
G1 X-60.372 Y14.685 E2.78696
G1 X-60.684 Y13.885 E2.81245
G1 X-60.985 Y13.001 E2.84018
G1 X-61.286 Y12.006 E2.87105
G1 X-61.680 Y10.516 E2.91681
G1 X-61.927 Y9.456 E2.94914
G1 X-62.254 Y7.847 E2.99787
G1 X-62.438 Y6.788 E3.02979
G1 X-62.656 Y5.261 E3.07559
G1 X-62.760 Y4.294 E3.10448
G1 X-62.831 Y3.352 E3.13252
G1 X-62.869 Y2.422 E3.16014
G1 X-62.876 Y1.491 E3.18780
G1 X-62.852 Y0.543 E3.21594
G1 X-62.798 Y-0.434 E3.24500
G1 X-62.714 Y-1.455 E3.27543
G1 X-62.460 Y-3.671 E3.34166
G1 X-62.290 Y-4.848 E3.37696
G1 X-62.091 Y-6.047 E3.41306
G1 X-61.863 Y-7.252 E3.44945
G1 X-61.605 Y-8.444 E3.48567
G1 X-61.317 Y-9.607 E3.52123
G1 X-60.998 Y-10.722 E3.55568
G1 X-60.649 Y-11.774 E3.58859
G1 X-60.462 Y-12.273 E3.60443
G1 X-60.056 Y-13.223 E3.63507
G1 X-59.835 Y-13.673 E3.64998
G1 X-59.352 Y-14.531 E3.67920
G1 X-58.808 Y-15.334 E3.70799
G1 X-58.194 Y-16.086 E3.73683
G1 X-57.501 Y-16.792 E3.76618
G1 X-57.124 Y-17.129 E3.78122
G1 X-56.300 Y-17.775 E3.81231
G1 X-55.380 Y-18.386 E3.84510
G1 X-54.368 Y-18.960 E3.87964
G1 X-53.269 Y-19.490 E3.91587
G1 X-52.688 Y-19.738 E3.93461
G1 X-51.469 Y-20.196 E3.97329
G1 X-50.175 Y-20.599 E4.01351
G1 X-48.814 Y-20.943 E4.05522
G1 X-47.388 Y-21.222 E4.09833
G1 X-45.906 Y-21.432 E4.14280
G1 X-45.145 Y-21.511 E4.16550
G1 X-43.594 Y-21.616 E4.21167
G1 X-41.947 Y-21.655 E4.26058
G1 X-40.408 Y-21.632 E4.30628 F720.000
G1 X-39.602 Y-21.597 E4.33022
G1 X-37.991 Y-21.484 E4.37819
G1 X-36.387 Y-21.315 E4.42606
G1 X-35.593 Y-21.210 E4.44986
G1 X-34.023 Y-20.963 E4.49703
G1 X-32.491 Y-20.666 E4.54338
G1 X-31.005 Y-20.327 E4.58862
G1 X-29.575 Y-19.953 E4.63250
G1 X-28.211 Y-19.550 E4.67475
G1 X-26.920 Y-19.125 E4.71510
G1 X-25.713 Y-18.684 E4.75325
G1 X-24.598 Y-18.235 E4.78894
G1 X-23.119 Y-17.558 E4.83724
G1 X-22.261 Y-17.104 E4.86606
G1 X-21.488 Y-16.632 E4.89295
G1 X-20.785 Y-16.129 E4.91862
G1 X-20.454 Y-15.862 E4.93123
G1 X-19.827 Y-15.289 E4.95646
G1 X-19.231 Y-14.653 E4.98234
G1 X-18.941 Y-14.307 E4.99576
G1 X-18.362 Y-13.553 E5.02397
G1 X-17.775 Y-12.704 E5.05462
G1 X-17.174 Y-11.760 E5.08783
G1 X-16.566 Y-10.738 E5.12314
G1 X-15.957 Y-9.654 E5.16007
G1 X-15.355 Y-8.522 E5.19813
G1 X-14.479 Y-6.772 E5.25625
G1 X-13.922 Y-5.593 E5.29496
G1 X-13.264 Y-4.115 E5.34299
G1 X-12.682 Y-2.708 E5.38819
G1 X-12.274 Y-1.648 E5.42192
G1 F600.000 E4.72192
G92 E0
G1 Z0.400 F5400.000
G1 X-42.057 Y-21.987 F5400.000
G1 X-23.584 Y22.267 F5400.000
G1 Z0.200 F5400.000
G1 E0.70000 F600.000
G1 X-26.738 Y22.183 E0.79367 F900.000
G1 X-26.749 Y21.916 E0.80162
G1 X-25.923 Y21.824 E0.82629
G1 X-24.234 Y21.581 E0.87697
G1 X-22.089 Y21.182 E0.94175
G1 X-19.669 Y20.638 E1.01540
G1 X-18.520 Y20.342 E1.05064
G1 X-17.394 Y20.012 E1.08546
G1 X-16.300 Y19.635 E1.11980
G1 X-15.290 Y19.204 E1.15241
