; generated by Slic3r 1.2.0 on 2014-08-17 at 16:57:27

; external perimeters extrusion width = 0.35mm
; perimeters extrusion width = 0.48mm
; infill extrusion width = 0.48mm
; solid infill extrusion width = 0.48mm
; top infill extrusion width = 0.48mm

G21 ; set units to millimeters
M107
G28
G92 X0 Y0 Z0 E0
G1 F5000 Y30 X30
G1 X220
G1 F100 E10

G28
G92 X0 Y0 Z0
G1 F4000 X101 Y127
G92 X0 Y0 Z0 E0
G90 ; use absolute coordinates
G92 E0
M82 ; use absolute distances for extrusion
G1 F600.000 E-0.70000
G1 Z0.400 F5400.000
G92 E0
G1 X19.714 Y-0.000 F5400.000
G1 Z0.200 F5400.000
G1 E0.70000 F600.000
G1 X19.714 Y32.000 E1.65012 F1800.000
G1 X19.318 Y33.891 E1.70747
G1 X18.198 Y35.464 E1.76483
G1 X16.540 Y36.456 E1.82218
G1 X15.000 Y36.714 E1.86854
G1 X-15.000 Y36.714 E2.75928
G1 X-16.891 Y36.318 E2.81664
G1 X-18.464 Y35.198 E2.87399
G1 X-19.456 Y33.540 E2.93134
G1 X-19.714 Y32.000 E2.97770
G1 X-19.714 Y-32.000 E4.87795
G1 X-19.318 Y-33.891 E4.93530
G1 X-18.198 Y-35.464 E4.99265
G1 X-16.540 Y-36.456 E5.05001
G1 X-15.000 Y-36.714 E5.09637
G1 X15.000 Y-36.714 E5.98711
G1 X16.891 Y-36.318 E6.04446
G1 X18.464 Y-35.198 E6.10181 F1800.000
G1 X19.456 Y-33.540 E6.15917
G1 X19.714 Y-32.000 E6.20553
G1 X19.714 Y-0.053 E7.15409
G1 X19.357 Y-0.053 F5400.000
G1 X19.357 Y32.000 E8.10577 F1800.000
G1 X18.962 Y33.814 E8.16088
G1 X17.847 Y35.298 E8.21600
G1 X16.216 Y36.184 E8.27111
G1 X15.000 Y36.357 E8.30758
G1 X-15.000 Y36.357 E9.19832
G1 X-16.814 Y35.962 E9.25344
G1 X-18.298 Y34.847 E9.30855
G1 X-19.184 Y33.216 E9.36366
G1 X-19.357 Y32.000 E9.40013
G1 X-19.357 Y-32.000 E11.30037
G1 X-18.962 Y-33.814 E11.35549
G1 X-17.847 Y-35.298 E11.41060
G1 X-16.216 Y-36.184 E11.46572
G1 X-15.000 Y-36.357 E11.50218
G1 X15.000 Y-36.357 E12.39292
G1 X16.814 Y-35.962 E12.44804
G1 X18.298 Y-34.847 E12.50315 F1800.000
G1 X19.184 Y-33.216 E12.55827
G1 X19.357 Y-32.000 E12.59473
G1 X19.357 Y-0.105 E13.54174
G1 F600.000 E12.84174
G1 Z0.400 F5400.000
G92 E0
G1 X10.980 Y-23.635 F5400.000
G1 Z0.200 F5400.000
G1 E0.70000 F600.000
G1 X10.499 Y-23.489 E0.71490 F900.000
G1 X10.000 Y-23.440 E0.72980
G1 X9.501 Y-23.489 E0.74470
G1 X9.020 Y-23.635 E0.75960
G1 X8.578 Y-23.872 E0.77450
G1 X8.190 Y-24.190 E0.78940
G1 X7.872 Y-24.578 E0.80429
G1 X7.635 Y-25.020 E0.81919
G1 X7.489 Y-25.501 E0.83409
G1 X7.440 Y-26.000 E0.84899
G1 X7.483 Y-26.432 E0.86187
G1 X7.635 Y-26.980 E0.87876
G1 X7.872 Y-27.422 E0.89366
G1 X8.190 Y-27.810 E0.90856
G1 X8.578 Y-28.128 E0.92345
G1 X9.020 Y-28.365 E0.93835
G1 X9.501 Y-28.511 E0.95325
G1 X10.000 Y-28.560 E0.96815
G1 X10.432 Y-28.517 E0.98103
G1 X10.980 Y-28.365 E0.99792 F900.000
G1 X11.422 Y-28.128 E1.01282
G1 X11.810 Y-27.810 E1.02771
G1 X12.128 Y-27.422 E1.04261
G1 X12.365 Y-26.980 E1.05751
G1 X12.511 Y-26.499 E1.07241
G1 X12.560 Y-26.000 E1.08731
G1 X12.511 Y-25.501 E1.10221
G1 X12.365 Y-25.020 E1.11711
G1 X12.128 Y-24.578 E1.13201
G1 X11.810 Y-24.190 E1.14691
G1 X11.422 Y-23.872 E1.16181
G1 X11.026 Y-23.660 E1.17515
G1 X10.858 Y-23.975 F5400.000
G1 X10.429 Y-23.841 E1.18846 F720.000
G1 X10.000 Y-23.799 E1.20127
G1 X9.571 Y-23.841 E1.21408
G1 X9.158 Y-23.967 E1.22690
G1 X8.777 Y-24.170 E1.23971
G1 X8.444 Y-24.444 E1.25252
G1 X8.170 Y-24.777 E1.26533
G1 X7.982 Y-25.129 E1.27717
G1 X7.841 Y-25.571 E1.29093
G1 X7.799 Y-26.000 E1.30374
G1 X7.841 Y-26.429 E1.31655
G1 X7.967 Y-26.842 E1.32936
G1 X8.170 Y-27.223 E1.34217
G1 X8.444 Y-27.556 E1.35499
G1 X8.777 Y-27.830 E1.36780
G1 X9.158 Y-28.033 E1.38061
G1 X9.571 Y-28.159 E1.39342
G1 X9.967 Y-28.198 E1.40526
G1 X10.429 Y-28.159 E1.41902 F720.000
G1 X10.842 Y-28.033 E1.43183
G1 X11.223 Y-27.830 E1.44464
G1 X11.556 Y-27.556 E1.45745
G1 X11.830 Y-27.223 E1.47027
G1 X12.033 Y-26.842 E1.48308
G1 X12.159 Y-26.429 E1.49589
G1 X12.201 Y-26.000 E1.50870
G1 X12.159 Y-25.571 E1.52151
G1 X12.033 Y-25.158 E1.53432
G1 X11.830 Y-24.777 E1.54713
G1 X11.556 Y-24.444 E1.55994
G1 X11.223 Y-24.170 E1.57275
G1 X10.904 Y-23.999 E1.58349
G1 F600.000 E0.88349
G1 Z0.400 F5400.000
G92 E0
G1 X9.952 Y-28.547 F5400.000
G1 X-7.489 Y-26.499 F5400.000
G1 Z0.200 F5400.000
G1 E0.70000 F600.000
G1 X-7.440 Y-26.000 E0.71490 F900.000
G1 X-7.489 Y-25.501 E0.72980
G1 X-7.635 Y-25.020 E0.74470
G1 X-7.872 Y-24.578 E0.75960
G1 X-8.190 Y-24.190 E0.77450
G1 X-8.578 Y-23.872 E0.78939
G1 X-9.020 Y-23.635 E0.80429
G1 X-9.501 Y-23.489 E0.81919
G1 X-10.000 Y-23.440 E0.83409
G1 X-10.499 Y-23.489 E0.84899
G1 X-10.980 Y-23.635 E0.86389
G1 X-11.422 Y-23.872 E0.87879
G1 X-11.810 Y-24.190 E0.89369
G1 X-12.128 Y-24.578 E0.90859
G1 X-12.365 Y-25.020 E0.92349
G1 X-12.511 Y-25.501 E0.93839
G1 X-12.553 Y-26.068 E0.95527
G1 X-12.511 Y-26.499 E0.96815
G1 X-12.365 Y-26.980 E0.98305
G1 X-12.128 Y-27.422 E0.99795
G1 X-11.810 Y-27.810 E1.01285
G1 X-11.422 Y-28.128 E1.02775
G1 X-10.980 Y-28.365 E1.04265
G1 X-10.499 Y-28.511 E1.05755
G1 X-9.932 Y-28.553 E1.07443
G1 X-9.501 Y-28.511 E1.08731 F900.000
G1 X-9.020 Y-28.365 E1.10221
G1 X-8.578 Y-28.128 E1.11711
G1 X-8.190 Y-27.810 E1.13201
G1 X-7.872 Y-27.422 E1.14691
G1 X-7.635 Y-26.980 E1.16181
G1 X-7.505 Y-26.550 E1.17515
G1 X-7.846 Y-26.446 F5400.000
G1 X-7.799 Y-26.000 E1.18846 F720.000
G1 X-7.841 Y-25.571 E1.20127
G1 X-7.967 Y-25.158 E1.21408
G1 X-8.170 Y-24.777 E1.22690
G1 X-8.444 Y-24.444 E1.23971
G1 X-8.777 Y-24.170 E1.25252
G1 X-9.158 Y-23.967 E1.26533
G1 X-9.571 Y-23.841 E1.27814
G1 X-10.000 Y-23.799 E1.29095
G1 X-10.429 Y-23.841 E1.30376
G1 X-10.842 Y-23.967 E1.31657
G1 X-11.223 Y-24.170 E1.32938
G1 X-11.556 Y-24.444 E1.34219
G1 X-11.830 Y-24.777 E1.35500
G1 X-12.033 Y-25.158 E1.36781
G1 X-12.159 Y-25.571 E1.38062
G1 X-12.201 Y-26.000 E1.39343
G1 X-12.159 Y-26.429 E1.40625
G1 X-12.018 Y-26.871 E1.42001
G1 X-11.830 Y-27.223 E1.43185
G1 X-11.556 Y-27.556 E1.44466
G1 X-11.223 Y-27.830 E1.45747
G1 X-10.842 Y-28.033 E1.47028
G1 X-10.397 Y-28.162 E1.48405
G1 X-10.000 Y-28.201 E1.49589 F720.000
G1 X-9.571 Y-28.159 E1.50870
G1 X-9.158 Y-28.033 E1.52151
G1 X-8.777 Y-27.830 E1.53432
G1 X-8.444 Y-27.556 E1.54713
G1 X-8.170 Y-27.223 E1.55994
G1 X-7.967 Y-26.842 E1.57275
G1 X-7.862 Y-26.496 E1.58349
G1 F600.000 E0.88349
G1 Z0.400 F5400.000
G92 E0
G1 X-10.541 Y-28.481 F5400.000
G1 X-10.000 Y23.440 F5400.000
G1 Z0.200 F5400.000
G1 E0.70000 F600.000
G1 X-9.568 Y23.483 E0.71288 F900.000
G1 X-9.020 Y23.635 E0.72976 F900.000
G1 X-8.578 Y23.872 E0.74466
G1 X-8.190 Y24.190 E0.75956
G1 X-7.872 Y24.578 E0.77446
G1 X-7.635 Y25.020 E0.78936
G1 X-7.489 Y25.501 E0.80426
G1 X-7.440 Y26.000 E0.81916
G1 X-7.489 Y26.499 E0.83406
G1 X-7.635 Y26.980 E0.84896
G1 X-7.872 Y27.422 E0.86386
G1 X-8.190 Y27.810 E0.87876
G1 X-8.578 Y28.128 E0.89365
G1 X-9.020 Y28.365 E0.90855
G1 X-9.501 Y28.511 E0.92345
G1 X-10.000 Y28.560 E0.93835
G1 X-10.499 Y28.511 E0.95325
G1 X-10.980 Y28.365 E0.96815
G1 X-11.422 Y28.128 E0.98305
G1 X-11.810 Y27.810 E0.99795
G1 X-12.128 Y27.422 E1.01285
G1 X-12.365 Y26.980 E1.02775
G1 X-12.511 Y26.499 E1.04265
G1 X-12.560 Y26.000 E1.05755
G1 X-12.511 Y25.501 E1.07245
G1 X-12.365 Y25.020 E1.08734
G1 X-12.128 Y24.578 E1.10224
G1 X-11.810 Y24.190 E1.11714
G1 X-11.422 Y23.872 E1.13204
G1 X-10.980 Y23.635 E1.14694
G1 X-10.499 Y23.489 E1.16184
G1 X-10.052 Y23.445 E1.17518
G1 X-10.017 Y23.801 F5400.000
G1 X-9.571 Y23.841 E1.18850 F720.000
G1 X-9.158 Y23.967 E1.20131
G1 X-8.777 Y24.170 E1.21412
G1 X-8.444 Y24.444 E1.22693
G1 X-8.170 Y24.777 E1.23974
G1 X-7.967 Y25.158 E1.25255
G1 X-7.841 Y25.571 E1.26536
G1 X-7.799 Y26.000 E1.27817
G1 X-7.841 Y26.429 E1.29098
G1 X-7.967 Y26.842 E1.30379
G1 X-8.170 Y27.223 E1.31661
G1 X-8.444 Y27.556 E1.32942
G1 X-8.777 Y27.830 E1.34223
G1 X-9.158 Y28.033 E1.35504
G1 X-9.571 Y28.159 E1.36785
G1 X-9.967 Y28.198 E1.37969
G1 X-10.429 Y28.159 E1.39345
G1 X-10.842 Y28.033 E1.40626
G1 X-11.223 Y27.830 E1.41907
G1 X-11.556 Y27.556 E1.43188
G1 X-11.830 Y27.223 E1.44470
G1 X-12.033 Y26.842 E1.45751
G1 X-12.159 Y26.429 E1.47032
G1 X-12.201 Y26.000 E1.48313
G1 X-12.159 Y25.571 E1.49594
G1 X-12.033 Y25.158 E1.50875
G1 X-11.830 Y24.777 E1.52156
G1 X-11.556 Y24.444 E1.53437
G1 X-11.223 Y24.170 E1.54718
G1 X-10.842 Y23.967 E1.55999
G1 X-10.429 Y23.841 E1.57280
G1 X-10.070 Y23.806 E1.58354
G1 X-9.834 Y23.503 F5400.000
G1 X7.489 Y25.501 F5400.000
G1 X7.635 Y25.020 E1.59844 F900.000
G1 X7.872 Y24.578 E1.61334
G1 X8.190 Y24.190 E1.62824
G1 X8.578 Y23.872 E1.64314
G1 X9.020 Y23.635 E1.65804
G1 X9.501 Y23.489 E1.67294
G1 X10.068 Y23.447 E1.68982
G1 X10.499 Y23.489 E1.70270 F900.000
G1 X10.980 Y23.635 E1.71760
G1 X11.422 Y23.872 E1.73250
G1 X11.810 Y24.190 E1.74740
G1 X12.128 Y24.578 E1.76230
G1 X12.295 Y24.889 E1.77277
G1 X12.365 Y25.020 E1.77720
G1 X12.511 Y25.501 E1.79210
G1 X12.560 Y26.000 E1.80700
G1 X12.511 Y26.499 E1.82189
G1 X12.365 Y26.980 E1.83679
G1 X12.128 Y27.422 E1.85169
G1 X11.810 Y27.810 E1.86659
G1 X11.422 Y28.128 E1.88149
G1 X10.980 Y28.365 E1.89639
G1 X10.499 Y28.511 E1.91129
G1 X10.000 Y28.560 E1.92619
G1 X9.436 Y28.491 E1.94307
G1 X9.020 Y28.365 E1.95595
G1 X8.578 Y28.128 E1.97085
G1 X8.190 Y27.810 E1.98575
G1 X7.872 Y27.422 E2.00065
G1 X7.635 Y26.980 E2.01555
G1 X7.489 Y26.499 E2.03045
G1 X7.440 Y26.000 E2.04535
G1 X7.484 Y25.553 E2.05869
G1 X7.840 Y25.588 F5400.000
G1 X7.967 Y25.158 E2.07200 F720.000
G1 X8.170 Y24.777 E2.08481
G1 X8.444 Y24.444 E2.09763
G1 X8.777 Y24.170 E2.11044
G1 X9.158 Y23.967 E2.12325
G1 X9.603 Y23.838 E2.13701
G1 X10.000 Y23.799 E2.14885 F720.000
G1 X10.429 Y23.841 E2.16166
G1 X10.842 Y23.967 E2.17447
G1 X11.223 Y24.170 E2.18728
G1 X11.556 Y24.444 E2.20009
G1 X11.830 Y24.777 E2.21291
G1 X12.033 Y25.158 E2.22572
G1 X12.159 Y25.571 E2.23853
G1 X12.201 Y26.000 E2.25134
G1 X12.159 Y26.429 E2.26415
G1 X12.033 Y26.842 E2.27696
G1 X11.830 Y27.223 E2.28977
G1 X11.556 Y27.556 E2.30258
G1 X11.223 Y27.830 E2.31539
G1 X10.842 Y28.033 E2.32820
G1 X10.429 Y28.159 E2.34101
G1 X10.000 Y28.201 E2.35382
G1 X9.571 Y28.159 E2.36663
G1 X9.158 Y28.033 E2.37945
G1 X8.777 Y27.830 E2.39226
G1 X8.444 Y27.556 E2.40507
G1 X8.170 Y27.223 E2.41788
G1 X7.967 Y26.842 E2.43069
G1 X7.841 Y26.429 E2.44350
G1 X7.799 Y26.000 E2.45631
G1 X7.834 Y25.640 E2.46705
G1 F600.000 E1.76705
G1 Z0.400 F5400.000
G92 E0
G1 X9.661 Y23.493 F5400.000
G1 X-14.443 Y7.293 F5400.000
G1 Z0.200 F5400.000
G1 E0.70000 F600.000
G1 X-14.443 Y-31.443 E1.85011 F900.000
G1 X-14.000 Y-31.443 E1.86326
G1 X14.443 Y-31.443 E2.70776 F900.000
G1 X14.443 Y31.443 E4.57493
G1 X-14.443 Y31.443 E5.43258
G1 X-14.443 Y7.345 E6.14808
G1 X-14.800 Y7.345 F5400.000
G1 X-14.800 Y-31.800 E7.31035 F720.000
G1 X14.800 Y-31.800 E8.18921
G1 X14.800 Y29.867 E10.02017
G1 X14.800 Y31.800 E10.07757 F720.000
G1 X-14.800 Y31.800 E10.95644
G1 X-14.800 Y7.398 E11.68098
G1 F600.000 E10.98098
G1 Z0.400 F5400.000
G92 E0
G1 X14.632 Y30.173 F5400.000
G1 X14.204 Y26.623 F5400.000
G1 Z0.200 F5400.000
G1 E0.70000 F600.000
G1 X12.620 Y25.040 E0.76650 F1800.000
G1 X12.770 Y25.696 E0.78649
G1 X14.204 Y27.130 E0.84671
G1 X14.204 Y27.637 E0.86176
G1 X12.779 Y26.212 E0.92161
G1 X12.713 Y26.653 E0.93486
G1 X14.204 Y28.144 E0.99745
G1 X14.204 Y28.651 E1.01250
G1 X12.595 Y27.042 E1.08004
G1 X12.423 Y27.377 E1.09122
G1 X14.204 Y29.158 E1.16599
G1 X14.204 Y29.665 E1.18104
G1 X12.223 Y27.684 E1.26423
G1 X11.994 Y27.962 E1.27492
G1 X14.204 Y30.172 E1.36771
G1 X14.204 Y30.679 E1.38276
G1 X11.719 Y28.194 E1.48710
G1 X11.419 Y28.401 E1.49792
G1 X14.193 Y31.175 E1.61440
G1 X13.716 Y31.204 E1.62861
G1 X11.089 Y28.577 E1.73891
G1 X10.703 Y28.698 E1.75091
G1 X13.209 Y31.204 E1.85612
G1 X12.702 Y31.204 E1.87117
G1 X10.271 Y28.773 E1.97325
G1 X9.768 Y28.777 E1.98819
G1 X12.195 Y31.204 E2.09010
G1 X11.688 Y31.204 E2.10515
G1 X9.133 Y28.649 E2.21245
G1 X7.351 Y26.867 F5400.000
G1 X-14.204 Y5.312 E3.11756 F1800.000
G1 X-14.204 Y4.805 E3.13261
G1 X7.223 Y26.232 E4.03234
G1 X7.227 Y25.729 E4.04727
G1 X-14.204 Y4.298 E4.94715
G1 X-14.204 Y3.791 E4.96221
G1 X7.302 Y25.297 E5.86523
G1 X7.423 Y24.911 E5.87723
G1 X-14.204 Y3.284 E6.78534
G1 X-14.204 Y2.777 E6.80039
G1 X7.599 Y24.581 E7.71591
G1 X7.806 Y24.281 E7.72673
G1 X-14.204 Y2.270 E8.65094
G1 X-14.204 Y1.763 E8.66599
G1 X8.038 Y24.006 E9.59994
G1 X8.316 Y23.777 E9.61063
G1 X-14.204 Y1.257 E10.55626
G1 X-14.204 Y0.750 E10.57131
G1 X8.623 Y23.577 E11.52982
G1 X8.958 Y23.405 E11.54099
G1 X-14.204 Y0.243 E12.51355
G1 X-14.204 Y-0.264 E12.52861
G1 X9.354 Y23.294 E13.51782
G1 X9.788 Y23.221 E13.53088
G1 X-14.204 Y-0.771 E14.53831
G1 X-14.204 Y-1.278 E14.55336
G1 X10.304 Y23.230 E15.58245
G1 X10.960 Y23.380 E15.60244
G1 X-14.204 Y-1.785 E16.65909
G1 X-14.204 Y-2.292 E16.67414
G1 X14.204 Y26.116 E17.86699
G1 X14.204 Y25.609 E17.88205
G1 X-14.204 Y-2.799 E19.07490
G1 X-14.204 Y-3.306 E19.08995
G1 X14.204 Y25.103 E20.28280
G1 X14.204 Y24.596 E20.29785
G1 X-14.204 Y-3.812 E21.49071
G1 X-14.204 Y-4.319 E21.50576
G1 X14.204 Y24.089 E22.69861
G1 X14.204 Y23.582 E22.71366
G1 X-14.204 Y-4.826 E23.90651
G1 X-14.204 Y-5.333 E23.92156
G1 X14.204 Y23.075 E25.11442
G1 X14.204 Y22.568 E25.12947
G1 X-14.204 Y-5.840 E26.32232
G1 X-14.204 Y-6.347 E26.33737
G1 X14.204 Y22.061 E27.53022
G1 X14.204 Y21.554 E27.54527
G1 X-14.204 Y-6.854 E28.73813
G1 X-14.204 Y-7.361 E28.75318
G1 X14.204 Y21.047 E29.94603
G1 X14.204 Y20.540 E29.96108
G1 X-14.204 Y-7.868 E31.15393
G1 X-14.204 Y-8.375 E31.16898
G1 X14.204 Y20.033 E32.36184
G1 X14.204 Y19.527 E32.37689
G1 X-14.204 Y-8.882 E33.56974
G1 X-14.204 Y-9.388 E33.58479
G1 X14.204 Y19.020 E34.77764
G1 X14.204 Y18.513 E34.79270
G1 X-14.204 Y-9.895 E35.98555
G1 X-14.204 Y-10.402 E36.00060
G1 X14.204 Y18.006 E37.19345
G1 X14.204 Y17.499 E37.20850
G1 X-14.204 Y-10.909 E38.40136
G1 X-14.204 Y-11.416 E38.41641
G1 X14.204 Y16.992 E39.60926
G1 X14.204 Y16.485 E39.62431
G1 X-14.204 Y-11.923 E40.81716
G1 X-14.204 Y-12.430 E40.83221
G1 X14.204 Y15.978 E42.02507
G1 X14.204 Y15.471 E42.04012
G1 X-14.204 Y-12.937 E43.23297
G1 X-14.204 Y-13.444 E43.24802
G1 X14.204 Y14.964 E44.44087
G1 X14.204 Y14.458 E44.45592
G1 X-14.204 Y-13.951 E45.64878
G1 X-14.204 Y-14.458 E45.66383
G1 X14.204 Y13.951 E46.85668
G1 X14.204 Y13.444 E46.87173
G1 X-14.204 Y-14.964 E48.06458
G1 X-14.204 Y-15.471 E48.07963
G1 X14.204 Y12.937 E49.27249
G1 X14.204 Y12.430 E49.28754
G1 X-14.204 Y-15.978 E50.48039
G1 X-14.204 Y-16.485 E50.49544
G1 X14.204 Y11.923 E51.68829
G1 X14.204 Y11.416 E51.70334
G1 X-14.204 Y-16.992 E52.89620
G1 X-14.204 Y-17.499 E52.91125
G1 X14.204 Y10.909 E54.10410
G1 X14.204 Y10.402 E54.11915
G1 X-14.204 Y-18.006 E55.31201
G1 X-14.204 Y-18.513 E55.32706
G1 X14.204 Y9.895 E56.51991
G1 X14.204 Y9.388 E56.53496
G1 X-14.204 Y-19.020 E57.72781
G1 X-14.204 Y-19.527 E57.74286
G1 X14.204 Y8.882 E58.93572
G1 X14.204 Y8.375 E58.95077
G1 X-14.204 Y-20.034 E60.14362
G1 X-14.204 Y-20.540 E60.15867
G1 X14.204 Y7.868 E61.35152
G1 X14.204 Y7.361 E61.36657
G1 X-14.204 Y-21.047 E62.55943
G1 X-14.204 Y-21.554 E62.57448
G1 X14.204 Y6.854 E63.76733
G1 X14.204 Y6.347 E63.78238
G1 X-14.204 Y-22.061 E64.97523
G1 X-14.204 Y-22.568 E64.99028
G1 X14.204 Y5.840 E66.18314
G1 X14.204 Y5.333 E66.19819
G1 X-14.204 Y-23.075 E67.39104
G1 X-14.204 Y-23.582 E67.40609
G1 X14.204 Y4.826 E68.59894
G1 X14.204 Y4.319 E68.61400
G1 X-14.204 Y-24.089 E69.80685
G1 X-14.204 Y-24.596 E69.82190
G1 X14.204 Y3.812 E71.01475
G1 X14.204 Y3.306 E71.02980
G1 X-14.204 Y-25.103 E72.22266
G1 X-14.204 Y-25.609 E72.23771
G1 X14.204 Y2.799 E73.43056
G1 X14.204 Y2.292 E73.44561
G1 X-14.204 Y-26.116 E74.63846
G1 X-12.620 Y-25.040 F5400.000
G1 X-14.204 Y-26.623 E74.70496 F1800.000
G1 X-14.204 Y-27.130 E74.72001
G1 X-12.770 Y-25.696 E74.78024
G1 X-12.779 Y-26.212 E74.79556
G1 X-14.204 Y-27.637 E74.85540
G1 X-14.204 Y-28.144 E74.87045
G1 X-12.713 Y-26.653 E74.93304
G1 X-12.596 Y-27.042 E74.94511
G1 X-14.204 Y-28.651 E75.01265
G1 X-14.204 Y-29.158 E75.02770
G1 X-12.423 Y-27.377 E75.10248
G1 X-12.223 Y-27.684 E75.11335
G1 X-14.204 Y-29.665 E75.19654
G1 X-14.204 Y-30.172 E75.21159
G1 X-11.994 Y-27.962 E75.30437
G1 X-11.719 Y-28.194 E75.31506
G1 X-14.204 Y-30.679 E75.41940
G1 X-14.193 Y-31.175 E75.43413
G1 X-11.419 Y-28.401 E75.55061
G1 X-11.089 Y-28.577 E75.56174
G1 X-13.716 Y-31.204 E75.67203
G1 X-13.209 Y-31.204 E75.68708
G1 X-10.696 Y-28.692 E75.79258
G1 X-10.271 Y-28.773 E75.80544
G1 X-12.702 Y-31.204 E75.90752
