; generated by Slic3r 0.9.11-dev on 2013-09-08 at 16:05:15

; layer_height = 0.2
; perimeters = 3
; top_solid_layers = 3
; bottom_solid_layers = 2
; fill_density = 0.20
; perimeter_speed = 60
; infill_speed = 80
; travel_speed = 300
; nozzle_diameter = 0.35
; filament_diameter = 1.75
; extrusion_multiplier = 1
; perimeters extrusion width = 0.35mm
; infill extrusion width = 0.52mm
; solid infill extrusion width = 0.52mm
; top infill extrusion width = 0.52mm

G21 ; set units to millimeters
M107
G28
G92 X0 Y0 Z0 E0
G1 F5000 Y30 X30
G1 X220
G1 F100 E10
G28
G92 X0 Y0 Z0
G1 F4000 X101 Y127
G92 X0 Y0 Z0 E0
M106 S255
G90 ; use absolute coordinates
G92 E0
M82 ; use absolute distances for extrusion
G1 F600.000 E-0.70000
G1 Z0.400 F18000.000
G92 E0
G1 X15.350 Y31.990 F18000.000
;AAA selfz = 0.4, lifted = .2
G1 Z0.200 F18000.000
G1 E0.70000 F600.000
G1 X15.250 Y32.240 E0.70784 F3600.000
G1 X15.000 Y32.340 E0.71567
G1 X-15.000 Y32.340 E1.58875
G1 X-15.250 Y32.240 E1.59659
G1 X-15.350 Y31.990 E1.60442
G1 X-15.350 Y-32.000 E3.46670
G1 X-15.250 Y-32.250 E3.47454
G1 X-15.000 Y-32.350 E3.48237
G1 X15.000 Y-32.350 E4.35545
G1 X15.250 Y-32.250 E4.36329
G1 X15.350 Y-32.000 E4.37112
G1 X15.350 Y31.938 E6.23187
G1 X16.400 Y32.048 F18000.000
G1 X16.347 Y32.326 E6.24009 F3600.000
G1 X16.179 Y32.746 E6.25326
G1 X16.081 Y32.894 E6.25843
G1 X15.904 Y33.071 E6.26570
G1 X15.756 Y33.169 E6.27087
G1 X15.336 Y33.337 E6.28404
G1 X15.058 Y33.390 E6.29226
G1 X-15.058 Y33.390 E7.16873
G1 X-15.336 Y33.337 E7.17696
G1 X-15.756 Y33.169 E7.19012
G1 X-15.904 Y33.071 E7.19529
G1 X-16.081 Y32.894 E7.20256
G1 X-16.179 Y32.746 E7.20773
G1 X-16.347 Y32.326 E7.22090
G1 X-16.400 Y32.048 E7.22912
G1 X-16.400 Y-32.058 E9.09479
G1 X-16.347 Y-32.336 E9.10301
G1 X-16.179 Y-32.756 E9.11618
G1 X-16.081 Y-32.904 E9.12135
G1 X-15.904 Y-33.081 E9.12862
G1 X-15.756 Y-33.179 E9.13379
G1 X-15.336 Y-33.347 E9.14696
G1 X-15.058 Y-33.400 E9.15518
G1 X14.564 Y-33.400 E10.01727
G1 X14.891 Y-33.524 E10.02745
G1 X15.171 Y-33.413 E10.03621
G1 X15.537 Y-33.400 E10.04690
G1 X15.752 Y-33.185 E10.05573
G1 X15.904 Y-33.081 E10.06110
G1 X16.081 Y-32.904 E10.06837
G1 X16.179 Y-32.756 E10.07354
G1 X16.347 Y-32.336 E10.08671
G1 X16.400 Y-32.058 E10.09493
G1 X16.400 Y31.996 E11.95907
G1 X16.050 Y32.032 F18000.000
G1 X16.015 Y32.211 E11.96440 F3600.000
G1 X15.867 Y32.583 E11.97604
G1 X15.808 Y32.672 E11.97915
G1 X15.682 Y32.798 E11.98434
G1 X15.593 Y32.857 E11.98744
G1 X15.221 Y33.005 E11.99909
G1 X15.042 Y33.040 E12.00441
G1 X-15.042 Y33.040 E12.87992
G1 X-15.221 Y33.005 E12.88524
G1 X-15.593 Y32.857 E12.89689
G1 X-15.682 Y32.798 E12.89999
G1 X-15.808 Y32.672 E12.90519
G1 X-15.867 Y32.583 E12.90829
G1 X-16.015 Y32.211 E12.91994
G1 X-16.050 Y32.032 E12.92526
G1 X-16.050 Y-32.042 E14.78996
G1 X-16.015 Y-32.221 E14.79528
G1 X-15.867 Y-32.593 E14.80693
G1 X-15.808 Y-32.682 E14.81003
G1 X-15.682 Y-32.808 E14.81523
G1 X-15.593 Y-32.867 E14.81833
G1 X-15.221 Y-33.015 E14.82998
G1 X-15.042 Y-33.050 E14.83530
G1 X14.636 Y-33.050 E15.69900
G1 X14.896 Y-33.146 E15.70705
G1 X15.103 Y-33.063 E15.71356
G1 X15.392 Y-33.050 E15.72198
G1 X15.530 Y-32.913 E15.72764
G1 X15.682 Y-32.808 E15.73301
G1 X15.808 Y-32.682 E15.73820
G1 X15.867 Y-32.593 E15.74131
G1 X16.015 Y-32.221 E15.75295
G1 X16.050 Y-32.042 E15.75828
G1 X16.050 Y31.979 E17.62145
G1 X15.700 Y32.015 F18000.000
G1 X15.684 Y32.097 E17.62387 F3600.000
G1 X15.535 Y32.450 E17.63502
G1 X15.430 Y32.545 E17.63916
G1 X15.107 Y32.674 E17.64929
G1 X15.025 Y32.690 E17.65171
G1 X-15.025 Y32.690 E18.52624
G1 X-15.107 Y32.674 E18.52867
G1 X-15.430 Y32.545 E18.53879
G1 X-15.555 Y32.420 E18.54395
G1 X-15.684 Y32.097 E18.55407
G1 X-15.700 Y32.015 E18.55649
G1 X-15.700 Y-32.025 E20.42023
G1 X-15.684 Y-32.107 E20.42265
G1 X-15.555 Y-32.430 E20.43278
G1 X-15.430 Y-32.555 E20.43793
G1 X-15.107 Y-32.684 E20.44806
G1 X-15.025 Y-32.700 E20.45048
G1 X14.708 Y-32.700 E21.31578
G1 X14.900 Y-32.767 E21.32171
G1 X15.101 Y-32.700 E21.32788
G1 X15.247 Y-32.700 E21.33213
G1 X15.342 Y-32.606 E21.33602
G1 X15.459 Y-32.535 E21.34000
G1 X15.555 Y-32.430 E21.34415
G1 X15.684 Y-32.107 E21.35427
G1 X15.700 Y-32.025 E21.35670
G1 X15.700 Y31.963 E23.21890
G1 X15.000 Y31.785 F18000.000
G1 X14.795 Y31.990 E23.22734 F3600.000
G1 X-14.795 Y31.990 E24.08848
G1 X-15.000 Y31.785 E24.09692
G1 X-15.000 Y-31.795 E25.94727
G1 X-14.795 Y-32.000 E25.95570
G1 X14.795 Y-32.000 E26.81685
G1 X15.000 Y-31.795 E26.82529
G1 X15.000 Y31.732 E28.67410
G1 X14.650 Y31.435 F18000.000
G1 X14.445 Y31.640 E28.68254 F3600.000
G1 X-14.445 Y31.640 E29.52331
G1 X-14.650 Y31.435 E29.53175
G1 X-14.650 Y-31.445 E31.36172
G1 X-14.445 Y-31.650 E31.37016
G1 X14.445 Y-31.650 E32.21093
G1 X14.650 Y-31.445 E32.21937
G1 X14.650 Y31.382 E34.04782
G1 X14.300 Y31.085 F18000.000
G1 X14.095 Y31.290 E34.05625 F3600.000
G1 X-14.095 Y31.290 E34.87666
G1 X-14.300 Y31.085 E34.88509
G1 X-14.300 Y-31.095 E36.69469
G1 X-14.095 Y-31.300 E36.70313
G1 X14.095 Y-31.300 E37.52353
G1 X14.300 Y-31.095 E37.53197
G1 X14.300 Y31.032 E39.34004
G1 X14.825 Y31.825 F18000.000
G1 X-14.825 Y31.825 E40.20294 F3600.000
G1 X-14.825 Y-31.825 E42.05532
G1 X14.825 Y-31.825 E42.91821
G1 X14.825 Y31.772 E44.76906
G1 X14.522 Y31.650 F18000.000
G1 X14.475 Y31.475 F18000.000
G1 X-14.475 Y31.475 E45.61158 F3600.000
G1 X-14.475 Y-31.475 E47.44359
G1 X14.475 Y-31.475 E48.28611
G1 X14.475 Y31.422 E50.11659
G1 X14.125 Y31.125 F18000.000
G1 X-14.125 Y31.125 E50.93874 F3600.000
G1 X-14.125 Y-31.125 E52.75038
G1 X14.125 Y-31.125 E53.57253
G1 X14.125 Y31.072 E55.38264
G1 F600.000 E54.68264
G1 Z0.400 F18000.000
G92 E0
G1 X-7.866 Y26.424 F18000.000
;AAA selfz = 0.4, lifted = .2
G1 Z0.200 F18000.000
G1 E0.70000 F600.000
G1 X-7.990 Y26.833 E0.71241 F2160.000
G1 X-8.191 Y27.209 E0.72483
G1 X-8.461 Y27.539 E0.73724
G1 X-8.791 Y27.809 E0.74965
G1 X-9.167 Y28.010 E0.76207
G1 X-9.576 Y28.134 E0.77448
G1 X-10.000 Y28.176 E0.78689
G1 X-10.424 Y28.134 E0.79931
G1 X-10.833 Y28.010 E0.81172
G1 X-11.209 Y27.809 E0.82413
G1 X-11.539 Y27.539 E0.83655
G1 X-11.809 Y27.209 E0.84896
G1 X-12.010 Y26.833 E0.86137
G1 X-12.134 Y26.424 E0.87379
G1 X-12.176 Y26.000 E0.88620
G1 X-12.134 Y25.576 E0.89862
G1 X-12.010 Y25.167 E0.91103
G1 X-11.809 Y24.791 E0.92344
G1 X-11.539 Y24.461 E0.93586
G1 X-11.209 Y24.191 E0.94827
G1 X-10.833 Y23.990 E0.96068
G1 X-10.424 Y23.866 E0.97310
G1 X-10.000 Y23.824 E0.98551
G1 X-9.576 Y23.866 E0.99792
G1 X-9.167 Y23.990 E1.01034
G1 X-8.791 Y24.191 E1.02275
G1 X-8.461 Y24.461 E1.03516
G1 X-8.191 Y24.791 E1.04758
G1 X-7.990 Y25.167 E1.05999
G1 X-7.866 Y25.576 E1.07240
G1 X-7.824 Y26.000 E1.08482
G1 X-7.861 Y26.372 E1.09570
G1 X-7.611 Y26.664 F18000.000
G1 X-7.521 Y26.493 F18000.000
G1 X-7.665 Y26.967 E1.11012 F2160.000
G1 X-7.898 Y27.404 E1.12454
G1 X-8.213 Y27.787 E1.13896
G1 X-8.596 Y28.102 E1.15338
G1 X-9.033 Y28.335 E1.16780
G1 X-9.507 Y28.479 E1.18222
G1 X-10.000 Y28.528 E1.19664
G1 X-10.493 Y28.479 E1.21106
G1 X-10.967 Y28.335 E1.22548
G1 X-11.404 Y28.102 E1.23990
G1 X-11.787 Y27.787 E1.25432
G1 X-12.102 Y27.404 E1.26874
G1 X-12.335 Y26.967 E1.28316
G1 X-12.479 Y26.493 E1.29758
G1 X-12.528 Y26.000 E1.31200
G1 X-12.479 Y25.507 E1.32642
G1 X-12.335 Y25.033 E1.34084
G1 X-12.102 Y24.596 E1.35526
G1 X-11.787 Y24.213 E1.36968
G1 X-11.404 Y23.898 E1.38410
G1 X-10.967 Y23.665 E1.39852
G1 X-10.493 Y23.521 E1.41294
G1 X-10.000 Y23.472 E1.42736
G1 X-9.507 Y23.521 E1.44178
G1 X-9.033 Y23.665 E1.45620
G1 X-8.596 Y23.898 E1.47062
G1 X-8.213 Y24.213 E1.48504
G1 X-7.898 Y24.596 E1.49946
G1 X-7.665 Y25.033 E1.51388
G1 X-7.521 Y25.507 E1.52830
G1 X-7.472 Y26.000 E1.54272
G1 X-7.516 Y26.441 E1.55561
G1 X-7.166 Y26.463 F18000.000
G1 X-7.176 Y26.562 E1.55850 F2160.000
G1 X-7.340 Y27.102 E1.57493
G1 X-7.606 Y27.600 E1.59135
G1 X-7.964 Y28.036 E1.60778
G1 X-8.400 Y28.394 E1.62421
G1 X-8.898 Y28.660 E1.64063
G1 X-9.438 Y28.824 E1.65706
G1 X-10.000 Y28.879 E1.67348
G1 X-10.562 Y28.824 E1.68991
G1 X-11.102 Y28.660 E1.70634
G1 X-11.600 Y28.394 E1.72276
G1 X-12.036 Y28.036 E1.73919
G1 X-12.394 Y27.600 E1.75562
G1 X-12.660 Y27.102 E1.77204
G1 X-12.824 Y26.562 E1.78847
G1 X-12.879 Y26.000 E1.80490
G1 X-12.824 Y25.438 E1.82132
G1 X-12.660 Y24.898 E1.83775
G1 X-12.394 Y24.400 E1.85417
G1 X-12.036 Y23.964 E1.87060
G1 X-11.600 Y23.606 E1.88703
G1 X-11.102 Y23.340 E1.90345
G1 X-10.562 Y23.176 E1.91988
G1 X-10.000 Y23.121 E1.93631
G1 X-9.438 Y23.176 E1.95273
G1 X-8.898 Y23.340 E1.96916
G1 X-8.400 Y23.606 E1.98558
G1 X-7.964 Y23.964 E2.00201
G1 X-7.606 Y24.400 E2.01844
G1 X-7.340 Y24.898 E2.03486
G1 X-7.176 Y25.438 E2.05129
G1 X-7.121 Y26.000 E2.06772
G1 X-7.161 Y26.411 E2.07973
G1 F600.000 E1.37973
G1 Z0.400 F18000.000
G92 E0
G1 X7.824 Y26.000 F18000.000
;AAA selfz = 0.4, lifted = .2
G1 Z0.200 F18000.000
G1 E0.70000 F600.000
G1 X7.866 Y25.576 E0.71241 F2160.000
G1 X7.990 Y25.167 E0.72483
G1 X8.191 Y24.791 E0.73724
G1 X8.461 Y24.461 E0.74965
G1 X8.791 Y24.191 E0.76207
G1 X9.167 Y23.990 E0.77448
G1 X9.576 Y23.866 E0.78689
G1 X10.000 Y23.824 E0.79931
G1 X10.424 Y23.866 E0.81172
G1 X10.833 Y23.990 E0.82413
G1 X11.209 Y24.191 E0.83655
G1 X11.539 Y24.461 E0.84896
G1 X11.809 Y24.791 E0.86137
G1 X12.010 Y25.167 E0.87379
G1 X12.134 Y25.576 E0.88620
G1 X12.176 Y26.000 E0.89862
G1 X12.134 Y26.424 E0.91103
G1 X12.010 Y26.833 E0.92344
G1 X11.809 Y27.209 E0.93586
G1 X11.539 Y27.539 E0.94827
G1 X11.209 Y27.809 E0.96068
G1 X10.833 Y28.010 E0.97310
G1 X10.424 Y28.134 E0.98551
G1 X10.000 Y28.176 E0.99792
G1 X9.576 Y28.134 E1.01034
G1 X9.167 Y28.010 E1.02275
G1 X8.791 Y27.809 E1.03516
G1 X8.461 Y27.539 E1.04758
G1 X8.191 Y27.209 E1.05999
G1 X7.990 Y26.833 E1.07240
G1 X7.866 Y26.425 E1.08482
G1 X7.829 Y26.052 E1.09570
G1 X7.527 Y25.815 F18000.000
G1 X7.479 Y25.936 F18000.000
G1 X7.521 Y25.507 E1.10824 F2160.000
G1 X7.665 Y25.033 E1.12266
G1 X7.898 Y24.596 E1.13708
G1 X8.213 Y24.213 E1.15150
G1 X8.596 Y23.898 E1.16592
G1 X9.033 Y23.665 E1.18034
G1 X9.507 Y23.521 E1.19476
G1 X10.000 Y23.472 E1.20918
G1 X10.493 Y23.521 E1.22360
G1 X10.967 Y23.665 E1.23802
G1 X11.404 Y23.898 E1.25244
G1 X11.787 Y24.213 E1.26686
G1 X12.102 Y24.596 E1.28128
G1 X12.335 Y25.033 E1.29570
G1 X12.479 Y25.507 E1.31012
G1 X12.528 Y26.000 E1.32454
G1 X12.479 Y26.493 E1.33896
G1 X12.335 Y26.967 E1.35338
G1 X12.102 Y27.404 E1.36780
G1 X11.787 Y27.787 E1.38221
G1 X11.404 Y28.102 E1.39664
G1 X10.967 Y28.335 E1.41105
G1 X10.493 Y28.479 E1.42548
G1 X10.000 Y28.528 E1.43990
G1 X9.507 Y28.479 E1.45431
G1 X9.033 Y28.335 E1.46873
G1 X8.596 Y28.102 E1.48316
G1 X8.213 Y27.787 E1.49757
G1 X7.898 Y27.404 E1.51199
G1 X7.665 Y26.967 E1.52641
G1 X7.521 Y26.493 E1.54083
G1 X7.474 Y25.988 E1.55560
G1 X7.121 Y26.000 F18000.000
G1 X7.176 Y25.438 E1.57203 F2160.000
G1 X7.340 Y24.898 E1.58846
G1 X7.606 Y24.400 E1.60488
G1 X7.964 Y23.964 E1.62131
G1 X8.400 Y23.606 E1.63774
G1 X8.898 Y23.340 E1.65416
G1 X9.438 Y23.176 E1.67059
G1 X10.000 Y23.121 E1.68702
G1 X10.562 Y23.176 E1.70344
G1 X11.102 Y23.340 E1.71987
G1 X11.600 Y23.606 E1.73629
G1 X12.036 Y23.964 E1.75272
G1 X12.394 Y24.400 E1.76915
G1 X12.660 Y24.898 E1.78557
G1 X12.824 Y25.438 E1.80200
G1 X12.879 Y26.000 E1.81843
G1 X12.824 Y26.562 E1.83485
G1 X12.660 Y27.102 E1.85128
G1 X12.394 Y27.600 E1.86771
G1 X12.036 Y28.036 E1.88413
G1 X11.600 Y28.394 E1.90056
G1 X11.102 Y28.660 E1.91698
G1 X10.562 Y28.824 E1.93341
G1 X10.000 Y28.879 E1.94984
G1 X9.438 Y28.824 E1.96626
G1 X8.898 Y28.660 E1.98269
G1 X8.400 Y28.394 E1.99912
G1 X7.964 Y28.036 E2.01554
G1 X7.606 Y27.600 E2.03197
G1 X7.340 Y27.102 E2.04840
G1 X7.176 Y26.562 E2.06482
G1 X7.126 Y26.052 E2.07972
G1 F600.000 E1.37972
G1 Z0.400 F18000.000
G92 E0
G1 X-9.167 Y-23.990 F18000.000
;AAA selfz = 0.4, lifted = .2
G1 Z0.200 F18000.000
G1 E0.70000 F600.000
G1 X-9.576 Y-23.866 E0.71241 F2160.000
G1 X-10.000 Y-23.824 E0.72483
G1 X-10.425 Y-23.866 E0.73724
G1 X-10.833 Y-23.990 E0.74965
G1 X-11.209 Y-24.191 E0.76207
G1 X-11.539 Y-24.461 E0.77448
G1 X-11.809 Y-24.791 E0.78689
G1 X-12.010 Y-25.167 E0.79931
G1 X-12.134 Y-25.576 E0.81172
G1 X-12.176 Y-26.000 E0.82413
G1 X-12.134 Y-26.424 E0.83655
G1 X-12.010 Y-26.833 E0.84896
G1 X-11.809 Y-27.209 E0.86137
G1 X-11.539 Y-27.539 E0.87379
G1 X-11.209 Y-27.809 E0.88620
G1 X-10.833 Y-28.010 E0.89861
G1 X-10.424 Y-28.134 E0.91103
G1 X-10.000 Y-28.176 E0.92344
G1 X-9.576 Y-28.134 E0.93586
G1 X-9.167 Y-28.010 E0.94827
G1 X-8.791 Y-27.809 E0.96068
G1 X-8.461 Y-27.539 E0.97310
G1 X-8.191 Y-27.209 E0.98551
G1 X-7.990 Y-26.833 E0.99792
G1 X-7.866 Y-26.424 E1.01034
G1 X-7.824 Y-26.000 E1.02275
G1 X-7.866 Y-25.576 E1.03516
G1 X-7.990 Y-25.167 E1.04758
G1 X-8.191 Y-24.791 E1.05999
G1 X-8.461 Y-24.461 E1.07240
G1 X-8.791 Y-24.191 E1.08482
G1 X-9.121 Y-24.015 E1.09570
G1 X-9.224 Y-23.644 F18000.000
G1 X-9.095 Y-23.646 F18000.000
G1 X-9.507 Y-23.521 E1.10824 F2160.000
G1 X-10.000 Y-23.472 E1.12266
G1 X-10.493 Y-23.521 E1.13708
G1 X-10.967 Y-23.665 E1.15150
G1 X-11.404 Y-23.898 E1.16592
G1 X-11.787 Y-24.213 E1.18034
G1 X-12.102 Y-24.596 E1.19476
G1 X-12.335 Y-25.033 E1.20918
G1 X-12.479 Y-25.507 E1.22360
G1 X-12.528 Y-26.000 E1.23802
G1 X-12.479 Y-26.493 E1.25244
G1 X-12.335 Y-26.967 E1.26686
G1 X-12.102 Y-27.404 E1.28128
G1 X-11.787 Y-27.787 E1.29570
G1 X-11.404 Y-28.102 E1.31012
G1 X-10.967 Y-28.335 E1.32454
G1 X-10.493 Y-28.479 E1.33896
G1 X-10.000 Y-28.528 E1.35338
G1 X-9.507 Y-28.479 E1.36780
G1 X-9.033 Y-28.335 E1.38222
G1 X-8.596 Y-28.102 E1.39664
G1 X-8.213 Y-27.787 E1.41105
G1 X-7.898 Y-27.404 E1.42547
G1 X-7.665 Y-26.967 E1.43990
G1 X-7.521 Y-26.493 E1.45431
G1 X-7.472 Y-26.000 E1.46874
G1 X-7.521 Y-25.507 E1.48316
G1 X-7.665 Y-25.033 E1.49757
G1 X-7.898 Y-24.596 E1.51199
G1 X-8.213 Y-24.213 E1.52641
G1 X-8.596 Y-23.898 E1.54083
G1 X-9.045 Y-23.661 E1.55560
G1 X-8.898 Y-23.340 F18000.000
G1 X-9.438 Y-23.176 E1.57203 F2160.000
G1 X-10.000 Y-23.121 E1.58846
G1 X-10.562 Y-23.176 E1.60489
G1 X-11.102 Y-23.340 E1.62131
G1 X-11.600 Y-23.606 E1.63774
G1 X-12.036 Y-23.964 E1.65416
G1 X-12.394 Y-24.400 E1.67059
G1 X-12.660 Y-24.898 E1.68701
G1 X-12.824 Y-25.438 E1.70344
G1 X-12.879 Y-26.000 E1.71987
G1 X-12.824 Y-26.562 E1.73629
G1 X-12.660 Y-27.102 E1.75272
G1 X-12.394 Y-27.600 E1.76915
G1 X-12.036 Y-28.036 E1.78557
G1 X-11.600 Y-28.394 E1.80200
G1 X-11.102 Y-28.660 E1.81843
G1 X-10.562 Y-28.824 E1.83485
G1 X-10.000 Y-28.879 E1.85128
G1 X-9.438 Y-28.824 E1.86770
G1 X-8.898 Y-28.660 E1.88413
G1 X-8.400 Y-28.394 E1.90056
G1 X-7.964 Y-28.036 E1.91698
G1 X-7.606 Y-27.600 E1.93341
G1 X-7.340 Y-27.102 E1.94984
G1 X-7.176 Y-26.562 E1.96626
G1 X-7.121 Y-26.000 E1.98269
G1 X-7.176 Y-25.438 E1.99912
G1 X-7.340 Y-24.898 E2.01554
G1 X-7.606 Y-24.400 E2.03197
G1 X-7.964 Y-23.964 E2.04840
G1 X-8.400 Y-23.606 E2.06482
G1 X-8.852 Y-23.365 E2.07972
G1 F600.000 E1.37972
G1 Z0.400 F18000.000
G92 E0
G1 X7.866 Y-25.576 F18000.000
;AAA selfz = 0.4, lifted = .2
G1 Z0.200 F18000.000
G1 E0.70000 F600.000
G1 X7.824 Y-26.000 E0.71241 F2160.000
G1 X7.866 Y-26.424 E0.72483
G1 X7.990 Y-26.833 E0.73724
G1 X8.191 Y-27.209 E0.74965
G1 X8.461 Y-27.539 E0.76207
G1 X8.791 Y-27.809 E0.77448
G1 X9.167 Y-28.010 E0.78689
G1 X9.576 Y-28.134 E0.79931
G1 X10.000 Y-28.176 E0.81172
G1 X10.424 Y-28.134 E0.82413
G1 X10.833 Y-28.010 E0.83655
G1 X11.209 Y-27.809 E0.84896
G1 X11.539 Y-27.539 E0.86137
G1 X11.809 Y-27.209 E0.87379
G1 X12.010 Y-26.833 E0.88620
G1 X12.134 Y-26.424 E0.89861
G1 X12.176 Y-26.000 E0.91103
G1 X12.134 Y-25.576 E0.92344
G1 X12.010 Y-25.167 E0.93586
G1 X11.809 Y-24.791 E0.94827
G1 X11.539 Y-24.461 E0.96068
G1 X11.209 Y-24.191 E0.97310
G1 X10.833 Y-23.990 E0.98551
G1 X10.424 Y-23.866 E0.99792
G1 X10.000 Y-23.824 E1.01034
G1 X9.576 Y-23.866 E1.02275
G1 X9.167 Y-23.990 E1.03516
G1 X8.791 Y-24.191 E1.04758
G1 X8.461 Y-24.461 E1.05999
G1 X8.191 Y-24.791 E1.07240
G1 X7.990 Y-25.167 E1.08482
G1 X7.881 Y-25.525 E1.09570
G1 X7.538 Y-25.699 F18000.000
G1 X7.521 Y-25.507 F18000.000
G1 X7.472 Y-26.000 E1.11012 F2160.000
G1 X7.521 Y-26.493 E1.12454
G1 X7.665 Y-26.967 E1.13896
G1 X7.898 Y-27.404 E1.15338
G1 X8.213 Y-27.787 E1.16780
G1 X8.596 Y-28.102 E1.18222
G1 X9.033 Y-28.335 E1.19664
G1 X9.507 Y-28.479 E1.21106
G1 X10.000 Y-28.528 E1.22548
G1 X10.493 Y-28.479 E1.23990
