; generated by Slic3r 1.1.3-dev on 2014-06-28 at 08:19:54

; perimeters extrusion width = 0.35mm
; infill extrusion width = 0.57mm
; solid infill extrusion width = 0.57mm
; top infill extrusion width = 0.57mm

G21 ; set units to millimeters
M107
G28
G92 X0 Y0 Z0 E0
G1 F5000 Y30 X30
G1 X220
G1 F100 E10
G28
G92 X0 Y0 Z0
G1 F4000 X101 Y127
G92 X0 Y0 Z0 E0
M106 S255
G90 ; use absolute coordinates
G92 E0
M82 ; use absolute distances for extrusion
G1 F600.000 E-0.70000
G1 Z0.400 F7800.000
G92 E0
G1 X-4.472 Y-34.484 F7800.000
G1 Z0.200 F7800.000
G1 E0.70000 F600.000
G1 X49.995 Y-41.548 E2.47776 F1080.000
G1 X59.995 Y-41.548 E2.80144
G1 X62.212 Y-41.151 E2.87433
G1 X64.153 Y-40.010 E2.94722 F1080.000
G1 X65.578 Y-38.266 E3.02011
G1 X66.384 Y-35.159 E3.12402
G1 X66.384 Y-13.841 E3.81404
G1 X66.255 Y-12.565 E3.85556
G1 X56.265 Y36.435 E5.47421
G1 X55.434 Y38.528 E5.54711
G1 X53.928 Y40.202 E5.62000
G1 X51.934 Y41.250 E5.69289
G1 X50.005 Y41.548 E5.75608
G1 X-59.995 Y41.548 E9.31655
G1 X-62.212 Y41.151 E9.38944
G1 X-64.153 Y40.010 E9.46233
G1 X-65.578 Y38.266 E9.53522
G1 X-66.384 Y35.159 E9.63913
G1 X-66.384 Y-20.841 E11.45173
G1 X-65.987 Y-23.058 E11.52462
G1 X-64.846 Y-24.999 E11.59752
G1 X-63.102 Y-26.424 E11.67041
G1 X-60.820 Y-27.177 E11.74820
G1 X-4.524 Y-34.478 E13.58563
G1 F600.000 E12.88563
G1 Z0.400 F7800.000
G92 E0
G1 X-51.363 Y-19.473 F7800.000
G1 Z0.200 F7800.000
G1 E0.70000 F600.000
G1 X-51.363 Y26.527 E2.18892 F540.000
G1 X41.373 Y26.527 E5.19058
G1 X41.373 Y-19.473 E6.67951
G1 X58.627 Y-19.473 E7.23800
G1 X58.627 Y-15.209 E7.37603
G1 X48.637 Y-15.209 E7.69938
G1 X48.637 Y33.791 E9.28541
G1 X-58.627 Y33.791 E12.75734
G1 X-58.627 Y-19.473 E14.48140
G1 X-51.415 Y-19.473 E14.71483 F540.000
G1 X-51.415 Y-19.862 F7800.000
G1 X-50.974 Y-19.862 E14.72913 F540.000
G1 X-50.974 Y26.138 E16.21805
G1 X40.984 Y26.138 E19.19451 F540.000
G1 X40.984 Y-19.862 E20.68344
G1 X59.016 Y-19.862 E21.26713
G1 X59.016 Y-14.820 E21.43036
G1 X49.026 Y-14.820 E21.75371
G1 X49.026 Y34.180 E23.33974
G1 X-59.016 Y34.180 E26.83687
G1 X-59.016 Y-19.862 E28.58612
G1 X-51.468 Y-19.862 E28.83046
G1 X-51.468 Y-20.252 F7800.000
G1 X-50.584 Y-20.252 E28.85906 F540.000
G1 X-50.584 Y25.748 E30.34798
G1 X40.594 Y25.748 E33.29924
G1 X40.594 Y-20.252 E34.78817
G1 X59.406 Y-20.252 E35.39705
G1 X59.406 Y-14.430 E35.58548
G1 X49.416 Y-14.430 E35.90884
G1 X49.416 Y34.570 E37.49487
G1 X-59.406 Y34.570 E41.01719
G1 X-59.406 Y-20.252 E42.79165
G1 X-51.520 Y-20.252 E43.04688 F540.000
G1 X-51.520 Y-20.641 F7800.000
G1 X-50.195 Y-20.641 E43.08978 F378.000
G1 X-50.195 Y25.359 E44.57871
G1 X40.205 Y25.359 E47.50477 F378.000
G1 X40.205 Y-20.641 E48.99369
G1 X59.795 Y-20.641 E49.62778
G1 X59.795 Y-14.041 E49.84141
G1 X49.805 Y-14.041 E50.16476
G1 X49.805 Y34.959 E51.75079
G1 X-59.795 Y34.959 E55.29832
G1 X-59.795 Y-20.641 E57.09797
G1 X-51.573 Y-20.641 E57.36411
G1 X-50.171 Y25.708 F7800.000
G1 X-58.365 Y20.799 F7800.000
G1 X-45.635 Y33.529 E57.94685 F1080.000
G1 X-46.186 Y33.529 E57.96471
G1 X-58.365 Y21.350 E58.52219
G1 X-58.365 Y21.902 E58.54005
G1 X-46.738 Y33.529 E59.07227
G1 X-47.290 Y33.529 E59.09013
G1 X-58.365 Y22.454 E59.59710
G1 X-58.365 Y23.006 E59.61496
G1 X-47.842 Y33.529 E60.09667
G1 X-48.393 Y33.529 E60.11453
G1 X-58.365 Y23.557 E60.57098
G1 X-58.365 Y24.109 E60.58884
G1 X-48.945 Y33.529 E61.02004
G1 X-49.497 Y33.529 E61.03790
G1 X-58.365 Y24.661 E61.44384
G1 X-58.365 Y25.213 E61.46170
G1 X-50.049 Y33.529 E61.84238
G1 X-50.600 Y33.529 E61.86024
G1 X-58.365 Y25.764 E62.21567
G1 X-58.365 Y26.316 E62.23353
G1 X-51.152 Y33.529 E62.56370
G1 X-51.704 Y33.529 E62.58156
G1 X-58.365 Y26.868 E62.88647
G1 X-58.365 Y27.420 E62.90433
G1 X-52.256 Y33.529 E63.18399
G1 X-52.807 Y33.529 E63.20185
G1 X-58.365 Y27.971 E63.45625
G1 X-58.365 Y28.523 E63.47411
G1 X-53.359 Y33.529 E63.70325
G1 X-53.911 Y33.529 E63.72111
G1 X-58.365 Y29.075 E63.92499
G1 X-58.365 Y29.627 E63.94285
G1 X-54.463 Y33.529 E64.12148
G1 X-55.014 Y33.529 E64.13934
G1 X-58.365 Y30.178 E64.29271
G1 X-58.365 Y30.730 E64.31057
G1 X-55.566 Y33.529 E64.43869
G1 X-56.118 Y33.529 E64.45655
G1 X-58.365 Y31.282 E64.55940
G1 X-58.365 Y31.834 E64.57726
G1 X-56.670 Y33.529 E64.65487
G1 X-57.221 Y33.529 E64.67272
G1 X-58.365 Y32.385 E64.72507
G1 X-58.365 Y32.937 E64.74293
G1 X-57.773 Y33.529 E64.77002
G1 X-58.325 Y33.529 E64.78788
G1 X-58.365 Y33.489 E64.78971
G1 X-51.625 Y-18.809 F7800.000
G1 X-52.027 Y-19.211 E64.80810 F1080.000
G1 X-52.579 Y-19.211 E64.82596
G1 X-51.625 Y-18.257 E64.86960
G1 X-51.625 Y-17.706 E64.88746
G1 X-53.130 Y-19.211 E64.95637
G1 X-53.682 Y-19.211 E64.97423
G1 X-51.625 Y-17.154 E65.06839
G1 X-51.625 Y-16.602 E65.08625
G1 X-54.234 Y-19.211 E65.20567
G1 X-54.786 Y-19.211 E65.22353
G1 X-51.625 Y-16.050 E65.36820
G1 X-51.625 Y-15.499 E65.38606
G1 X-55.337 Y-19.211 E65.55599
G1 X-55.889 Y-19.211 E65.57385
G1 X-51.625 Y-14.947 E65.76904
G1 X-51.625 Y-14.395 E65.78690
G1 X-56.441 Y-19.211 E66.00734
G1 X-56.993 Y-19.211 E66.02520
G1 X-51.625 Y-13.843 E66.27091
G1 X-51.625 Y-13.292 E66.28877
G1 X-57.544 Y-19.211 E66.55972
G1 X-58.096 Y-19.211 E66.57758
G1 X-51.625 Y-12.740 E66.87380
G1 X-51.625 Y-12.188 E66.89166
G1 X-58.365 Y-18.928 E67.20018
G1 X-58.365 Y-18.376 E67.21804
G1 X-51.625 Y-11.636 E67.52657
G1 X-51.625 Y-11.085 E67.54443
G1 X-58.365 Y-17.825 E67.85295
G1 X-58.365 Y-17.273 E67.87081
G1 X-51.625 Y-10.533 E68.17933
G1 X-51.625 Y-9.981 E68.19719
G1 X-58.365 Y-16.721 E68.50571
G1 X-58.365 Y-16.169 E68.52357
G1 X-51.625 Y-9.429 E68.83210
G1 X-51.625 Y-8.878 E68.84996
G1 X-58.365 Y-15.618 E69.15848
G1 X-58.365 Y-15.066 E69.17634
G1 X-51.625 Y-8.326 E69.48486
G1 X-51.625 Y-7.774 E69.50272
G1 X-58.365 Y-14.514 E69.81124
G1 X-58.365 Y-13.962 E69.82910
G1 X-51.625 Y-7.222 E70.13763
G1 X-51.625 Y-6.671 E70.15549
G1 X-58.365 Y-13.410 E70.46401
G1 X-58.365 Y-12.859 E70.48187
G1 X-51.625 Y-6.119 E70.79039
G1 X-51.625 Y-5.567 E70.80825
G1 X-58.365 Y-12.307 E71.11678
G1 X-58.365 Y-11.755 E71.13464
G1 X-51.625 Y-5.015 E71.44316
G1 X-51.625 Y-4.463 E71.46102
G1 X-58.365 Y-11.203 E71.76954
G1 X-58.365 Y-10.652 E71.78740
G1 X-51.625 Y-3.912 E72.09592
G1 X-51.625 Y-3.360 E72.11378
G1 X-58.365 Y-10.100 E72.42231
G1 X-58.365 Y-9.548 E72.44017
G1 X-51.625 Y-2.808 E72.74869
G1 X-51.625 Y-2.256 E72.76655
G1 X-58.365 Y-8.996 E73.07507
G1 X-58.365 Y-8.445 E73.09293
G1 X-51.625 Y-1.705 E73.40145
G1 X-51.625 Y-1.153 E73.41931
G1 X-58.365 Y-7.893 E73.72784
G1 X-58.365 Y-7.341 E73.74570
G1 X-51.625 Y-0.601 E74.05422
G1 X-51.625 Y-0.049 E74.07208
G1 X-58.365 Y-6.789 E74.38060
G1 X-58.365 Y-6.238 E74.39846
G1 X-51.625 Y0.502 E74.70699
G1 X-51.625 Y1.054 E74.72485
G1 X-58.365 Y-5.686 E75.03337
G1 X-58.365 Y-5.134 E75.05123
G1 X-51.625 Y1.606 E75.35975
G1 X-51.625 Y2.158 E75.37761
G1 X-58.365 Y-4.582 E75.68613
G1 X-58.365 Y-4.031 E75.70399
G1 X-51.625 Y2.709 E76.01252
G1 X-51.625 Y3.261 E76.03038
G1 X-58.365 Y-3.479 E76.33890
G1 X-58.365 Y-2.927 E76.35676
G1 X-51.625 Y3.813 E76.66528
G1 X-51.625 Y4.365 E76.68314
G1 X-58.365 Y-2.375 E76.99166
G1 X-58.365 Y-1.824 E77.00952
G1 X-51.625 Y4.916 E77.31805
G1 X-51.625 Y5.468 E77.33591
G1 X-58.365 Y-1.272 E77.64443
G1 X-58.365 Y-0.720 E77.66229
G1 X-51.625 Y6.020 E77.97081
G1 X-51.625 Y6.572 E77.98867
G1 X-58.365 Y-0.168 E78.29720
G1 X-58.365 Y0.383 E78.31505
G1 X-51.625 Y7.123 E78.62358
G1 X-51.625 Y7.675 E78.64144
G1 X-58.365 Y0.935 E78.94996
G1 X-58.365 Y1.487 E78.96782
G1 X-51.625 Y8.227 E79.27634
G1 X-51.625 Y8.779 E79.29420
G1 X-58.365 Y2.039 E79.60273
G1 X-58.365 Y2.591 E79.62059
G1 X-51.625 Y9.330 E79.92911
G1 X-51.625 Y9.882 E79.94697
G1 X-58.365 Y3.142 E80.25549
G1 X-58.365 Y3.694 E80.27335
G1 X-51.625 Y10.434 E80.58187
G1 X-51.625 Y10.986 E80.59973
G1 X-58.365 Y4.246 E80.90826
G1 X-58.365 Y4.798 E80.92612
G1 X-51.625 Y11.538 E81.23464
G1 X-51.625 Y12.089 E81.25250
G1 X-58.365 Y5.349 E81.56102
G1 X-58.365 Y5.901 E81.57888
G1 X-51.625 Y12.641 E81.88741
G1 X-51.625 Y13.193 E81.90526
G1 X-58.365 Y6.453 E82.21379
G1 X-58.365 Y7.005 E82.23165
G1 X-51.625 Y13.745 E82.54017
G1 X-51.625 Y14.296 E82.55803
G1 X-58.365 Y7.556 E82.86655
G1 X-58.365 Y8.108 E82.88441
G1 X-51.625 Y14.848 E83.19294
G1 X-51.625 Y15.400 E83.21080
G1 X-58.365 Y8.660 E83.51932
G1 X-58.365 Y9.212 E83.53718
G1 X-51.625 Y15.952 E83.84570
G1 X-51.625 Y16.503 E83.86356
G1 X-58.365 Y9.763 E84.17208
G1 X-58.365 Y10.315 E84.18994
G1 X-51.625 Y17.055 E84.49847
G1 X-51.625 Y17.607 E84.51633
G1 X-58.365 Y10.867 E84.82485
G1 X-58.365 Y11.419 E84.84271
G1 X-51.625 Y18.159 E85.15123
G1 X-51.625 Y18.710 E85.16909
G1 X-58.365 Y11.970 E85.47762
G1 X-58.365 Y12.522 E85.49547
G1 X-51.625 Y19.262 E85.80400
G1 X-51.625 Y19.814 E85.82186
G1 X-58.365 Y13.074 E86.13038
G1 X-58.365 Y13.626 E86.14824
G1 X-51.625 Y20.366 E86.45676
G1 X-51.625 Y20.917 E86.47462
G1 X-58.365 Y14.177 E86.78315
G1 X-58.365 Y14.729 E86.80101
G1 X-51.625 Y21.469 E87.10953
G1 X-51.625 Y22.021 E87.12739
G1 X-58.365 Y15.281 E87.43591
G1 X-58.365 Y15.833 E87.45377
G1 X-51.625 Y22.573 E87.76229
G1 X-51.625 Y23.124 E87.78015
G1 X-58.365 Y16.384 E88.08868
G1 X-58.365 Y16.936 E88.10654
G1 X-51.625 Y23.676 E88.41506
G1 X-51.625 Y24.228 E88.43292
G1 X-58.365 Y17.488 E88.74144
G1 X-58.365 Y18.040 E88.75930
G1 X-51.625 Y24.780 E89.06783
G1 X-51.625 Y25.331 E89.08568
G1 X-58.365 Y18.592 E89.39421
G1 X-58.365 Y19.143 E89.41207
G1 X-51.625 Y25.883 E89.72059
G1 X-51.625 Y26.435 E89.73845
G1 X-58.365 Y19.695 E90.04697
G1 X-58.365 Y20.247 E90.06483
G1 X-45.083 Y33.529 E90.67283
G1 X-44.531 Y33.529 E90.69069
G1 X-51.271 Y26.789 E90.99921
G1 X-50.719 Y26.789 E91.01707
G1 X-43.979 Y33.529 E91.32559
G1 X-43.428 Y33.529 E91.34345
G1 X-50.167 Y26.789 E91.65198
G1 X-49.616 Y26.789 E91.66984
G1 X-42.876 Y33.529 E91.97836
G1 X-42.324 Y33.529 E91.99622
G1 X-49.064 Y26.789 E92.30474
G1 X-48.512 Y26.789 E92.32260
G1 X-41.772 Y33.529 E92.63113
G1 X-41.220 Y33.529 E92.64898
G1 X-47.960 Y26.789 E92.95751
G1 X-47.409 Y26.789 E92.97537
G1 X-40.669 Y33.529 E93.28389
G1 X-40.117 Y33.529 E93.30175
G1 X-46.857 Y26.789 E93.61027
G1 X-46.305 Y26.789 E93.62813
G1 X-39.565 Y33.529 E93.93666
G1 X-39.013 Y33.529 E93.95452
G1 X-45.753 Y26.789 E94.26304
G1 X-45.202 Y26.789 E94.28090
G1 X-38.462 Y33.529 E94.58942
G1 X-37.910 Y33.529 E94.60728
G1 X-44.650 Y26.789 E94.91581
G1 X-44.098 Y26.789 E94.93367
G1 X-37.358 Y33.529 E95.24219
G1 X-36.806 Y33.529 E95.26005
G1 X-43.546 Y26.789 E95.56857
G1 X-42.995 Y26.789 E95.58643
G1 X-36.255 Y33.529 E95.89495
G1 X-35.703 Y33.529 E95.91281
G1 X-42.443 Y26.789 E96.22134
G1 X-41.891 Y26.789 E96.23920
G1 X-35.151 Y33.529 E96.54772
G1 X-34.599 Y33.529 E96.56558
G1 X-41.339 Y26.789 E96.87410
G1 X-40.788 Y26.789 E96.89196
G1 X-34.048 Y33.529 E97.20049
G1 X-33.496 Y33.529 E97.21835
G1 X-40.236 Y26.789 E97.52687
G1 X-39.684 Y26.789 E97.54473
G1 X-32.944 Y33.529 E97.85325
G1 X-32.392 Y33.529 E97.87111
G1 X-39.132 Y26.789 E98.17964
G1 X-38.581 Y26.789 E98.19749
G1 X-31.841 Y33.529 E98.50602
G1 X-31.289 Y33.529 E98.52388
G1 X-38.029 Y26.789 E98.83240
G1 X-37.477 Y26.789 E98.85026
G1 X-30.737 Y33.529 E99.15878
G1 X-30.185 Y33.529 E99.17664
G1 X-36.925 Y26.789 E99.48517
G1 X-36.374 Y26.789 E99.50303
G1 X-29.634 Y33.529 E99.81155
G1 X-29.082 Y33.529 E99.82941
G1 X-35.822 Y26.789 E100.13793
G1 X-35.270 Y26.789 E100.15579
G1 X-28.530 Y33.529 E100.46432
G1 X-27.978 Y33.529 E100.48217
G1 X-34.718 Y26.789 E100.79070
G1 X-34.166 Y26.789 E100.80856
G1 X-27.426 Y33.529 E101.11708
G1 X-26.875 Y33.529 E101.13494
G1 X-33.615 Y26.789 E101.44346
G1 X-33.063 Y26.789 E101.46132
G1 X-26.323 Y33.529 E101.76985
G1 X-25.771 Y33.529 E101.78771
G1 X-32.511 Y26.789 E102.09623
G1 X-31.959 Y26.789 E102.11409
G1 X-25.219 Y33.529 E102.42261
G1 X-24.668 Y33.529 E102.44047
G1 X-31.408 Y26.789 E102.74900
G1 X-30.856 Y26.789 E102.76686
G1 X-24.116 Y33.529 E103.07538
G1 X-23.564 Y33.529 E103.09324
G1 X-30.304 Y26.789 E103.40176
G1 X-29.752 Y26.789 E103.41962
G1 X-23.012 Y33.529 E103.72814
G1 X-22.461 Y33.529 E103.74600
G1 X-29.201 Y26.789 E104.05453
G1 X-28.649 Y26.789 E104.07239
G1 X-21.909 Y33.529 E104.38091
G1 X-21.357 Y33.529 E104.39877
G1 X-28.097 Y26.789 E104.70729
G1 X-27.545 Y26.789 E104.72515
G1 X-20.805 Y33.529 E105.03368
G1 X-20.254 Y33.529 E105.05154
G1 X-26.994 Y26.789 E105.36006
G1 X-26.442 Y26.789 E105.37792
G1 X-19.702 Y33.529 E105.68644
G1 X-19.150 Y33.529 E105.70430
G1 X-25.890 Y26.789 E106.01283
G1 X-25.338 Y26.789 E106.03068
G1 X-18.598 Y33.529 E106.33921
G1 X-18.047 Y33.529 E106.35707
G1 X-24.787 Y26.789 E106.66559
G1 X-24.235 Y26.789 E106.68345
G1 X-17.495 Y33.529 E106.99197
G1 X-16.943 Y33.529 E107.00983
G1 X-23.683 Y26.789 E107.31836
G1 X-23.131 Y26.789 E107.33622
G1 X-16.391 Y33.529 E107.64474
G1 X-15.840 Y33.529 E107.66260
G1 X-22.580 Y26.789 E107.97112
G1 X-22.028 Y26.789 E107.98898
G1 X-15.288 Y33.529 E108.29751
G1 X-14.736 Y33.529 E108.31536
G1 X-21.476 Y26.789 E108.62389
G1 X-20.924 Y26.789 E108.64175
G1 X-14.184 Y33.529 E108.95027
G1 X-13.633 Y33.529 E108.96813
G1 X-20.373 Y26.789 E109.27665
G1 X-19.821 Y26.789 E109.29451
G1 X-13.081 Y33.529 E109.60304
G1 X-12.529 Y33.529 E109.62090
G1 X-19.269 Y26.789 E109.92942
G1 X-18.717 Y26.789 E109.94728
G1 X-11.977 Y33.529 E110.25580
G1 X-11.425 Y33.529 E110.27366
G1 X-18.165 Y26.789 E110.58219
G1 X-17.614 Y26.789 E110.60005
G1 X-10.874 Y33.529 E110.90857
G1 X-10.322 Y33.529 E110.92643
G1 X-17.062 Y26.789 E111.23495
G1 X-16.510 Y26.789 E111.25281
G1 X-9.770 Y33.529 E111.56133
G1 X-9.218 Y33.529 E111.57919
G1 X-15.958 Y26.789 E111.88772
G1 X-15.407 Y26.789 E111.90558
G1 X-8.667 Y33.529 E112.21410
G1 X-8.115 Y33.529 E112.23196
G1 X-14.855 Y26.789 E112.54048
G1 X-14.303 Y26.789 E112.55834
G1 X-7.563 Y33.529 E112.86687
G1 X-7.011 Y33.529 E112.88473
G1 X-13.751 Y26.789 E113.19325
G1 X-13.200 Y26.789 E113.21111
G1 X-6.460 Y33.529 E113.51963
G1 X-5.908 Y33.529 E113.53749
G1 X-12.648 Y26.789 E113.84602
G1 X-12.096 Y26.789 E113.86387
G1 X-5.356 Y33.529 E114.17240
G1 X-4.804 Y33.529 E114.19026
G1 X-11.544 Y26.789 E114.49878
G1 X-10.993 Y26.789 E114.51664
G1 X-4.253 Y33.529 E114.82516
G1 X-3.701 Y33.529 E114.84302
G1 X-10.441 Y26.789 E115.15155
G1 X-9.889 Y26.789 E115.16941
G1 X-3.149 Y33.529 E115.47793
G1 X-2.597 Y33.529 E115.49579
G1 X-9.337 Y26.789 E115.80431
G1 X-8.786 Y26.789 E115.82217
G1 X-2.046 Y33.529 E116.13070
G1 X-1.494 Y33.529 E116.14855
G1 X-8.234 Y26.789 E116.45708
G1 X-7.682 Y26.789 E116.47494
G1 X-0.942 Y33.529 E116.78346
G1 X-0.390 Y33.529 E116.80132
G1 X-7.130 Y26.789 E117.10984
G1 X-6.579 Y26.789 E117.12770
G1 X0.161 Y33.529 E117.43623
G1 X0.713 Y33.529 E117.45409
G1 X-6.027 Y26.789 E117.76261
G1 X-5.475 Y26.789 E117.78047
G1 X1.265 Y33.529 E118.08899
G1 X1.817 Y33.529 E118.10685
G1 X-4.923 Y26.789 E118.41538
G1 X-4.371 Y26.789 E118.43324
G1 X2.368 Y33.529 E118.74176
G1 X2.920 Y33.529 E118.75962
G1 X-3.820 Y26.789 E119.06814
G1 X-3.268 Y26.789 E119.08600
G1 X3.472 Y33.529 E119.39452
G1 X4.024 Y33.529 E119.41238
G1 X-2.716 Y26.789 E119.72091
G1 X-2.164 Y26.789 E119.73877
G1 X4.576 Y33.529 E120.04729
G1 X5.127 Y33.529 E120.06515
G1 X-1.613 Y26.789 E120.37367
G1 X-1.061 Y26.789 E120.39153
G1 X5.679 Y33.529 E120.70006
G1 X6.231 Y33.529 E120.71792
G1 X-0.509 Y26.789 E121.02644
G1 X0.043 Y26.789 E121.04430
G1 X6.783 Y33.529 E121.35282
G1 X7.334 Y33.529 E121.37068
G1 X0.594 Y26.789 E121.67921
G1 X1.146 Y26.789 E121.69706
G1 X7.886 Y33.529 E122.00559
G1 X8.438 Y33.529 E122.02345
G1 X1.698 Y26.789 E122.33197
G1 X2.250 Y26.789 E122.34983
G1 X8.990 Y33.529 E122.65835
G1 X9.541 Y33.529 E122.67621
G1 X2.801 Y26.789 E122.98474
G1 X3.353 Y26.789 E123.00260
G1 X10.093 Y33.529 E123.31112
G1 X10.645 Y33.529 E123.32898
G1 X3.905 Y26.789 E123.63750
G1 X4.457 Y26.789 E123.65536
G1 X11.197 Y33.529 E123.96389
G1 X11.748 Y33.529 E123.98174
G1 X5.008 Y26.789 E124.29027
G1 X5.560 Y26.789 E124.30813
G1 X12.300 Y33.529 E124.61665
G1 X12.852 Y33.529 E124.63451
G1 X6.112 Y26.789 E124.94303
G1 X6.664 Y26.789 E124.96089
G1 X13.404 Y33.529 E125.26942
G1 X13.955 Y33.529 E125.28728
G1 X7.215 Y26.789 E125.59580
G1 X7.767 Y26.789 E125.61366
G1 X14.507 Y33.529 E125.92218
G1 X15.059 Y33.529 E125.94004
G1 X8.319 Y26.789 E126.24857
