; generated by Slic3r 1.1.3-dev on 2014-06-28 at 10:28:27

; perimeters extrusion width = 0.35mm
; infill extrusion width = 0.57mm
; solid infill extrusion width = 0.57mm
; top infill extrusion width = 0.57mm

G21 ; set units to millimeters
M107
G28
G92 X0 Y0 Z0 E0
G1 F5000 Y30 X30
G1 X220
G1 F100 E10
G28
G92 X0 Y0 Z0
G1 F4000 X101 Y127
G92 X0 Y0 Z0 E0
M106 S255
G90 ; use absolute coordinates
G92 E0
M82 ; use absolute distances for extrusion
G1 F600.000 E-0.70000
G1 Z0.400 F7800.000
G92 E0
G1 X-5.353 Y-34.354 F7800.000
G1 Z0.200 F7800.000
G1 E0.70000 F600.000
G1 X49.995 Y-42.979 E2.51314 F1080.000
G1 X59.995 Y-42.979 E2.83681
G1 X62.212 Y-42.582 E2.90971
G1 X64.153 Y-41.441 E2.98260 F1080.000
G1 X65.578 Y-39.697 E3.05549
G1 X66.384 Y-36.590 E3.15939
G1 X66.384 Y-12.372 E3.94325
G1 X66.255 Y-11.096 E3.98477
G1 X56.265 Y37.904 E5.60343
G1 X55.434 Y39.997 E5.67632
G1 X53.928 Y41.671 E5.74921
G1 X51.934 Y42.719 E5.82210
G1 X50.005 Y43.017 E5.88529
G1 X-59.995 Y43.017 E9.44576
G1 X-62.212 Y42.620 E9.51865
G1 X-64.153 Y41.479 E9.59155
G1 X-65.578 Y39.735 E9.66444
G1 X-66.384 Y36.628 E9.76834
G1 X-66.384 Y-19.372 E11.58095
G1 X-65.987 Y-21.589 E11.65384
G1 X-64.846 Y-23.531 E11.72673
G1 X-63.102 Y-24.955 E11.79962
G1 X-60.983 Y-25.685 E11.87216
G1 X-5.405 Y-34.346 E13.69281
G1 F600.000 E12.99281
G1 Z0.400 F7800.000
G92 E0
G1 X-3.005 Y36.038 F7800.000
G1 Z0.200 F7800.000
G1 E0.70000 F600.000
G1 X-59.406 Y36.038 E2.52559 F540.000
G1 X-59.406 Y-18.783 E4.30004
G1 X-50.584 Y-18.783 E4.58558 F540.000
G1 X-50.584 Y27.217 E6.07450
G1 X40.594 Y27.217 E9.02576
G1 X40.594 Y-18.783 E10.51469
G1 X59.406 Y-18.783 E11.12357
G1 X59.406 Y-12.962 E11.31200
G1 X49.416 Y-12.962 E11.63536
G1 X49.416 Y36.038 E13.22139
G1 X-2.952 Y36.038 E14.91643
G1 X-2.952 Y36.428 F7800.000
G1 X-59.795 Y36.428 E16.75631 F378.000
G1 X-59.795 Y-19.172 E18.55597
G1 X-50.195 Y-19.172 E18.86670
G1 X-50.195 Y26.828 E20.35562
G1 X40.205 Y26.828 E23.28169 F378.000
G1 X40.205 Y-19.172 E24.77061
G1 X59.795 Y-19.172 E25.40470
G1 X59.795 Y-12.572 E25.61833
G1 X49.805 Y-12.572 E25.94168
G1 X49.805 Y36.428 E27.52771
G1 X-2.900 Y36.428 E29.23365
G1 X-49.845 Y26.839 F7800.000
G1 X-50.846 Y26.948 F7800.000
G1 X-59.144 Y18.651 E29.61345 F1080.000
G1 X-59.144 Y18.100 E29.63129
G1 X-50.846 Y26.397 E30.01109
G1 X-50.846 Y25.846 E30.02893
G1 X-59.144 Y17.549 E30.40873
G1 X-59.144 Y16.998 E30.42657
G1 X-50.846 Y25.295 E30.80636
G1 X-50.846 Y24.743 E30.82420
G1 X-59.144 Y16.446 E31.20400
G1 X-59.144 Y15.895 E31.22184
G1 X-50.846 Y24.192 E31.60164
G1 X-50.846 Y23.641 E31.61948
G1 X-59.144 Y15.344 E31.99928
G1 X-59.144 Y14.793 E32.01712
G1 X-50.846 Y23.090 E32.39692
G1 X-50.846 Y22.539 E32.41475
G1 X-59.144 Y14.242 E32.79455
G1 X-59.144 Y13.691 E32.81239
G1 X-50.846 Y21.988 E33.19219
G1 X-50.846 Y21.437 E33.21003
G1 X-59.144 Y13.140 E33.58983
G1 X-59.144 Y12.589 E33.60767
G1 X-50.846 Y20.886 E33.98747
G1 X-50.846 Y20.334 E34.00531
G1 X-59.144 Y12.037 E34.38511
G1 X-59.144 Y11.486 E34.40294
G1 X-50.846 Y19.783 E34.78274
G1 X-50.846 Y19.232 E34.80058
G1 X-59.144 Y10.935 E35.18038
G1 X-59.144 Y10.384 E35.19822
G1 X-50.846 Y18.681 E35.57802
G1 X-50.846 Y18.130 E35.59586
G1 X-59.144 Y9.833 E35.97566
G1 X-59.144 Y9.282 E35.99350
G1 X-50.846 Y17.579 E36.37329
G1 X-50.846 Y17.028 E36.39113
G1 X-59.144 Y8.731 E36.77093
G1 X-59.144 Y8.179 E36.78877
G1 X-50.846 Y16.477 E37.16857
G1 X-50.846 Y15.925 E37.18641
G1 X-59.144 Y7.628 E37.56621
G1 X-59.144 Y7.077 E37.58405
G1 X-50.846 Y15.374 E37.96385
G1 X-50.846 Y14.823 E37.98169
G1 X-59.144 Y6.526 E38.36148
G1 X-59.144 Y5.975 E38.37932
G1 X-50.846 Y14.272 E38.75912
G1 X-50.846 Y13.721 E38.77696
G1 X-59.144 Y5.424 E39.15676
G1 X-59.144 Y4.873 E39.17460
G1 X-50.846 Y13.170 E39.55440
G1 X-50.846 Y12.619 E39.57224
G1 X-59.144 Y4.322 E39.95204
G1 X-59.144 Y3.770 E39.96988
G1 X-50.846 Y12.067 E40.34967
G1 X-50.846 Y11.516 E40.36751
G1 X-59.144 Y3.219 E40.74731
G1 X-59.144 Y2.668 E40.76515
G1 X-50.846 Y10.965 E41.14495
G1 X-50.846 Y10.414 E41.16279
G1 X-59.144 Y2.117 E41.54259
G1 X-59.144 Y1.566 E41.56043
G1 X-50.846 Y9.863 E41.94023
G1 X-50.846 Y9.312 E41.95806
G1 X-59.144 Y1.015 E42.33786
G1 X-59.144 Y0.464 E42.35570
G1 X-50.846 Y8.761 E42.73550
G1 X-50.846 Y8.210 E42.75334
G1 X-59.144 Y-0.088 E43.13314
G1 X-59.144 Y-0.639 E43.15098
G1 X-50.846 Y7.658 E43.53078
G1 X-50.846 Y7.107 E43.54862
G1 X-59.144 Y-1.190 E43.92842
G1 X-59.144 Y-1.741 E43.94625
G1 X-50.846 Y6.556 E44.32605
G1 X-50.846 Y6.005 E44.34389
G1 X-59.144 Y-2.292 E44.72369
G1 X-59.144 Y-2.843 E44.74153
G1 X-50.846 Y5.454 E45.12133
G1 X-50.846 Y4.903 E45.13917
G1 X-59.144 Y-3.394 E45.51897
G1 X-59.144 Y-3.945 E45.53681
G1 X-50.846 Y4.352 E45.91660
G1 X-50.846 Y3.800 E45.93444
G1 X-59.144 Y-4.497 E46.31424
G1 X-59.144 Y-5.048 E46.33208
G1 X-50.846 Y3.249 E46.71188
G1 X-50.846 Y2.698 E46.72972
G1 X-59.144 Y-5.599 E47.10952
G1 X-59.144 Y-6.150 E47.12736
G1 X-50.846 Y2.147 E47.50716
G1 X-50.846 Y1.596 E47.52500
G1 X-59.144 Y-6.701 E47.90479
G1 X-59.144 Y-7.252 E47.92263
G1 X-50.846 Y1.045 E48.30243
G1 X-50.846 Y0.494 E48.32027
G1 X-59.144 Y-7.803 E48.70007
G1 X-59.144 Y-8.354 E48.71791
G1 X-50.846 Y-0.057 E49.09771
G1 X-50.846 Y-0.609 E49.11555
G1 X-59.144 Y-8.906 E49.49535
G1 X-59.144 Y-9.457 E49.51318
G1 X-50.846 Y-1.160 E49.89298
G1 X-50.846 Y-1.711 E49.91082
G1 X-59.144 Y-10.008 E50.29062
G1 X-59.144 Y-10.559 E50.30846
G1 X-50.846 Y-2.262 E50.68826
G1 X-50.846 Y-2.813 E50.70610
G1 X-59.144 Y-11.110 E51.08590
G1 X-59.144 Y-11.661 E51.10374
G1 X-50.846 Y-3.364 E51.48354
G1 X-50.846 Y-3.915 E51.50137
G1 X-59.144 Y-12.212 E51.88117
G1 X-59.144 Y-12.764 E51.89901
G1 X-50.846 Y-4.466 E52.27881
G1 X-50.846 Y-5.018 E52.29665
G1 X-59.144 Y-13.315 E52.67645
G1 X-59.144 Y-13.866 E52.69429
G1 X-50.846 Y-5.569 E53.07409
G1 X-50.846 Y-6.120 E53.09193
G1 X-59.144 Y-14.417 E53.47172
G1 X-59.144 Y-14.968 E53.48956
G1 X-50.846 Y-6.671 E53.86936
G1 X-50.846 Y-7.222 E53.88720
G1 X-59.144 Y-15.519 E54.26700
G1 X-59.144 Y-16.070 E54.28484
G1 X-50.846 Y-7.773 E54.66464
G1 X-50.846 Y-8.324 E54.68248
G1 X-59.144 Y-16.621 E55.06228
G1 X-59.144 Y-17.173 E55.08012
G1 X-50.846 Y-8.876 E55.45991
G1 X-50.846 Y-9.427 E55.47775
G1 X-59.144 Y-17.724 E55.85755
G1 X-59.144 Y-18.275 E55.87539
G1 X-50.846 Y-9.978 E56.25519
G1 X-50.846 Y-10.529 E56.27303
G1 X-58.839 Y-18.521 E56.63887
G1 X-58.287 Y-18.521 E56.65671
G1 X-50.846 Y-11.080 E56.99732
G1 X-50.846 Y-11.631 E57.01516
G1 X-57.736 Y-18.521 E57.33054
G1 X-57.185 Y-18.521 E57.34838
G1 X-50.846 Y-12.182 E57.63854
G1 X-50.846 Y-12.733 E57.65638
G1 X-56.634 Y-18.521 E57.92130
G1 X-56.083 Y-18.521 E57.93914
G1 X-50.846 Y-13.285 E58.17884
G1 X-50.846 Y-13.836 E58.19668
G1 X-55.532 Y-18.521 E58.41115
G1 X-54.981 Y-18.521 E58.42899
G1 X-50.846 Y-14.387 E58.61823
G1 X-50.846 Y-14.938 E58.63607
G1 X-54.430 Y-18.521 E58.80009
G1 X-53.878 Y-18.521 E58.81793
G1 X-50.846 Y-15.489 E58.95671
G1 X-50.846 Y-16.040 E58.97455
G1 X-53.327 Y-18.521 E59.08811
G1 X-52.776 Y-18.521 E59.10595
G1 X-50.846 Y-16.591 E59.19428
G1 X-50.846 Y-17.142 E59.21212
G1 X-52.225 Y-18.521 E59.27522
G1 X-51.674 Y-18.521 E59.29306
G1 X-50.846 Y-17.694 E59.33094
G1 X-50.846 Y-18.245 E59.34878
G1 X-51.123 Y-18.521 E59.36142
G1 X-59.144 Y35.736 F7800.000
G1 X-59.104 Y35.776 E59.36325 F1080.000
G1 X-58.552 Y35.776 E59.38109
G1 X-59.144 Y35.185 E59.40815
G1 X-59.144 Y34.634 E59.42599
G1 X-58.001 Y35.776 E59.47828
G1 X-57.450 Y35.776 E59.49612
G1 X-59.144 Y34.083 E59.57363
G1 X-59.144 Y33.532 E59.59147
G1 X-56.899 Y35.776 E59.69421
G1 X-56.348 Y35.776 E59.71205
G1 X-59.144 Y32.980 E59.84003
G1 X-59.144 Y32.429 E59.85786
G1 X-55.797 Y35.776 E60.01106
G1 X-55.246 Y35.776 E60.02890
G1 X-59.144 Y31.878 E60.20733
G1 X-59.144 Y31.327 E60.22517
G1 X-54.694 Y35.776 E60.42883
G1 X-54.143 Y35.776 E60.44666
G1 X-59.144 Y30.776 E60.67555
G1 X-59.144 Y30.225 E60.69339
G1 X-53.592 Y35.776 E60.94750
G1 X-53.041 Y35.776 E60.96534
G1 X-59.144 Y29.674 E61.24468
G1 X-59.144 Y29.122 E61.26252
G1 X-52.490 Y35.776 E61.56709
G1 X-51.939 Y35.776 E61.58493
G1 X-59.144 Y28.571 E61.91472
G1 X-59.144 Y28.020 E61.93256
G1 X-51.388 Y35.776 E62.28759
G1 X-50.837 Y35.776 E62.30543
G1 X-59.144 Y27.469 E62.68568
G1 X-59.144 Y26.918 E62.70352
G1 X-50.285 Y35.776 E63.10900
G1 X-49.734 Y35.776 E63.12684
G1 X-59.144 Y26.367 E63.55755
G1 X-59.144 Y25.816 E63.57539
G1 X-49.183 Y35.776 E64.03132
G1 X-48.632 Y35.776 E64.04916
G1 X-59.144 Y25.265 E64.53033
G1 X-59.144 Y24.713 E64.54817
G1 X-48.081 Y35.776 E65.05456
G1 X-47.530 Y35.776 E65.07240
G1 X-59.144 Y24.162 E65.60402
G1 X-59.144 Y23.611 E65.62186
G1 X-46.979 Y35.776 E66.17871
G1 X-46.428 Y35.776 E66.19655
G1 X-59.144 Y23.060 E66.77863
G1 X-59.144 Y22.509 E66.79647
G1 X-45.876 Y35.776 E67.40377
G1 X-45.325 Y35.776 E67.42161
G1 X-59.144 Y21.958 E68.05414
G1 X-59.144 Y21.407 E68.07198
G1 X-44.774 Y35.776 E68.72975
G1 X-44.223 Y35.776 E68.74759
G1 X-59.144 Y20.855 E69.43058
G1 X-59.144 Y20.304 E69.44841
G1 X-43.672 Y35.776 E70.15663
G1 X-43.121 Y35.776 E70.17447
G1 X-59.144 Y19.753 E70.90792
G1 X-59.144 Y19.202 E70.92576
G1 X-42.570 Y35.776 E71.68443
G1 X-42.018 Y35.776 E71.70227
G1 X-50.316 Y27.479 E72.08207
G1 X-49.764 Y27.479 E72.09991
G1 X-41.467 Y35.776 E72.47971
G1 X-40.916 Y35.776 E72.49755
G1 X-49.213 Y27.479 E72.87735
G1 X-48.662 Y27.479 E72.89519
G1 X-40.365 Y35.776 E73.27498
G1 X-39.814 Y35.776 E73.29282
G1 X-48.111 Y27.479 E73.67262
G1 X-47.560 Y27.479 E73.69046
G1 X-39.263 Y35.776 E74.07026
G1 X-38.712 Y35.776 E74.08810
G1 X-47.009 Y27.479 E74.46790
G1 X-46.458 Y27.479 E74.48574
G1 X-38.161 Y35.776 E74.86554
G1 X-37.609 Y35.776 E74.88338
G1 X-45.906 Y27.479 E75.26318
G1 X-45.355 Y27.479 E75.28101
G1 X-37.058 Y35.776 E75.66081
G1 X-36.507 Y35.776 E75.67865
G1 X-44.804 Y27.479 E76.05845
G1 X-44.253 Y27.479 E76.07629
G1 X-35.956 Y35.776 E76.45609
G1 X-35.405 Y35.776 E76.47393
G1 X-43.702 Y27.479 E76.85373
G1 X-43.151 Y27.479 E76.87157
G1 X-34.854 Y35.776 E77.25137
G1 X-34.303 Y35.776 E77.26920
G1 X-42.600 Y27.479 E77.64900
G1 X-42.049 Y27.479 E77.66684
G1 X-33.751 Y35.776 E78.04664
G1 X-33.200 Y35.776 E78.06448
G1 X-41.497 Y27.479 E78.44428
G1 X-40.946 Y27.479 E78.46212
G1 X-32.649 Y35.776 E78.84192
G1 X-32.098 Y35.776 E78.85976
G1 X-40.395 Y27.479 E79.23956
G1 X-39.844 Y27.479 E79.25740
G1 X-31.547 Y35.776 E79.63719
G1 X-30.996 Y35.776 E79.65503
G1 X-39.293 Y27.479 E80.03483
G1 X-38.742 Y27.479 E80.05267
G1 X-30.445 Y35.776 E80.43247
G1 X-29.894 Y35.776 E80.45031
G1 X-38.191 Y27.479 E80.83011
G1 X-37.639 Y27.479 E80.84795
G1 X-29.342 Y35.776 E81.22775
G1 X-28.791 Y35.776 E81.24559
G1 X-37.088 Y27.479 E81.62538
G1 X-36.537 Y27.479 E81.64322
G1 X-28.240 Y35.776 E82.02302
G1 X-27.689 Y35.776 E82.04086
G1 X-35.986 Y27.479 E82.42066
G1 X-35.435 Y27.479 E82.43850
G1 X-27.138 Y35.776 E82.81830
G1 X-26.587 Y35.776 E82.83614
G1 X-34.884 Y27.479 E83.21594
G1 X-34.333 Y27.479 E83.23378
G1 X-26.036 Y35.776 E83.61358
G1 X-25.485 Y35.776 E83.63141
G1 X-33.782 Y27.479 E84.01121
G1 X-33.230 Y27.479 E84.02905
G1 X-24.933 Y35.776 E84.40885
G1 X-24.382 Y35.776 E84.42669
G1 X-32.679 Y27.479 E84.80649
G1 X-32.128 Y27.479 E84.82433
G1 X-23.831 Y35.776 E85.20413
G1 X-23.280 Y35.776 E85.22197
G1 X-31.577 Y27.479 E85.60177
G1 X-31.026 Y27.479 E85.61960
G1 X-22.729 Y35.776 E85.99940
G1 X-22.178 Y35.776 E86.01724
G1 X-30.475 Y27.479 E86.39704
G1 X-29.924 Y27.479 E86.41488
G1 X-21.627 Y35.776 E86.79468
G1 X-21.075 Y35.776 E86.81252
G1 X-29.373 Y27.479 E87.19232
G1 X-28.821 Y27.479 E87.21016
G1 X-20.524 Y35.776 E87.58996
G1 X-19.973 Y35.776 E87.60780
G1 X-28.270 Y27.479 E87.98759
G1 X-27.719 Y27.479 E88.00543
G1 X-19.422 Y35.776 E88.38523
G1 X-18.871 Y35.776 E88.40307
G1 X-27.168 Y27.479 E88.78287
G1 X-26.617 Y27.479 E88.80071
G1 X-18.320 Y35.776 E89.18051
G1 X-17.769 Y35.776 E89.19835
G1 X-26.066 Y27.479 E89.57815
G1 X-25.515 Y27.479 E89.59599
G1 X-17.218 Y35.776 E89.97578
G1 X-16.666 Y35.776 E89.99362
G1 X-24.963 Y27.479 E90.37342
G1 X-24.412 Y27.479 E90.39126
G1 X-16.115 Y35.776 E90.77106
G1 X-15.564 Y35.776 E90.78890
G1 X-23.861 Y27.479 E91.16870
G1 X-23.310 Y27.479 E91.18654
G1 X-15.013 Y35.776 E91.56634
G1 X-14.462 Y35.776 E91.58418
G1 X-22.759 Y27.479 E91.96398
G1 X-22.208 Y27.479 E91.98181
G1 X-13.911 Y35.776 E92.36161
G1 X-13.360 Y35.776 E92.37945
G1 X-21.657 Y27.479 E92.75925
G1 X-21.106 Y27.479 E92.77709
G1 X-12.808 Y35.776 E93.15689
G1 X-12.257 Y35.776 E93.17473
G1 X-20.554 Y27.479 E93.55453
G1 X-20.003 Y27.479 E93.57237
G1 X-11.706 Y35.776 E93.95217
G1 X-11.155 Y35.776 E93.97000
G1 X-19.452 Y27.479 E94.34980
G1 X-18.901 Y27.479 E94.36764
G1 X-10.604 Y35.776 E94.74744
G1 X-10.053 Y35.776 E94.76528
G1 X-18.350 Y27.479 E95.14508
G1 X-17.799 Y27.479 E95.16292
G1 X-9.502 Y35.776 E95.54272
G1 X-8.951 Y35.776 E95.56056
G1 X-17.248 Y27.479 E95.94036
G1 X-16.697 Y27.479 E95.95820
G1 X-8.399 Y35.776 E96.33799
G1 X-7.848 Y35.776 E96.35583
G1 X-16.145 Y27.479 E96.73563
G1 X-15.594 Y27.479 E96.75347
G1 X-7.297 Y35.776 E97.13327
G1 X-6.746 Y35.776 E97.15111
G1 X-15.043 Y27.479 E97.53091
G1 X-14.492 Y27.479 E97.54875
G1 X-6.195 Y35.776 E97.92855
G1 X-5.644 Y35.776 E97.94639
G1 X-13.941 Y27.479 E98.32619
G1 X-13.390 Y27.479 E98.34402
G1 X-5.093 Y35.776 E98.72382
G1 X-4.542 Y35.776 E98.74166
G1 X-12.839 Y27.479 E99.12146
G1 X-12.287 Y27.479 E99.13930
G1 X-3.990 Y35.776 E99.51910
G1 X-3.439 Y35.776 E99.53694
G1 X-11.736 Y27.479 E99.91674
G1 X-11.185 Y27.479 E99.93458
G1 X-2.888 Y35.776 E100.31438
G1 X-2.337 Y35.776 E100.33221
G1 X-10.634 Y27.479 E100.71201
G1 X-10.083 Y27.479 E100.72985
G1 X-1.786 Y35.776 E101.10965
G1 X-1.235 Y35.776 E101.12749
G1 X-9.532 Y27.479 E101.50729
G1 X-8.981 Y27.479 E101.52513
G1 X-0.684 Y35.776 E101.90493
G1 X-0.132 Y35.776 E101.92277
G1 X-8.430 Y27.479 E102.30257
G1 X-7.878 Y27.479 E102.32040
G1 X0.419 Y35.776 E102.70020
G1 X0.970 Y35.776 E102.71804
G1 X-7.327 Y27.479 E103.09784
G1 X-6.776 Y27.479 E103.11568
G1 X1.521 Y35.776 E103.49548
G1 X2.072 Y35.776 E103.51332
G1 X-6.225 Y27.479 E103.89312
G1 X-5.674 Y27.479 E103.91096
G1 X2.623 Y35.776 E104.29076
G1 X3.174 Y35.776 E104.30860
G1 X-5.123 Y27.479 E104.68839
G1 X-4.572 Y27.479 E104.70623
G1 X3.725 Y35.776 E105.08603
G1 X4.277 Y35.776 E105.10387
G1 X-4.020 Y27.479 E105.48367
G1 X-3.469 Y27.479 E105.50151
G1 X4.828 Y35.776 E105.88131
G1 X5.379 Y35.776 E105.89915
G1 X-2.918 Y27.479 E106.27895
G1 X-2.367 Y27.479 E106.29679
G1 X5.930 Y35.776 E106.67658
G1 X6.481 Y35.776 E106.69442
G1 X-1.816 Y27.479 E107.07422
G1 X-1.265 Y27.479 E107.09206
G1 X7.032 Y35.776 E107.47186
G1 X7.583 Y35.776 E107.48970
G1 X-0.714 Y27.479 E107.86950
G1 X-0.163 Y27.479 E107.88734
G1 X8.134 Y35.776 E108.26714
G1 X8.686 Y35.776 E108.28498
G1 X0.389 Y27.479 E108.66478
G1 X0.940 Y27.479 E108.68261
G1 X9.237 Y35.776 E109.06241
G1 X9.788 Y35.776 E109.08025
G1 X1.491 Y27.479 E109.46005
G1 X2.042 Y27.479 E109.47789
G1 X10.339 Y35.776 E109.85769
G1 X10.890 Y35.776 E109.87553
G1 X2.593 Y27.479 E110.25533
G1 X3.144 Y27.479 E110.27317
G1 X11.441 Y35.776 E110.65297
G1 X11.992 Y35.776 E110.67080
G1 X3.695 Y27.479 E111.05060
G1 X4.246 Y27.479 E111.06844
G1 X12.544 Y35.776 E111.44824
G1 X13.095 Y35.776 E111.46608
G1 X4.798 Y27.479 E111.84588
G1 X5.349 Y27.479 E111.86372
G1 X13.646 Y35.776 E112.24352
G1 X14.197 Y35.776 E112.26136
G1 X5.900 Y27.479 E112.64116
G1 X6.451 Y27.479 E112.65899
G1 X14.748 Y35.776 E113.03879
G1 X15.299 Y35.776 E113.05663
G1 X7.002 Y27.479 E113.43643
G1 X7.553 Y27.479 E113.45427
G1 X15.850 Y35.776 E113.83407
G1 X16.401 Y35.776 E113.85191
G1 X8.104 Y27.479 E114.23171
G1 X8.656 Y27.479 E114.24955
G1 X16.953 Y35.776 E114.62935
G1 X17.504 Y35.776 E114.64719
G1 X9.207 Y27.479 E115.02698
G1 X9.758 Y27.479 E115.04482
G1 X18.055 Y35.776 E115.42462
G1 X18.606 Y35.776 E115.44246
G1 X10.309 Y27.479 E115.82226
G1 X10.860 Y27.479 E115.84010
G1 X19.157 Y35.776 E116.21990
G1 X19.708 Y35.776 E116.23774
G1 X11.411 Y27.479 E116.61754
G1 X11.962 Y27.479 E116.63538
G1 X20.259 Y35.776 E117.01517
G1 X20.811 Y35.776 E117.03301
G1 X12.513 Y27.479 E117.41281
G1 X13.065 Y27.479 E117.43065
G1 X21.362 Y35.776 E117.81045
G1 X21.913 Y35.776 E117.82829
G1 X13.616 Y27.479 E118.20809
