; generated by Slic3r 0.9.10-dev on 2013-05-29 at 14:59:51

; layer_height = 0.3
; perimeters = 3
; top_solid_layers = 3
; bottom_solid_layers = 2
; fill_density = 0.14
; perimeter_speed = 60
; infill_speed = 80
; travel_speed = 300
; nozzle_diameter = 0.35
; filament_diameter = 1.75
; extrusion_multiplier = 1
; perimeters extrusion width = 0.37mm
; infill extrusion width = 0.37mm
; solid infill extrusion width = 0.37mm
; top infill extrusion width = 0.37mm

G21 ; set units to millimeters
M107
G28
G92 X0 Y0 Z0 E0
G1 F5000 Y30 X30
G1 X220
G1 F100 E10
G28
G92 X0 Y0 Z0
G1 F4000 X101 Y127
G92 X0 Y0 Z0 E0
M106 S255
G90 ; use absolute coordinates
G92 E0
M82 ; use absolute distances for extrusion
G1 F600.000 E-0.70000
G1 Z0.400 F18000.000
G92 E0
G1 X58.871 Y100.060
G1 Z0.200
G1 F600.000 E0.70000
G1 X58.851 Y100.130 F1080.000 E0.70220
G1 X58.771 Y100.250 E0.70656
G1 X58.651 Y100.330 E0.71093
G1 X58.581 Y100.350 E0.71313
G1 X-58.589 Y100.350 E4.25699
G1 X-58.659 Y100.330 E4.25919
G1 X-58.779 Y100.250 E4.26355
G1 X-58.859 Y100.130 E4.26792
G1 X-58.879 Y100.060 E4.27012
G1 X-58.879 Y-100.070 E10.32315
G1 X-58.859 Y-100.140 E10.32535
G1 X-58.779 Y-100.260 E10.32971
G1 X-58.659 Y-100.340 E10.33407
G1 X-58.589 Y-100.360 E10.33627
G1 X58.581 Y-100.360 E13.88014
G1 X58.651 Y-100.340 E13.88234
G1 X58.771 Y-100.260 E13.88670
G1 X58.851 Y-100.140 E13.89106
G1 X58.871 Y-100.070 E13.89326
G1 X58.871 Y100.005 E19.94464
G1 X59.964 Y100.149 F18000.000
G1 X59.875 Y100.526 F1080.000 E19.95635
G1 X59.816 Y100.654 E19.96061
G1 X59.611 Y100.962 E19.97181
G1 X59.483 Y101.089 E19.97726
G1 X59.175 Y101.295 E19.98846
G1 X59.047 Y101.354 E19.99273
G1 X58.670 Y101.443 E20.00443
G1 X-57.614 Y101.443 E23.52150
G1 X-57.997 Y101.656 E23.53476
G1 X-58.742 Y101.443 E23.55819
G1 X-59.517 Y101.443 E23.58162
G1 X-60.049 Y100.910 E23.60441
G1 X-60.049 Y99.790 E23.63831
G1 X-59.972 Y99.712 E23.64163
G1 X-59.972 Y-100.159 E29.68682
G1 X-59.882 Y-100.536 E29.69853
G1 X-59.823 Y-100.664 E29.70280
G1 X-59.618 Y-100.972 E29.71400
G1 X-59.490 Y-101.099 E29.71944
G1 X-59.182 Y-101.305 E29.73064
G1 X-59.054 Y-101.364 E29.73491
G1 X-58.678 Y-101.453 E29.74662
G1 X58.670 Y-101.453 E33.29587
G1 X59.047 Y-101.364 E33.30758
G1 X59.175 Y-101.305 E33.31184
G1 X59.483 Y-101.099 E33.32304
G1 X59.611 Y-100.972 E33.32849
G1 X59.816 Y-100.664 E33.33969
G1 X59.875 Y-100.536 E33.34395
G1 X59.964 Y-100.159 E33.35566
G1 X59.964 Y100.095 E39.41243
G1 X59.601 Y100.124 F18000.000
G1 X59.533 Y100.399 F1080.000 E39.42099
G1 X59.328 Y100.730 E39.43278
G1 X59.251 Y100.807 E39.43605
G1 X58.997 Y100.976 E39.44531
G1 X58.645 Y101.079 E39.45639
G1 X-57.708 Y101.079 E42.97554
G1 X-58.042 Y101.265 E42.98709
G1 X-58.691 Y101.079 E43.00751
G1 X-59.366 Y101.079 E43.02793
G1 X-59.685 Y100.760 E43.04160
G1 X-59.685 Y99.940 E43.06639
G1 X-59.608 Y99.863 E43.06970
G1 X-59.608 Y-100.134 E49.11869
G1 X-59.540 Y-100.409 E49.12725
G1 X-59.335 Y-100.740 E49.13905
G1 X-59.259 Y-100.817 E49.14231
G1 X-59.004 Y-100.986 E49.15157
G1 X-58.652 Y-101.089 E49.16265
G1 X58.645 Y-101.089 E52.71037
G1 X58.920 Y-101.022 E52.71894
G1 X59.251 Y-100.817 E52.73073
G1 X59.328 Y-100.740 E52.73400
G1 X59.498 Y-100.485 E52.74325
G1 X59.601 Y-100.134 E52.75434
G1 X59.601 Y100.069 E58.80957
G1 X59.237 Y100.098 F18000.000
G1 X59.179 Y100.297 F1080.000 E58.81583
G1 X59.045 Y100.498 E58.82314
G1 X58.819 Y100.658 E58.83153
G1 X58.620 Y100.716 E58.83779
G1 X-57.931 Y100.716 E62.36291
G1 X-57.955 Y100.801 E62.36558
G1 X-58.087 Y100.874 E62.37014
G1 X-58.640 Y100.716 E62.38754
G1 X-59.215 Y100.716 E62.40494
G1 X-59.322 Y100.609 E62.40950
G1 X-59.322 Y100.091 E62.42517
G1 X-59.244 Y100.013 E62.42849
G1 X-59.244 Y-100.108 E68.48127
G1 X-59.187 Y-100.307 E68.48753
G1 X-59.052 Y-100.508 E68.49484
G1 X-58.826 Y-100.668 E68.50322
G1 X-58.627 Y-100.726 E68.50948
G1 X58.620 Y-100.726 E72.05567
G1 X58.819 Y-100.668 E72.06193
G1 X59.020 Y-100.534 E72.06924
G1 X59.179 Y-100.307 E72.07763
G1 X59.237 Y-100.108 E72.08389
G1 X59.237 Y100.044 E78.13759
G1 X58.337 Y99.818 F18000.000
G1 X-58.337 Y99.818 F1080.000 E81.66643
G1 X-58.337 Y-99.818 E87.70453
G1 X58.337 Y-99.818 E91.23337
G1 X58.337 Y99.764 E97.26981
G1 X58.022 Y99.636 F18000.000
G1 X57.973 Y99.454
G1 X-57.973 Y99.454 F1080.000 E100.77666
G1 X-57.973 Y-99.454 E106.79275
G1 X57.973 Y-99.454 E110.29959
G1 X57.973 Y99.400 E116.31403
G1 X57.609 Y99.091 F18000.000
G1 X-57.609 Y99.091 F1080.000 E119.79887
G1 X-57.609 Y-99.091 E125.79295
G1 X57.609 Y-99.091 E129.27779
G1 X57.609 Y99.036 E135.27023
G1 F600.000 E134.57023
G1 Z0.400 F18000.000
G92 E0
G1 X-57.118 Y98.827
G1 Z0.200
G1 F600.000 E0.70000
G1 X-57.346 Y98.600 F1440.000 E0.70973
G1 X-57.346 Y98.085 E0.72531
G1 X-56.604 Y98.827 E0.75707
G1 X-56.089 Y98.827 E0.77264
G1 X-57.346 Y97.570 E0.82643
G1 X-57.346 Y97.056 E0.84200
G1 X-55.574 Y98.827 E0.91781
G1 X-55.060 Y98.827 E0.93338
G1 X-57.346 Y96.541 E1.03122
G1 X-57.346 Y96.026 E1.04679
G1 X-54.545 Y98.827 E1.16665
G1 X-54.030 Y98.827 E1.18223
G1 X-57.346 Y95.512 E1.32411
G1 X-57.346 Y94.997 E1.33969
G1 X-53.516 Y98.827 E1.50360
G1 X-53.001 Y98.827 E1.51917
G1 X-57.346 Y94.482 E1.70511
G1 X-57.346 Y93.968 E1.72069
G1 X-52.486 Y98.827 E1.92865
G1 X-51.972 Y98.827 E1.94422
G1 X-57.346 Y93.453 E2.17421
G1 X-57.346 Y92.938 E2.18978
G1 X-51.457 Y98.827 E2.44180
G1 X-50.942 Y98.827 E2.45737
G1 X-57.346 Y92.424 E2.73141
G1 X-57.346 Y91.909 E2.74698
G1 X-50.427 Y98.827 E3.04305
G1 X-49.913 Y98.827 E3.05862
G1 X-57.346 Y91.394 E3.37671
G1 X-57.346 Y90.880 E3.39229
G1 X-49.398 Y98.827 E3.73240
G1 X-48.883 Y98.827 E3.74798
G1 X-57.346 Y90.365 E4.11012
G1 X-57.346 Y89.850 E4.12569
G1 X-48.369 Y98.827 E4.50986
G1 X-47.854 Y98.827 E4.52543
G1 X-57.346 Y89.336 E4.93162
G1 X-57.346 Y88.821 E4.94719
G1 X-47.339 Y98.827 E5.37541
G1 X-46.825 Y98.827 E5.39099
G1 X-57.346 Y88.306 E5.84123
G1 X-57.346 Y87.791 E5.85680
G1 X-46.310 Y98.827 E6.32907
G1 X-45.795 Y98.827 E6.34464
G1 X-57.346 Y87.277 E6.83894
G1 X-57.346 Y86.762 E6.85451
G1 X-45.281 Y98.827 E7.37083
G1 X-44.766 Y98.827 E7.38640
G1 X-57.346 Y86.247 E7.92475
G1 X-57.346 Y85.733 E7.94032
G1 X-44.251 Y98.827 E8.50069
G1 X-43.737 Y98.827 E8.51626
G1 X-57.346 Y85.218 E9.09866
G1 X-57.346 Y84.703 E9.11423
G1 X-43.222 Y98.827 E9.71865
G1 X-42.707 Y98.827 E9.73423
G1 X-57.346 Y84.189 E10.36067
G1 X-57.346 Y83.674 E10.37625
G1 X-42.193 Y98.827 E11.02472
G1 X-41.678 Y98.827 E11.04029
G1 X-57.346 Y83.159 E11.71079
G1 X-57.346 Y82.645 E11.72636
G1 X-41.163 Y98.827 E12.41888
G1 X-40.649 Y98.827 E12.43446
G1 X-57.346 Y82.130 E13.14901
G1 X-57.346 Y81.615 E13.16458
G1 X-40.134 Y98.827 E13.90115
G1 X-39.619 Y98.827 E13.91673
G1 X-57.346 Y81.101 E14.67532
G1 X-57.346 Y80.586 E14.69090
G1 X-39.105 Y98.827 E15.47152
G1 X-38.590 Y98.827 E15.48710
G1 X-57.346 Y80.071 E16.28974
G1 X-57.346 Y79.557 E16.30532
G1 X-38.075 Y98.827 E17.12999
G1 X-37.561 Y98.827 E17.14557
G1 X-57.346 Y79.042 E17.99227
G1 X-57.346 Y78.527 E18.00784
G1 X-37.046 Y98.827 E18.87657
G1 X-36.531 Y98.827 E18.89214
G1 X-57.346 Y78.013 E19.78289
G1 X-57.346 Y77.498 E19.79847
G1 X-36.017 Y98.827 E20.71124
G1 X-35.502 Y98.827 E20.72682
G1 X-57.346 Y76.983 E21.66162
G1 X-57.346 Y76.469 E21.67719
G1 X-34.987 Y98.827 E22.63402
G1 X-34.473 Y98.827 E22.64959
G1 X-57.346 Y75.954 E23.62844
G1 X-57.346 Y75.439 E23.64402
G1 X-33.958 Y98.827 E24.64490
G1 X-33.443 Y98.827 E24.66047
G1 X-57.346 Y74.925 E25.68337
G1 X-57.346 Y74.410 E25.69895
G1 X-32.929 Y98.827 E26.74388
G1 X-32.414 Y98.827 E26.75945
G1 X-57.346 Y73.895 E27.82640
G1 X-57.346 Y73.381 E27.84198
G1 X-31.899 Y98.827 E28.93096
G1 X-31.385 Y98.827 E28.94653
G1 X-57.346 Y72.866 E30.05754
G1 X-57.346 Y72.351 E30.07311
G1 X-30.870 Y98.827 E31.20614
G1 X-30.355 Y98.827 E31.22171
G1 X-57.346 Y71.837 E32.37677
G1 X-57.346 Y71.322 E32.39234
G1 X-29.841 Y98.827 E33.56942
G1 X-29.326 Y98.827 E33.58500
G1 X-57.346 Y70.807 E34.78411
G1 X-57.346 Y70.293 E34.79968
G1 X-28.811 Y98.827 E36.02081
G1 X-28.297 Y98.827 E36.03639
G1 X-57.346 Y69.778 E37.27954
G1 X-57.346 Y69.263 E37.29512
G1 X-27.782 Y98.827 E38.56030
G1 X-27.267 Y98.827 E38.57587
G1 X-57.346 Y68.749 E39.86308
G1 X-57.346 Y68.234 E39.87866
G1 X-26.753 Y98.827 E41.18789
G1 X-26.238 Y98.827 E41.20346
G1 X-57.346 Y67.719 E42.53472
G1 X-57.346 Y67.205 E42.55030
G1 X-25.723 Y98.827 E43.90358
G1 X-25.209 Y98.827 E43.91916
G1 X-57.346 Y66.690 E45.29447
G1 X-57.346 Y66.175 E45.31004
G1 X-24.694 Y98.827 E46.70737
G1 X-24.179 Y98.827 E46.72295
G1 X-57.346 Y65.661 E48.14231
G1 X-57.346 Y65.146 E48.15788
G1 X-23.665 Y98.827 E49.59927
G1 X-23.150 Y98.827 E49.61484
G1 X-57.346 Y64.631 E51.07826
G1 X-57.346 Y64.117 E51.09383
G1 X-22.635 Y98.827 E52.57927
G1 X-22.121 Y98.827 E52.59484
G1 X-57.346 Y63.602 E54.10230
G1 X-57.346 Y63.087 E54.11788
G1 X-21.606 Y98.827 E55.64736
G1 X-21.091 Y98.827 E55.66294
G1 X-57.346 Y62.573 E57.21445
G1 X-57.346 Y62.058 E57.23003
G1 X-20.577 Y98.827 E58.80356
G1 X-20.062 Y98.827 E58.81914
G1 X-57.346 Y61.543 E60.41470
G1 X-57.346 Y61.029 E60.43028
G1 X-19.547 Y98.827 E62.04787
G1 X-19.033 Y98.827 E62.06344
G1 X-57.346 Y60.514 E63.70306
G1 X-57.346 Y59.999 E63.71863
G1 X-18.518 Y98.827 E65.38027
G1 X-18.003 Y98.827 E65.39584
G1 X-57.346 Y59.485 E67.07951
G1 X-57.346 Y58.970 E67.09508
G1 X-17.489 Y98.827 E68.80077
G1 X-16.974 Y98.827 E68.81635
G1 X-57.346 Y58.455 E70.54407
G1 X-57.346 Y57.941 E70.55964
G1 X-16.459 Y98.827 E72.30938
G1 X-15.944 Y98.827 E72.32496
G1 X-57.346 Y57.426 E74.09672
G1 X-57.346 Y56.911 E74.11230
G1 X-15.430 Y98.827 E75.90609
G1 X-14.915 Y98.827 E75.92166
G1 X-57.346 Y56.397 E77.73748
G1 X-57.346 Y55.882 E77.75306
G1 X-14.400 Y98.827 E79.59090
G1 X-13.886 Y98.827 E79.60647
G1 X-57.346 Y55.367 E81.46634
G1 X-57.346 Y54.853 E81.48192
G1 X-13.371 Y98.827 E83.36381
G1 X-12.856 Y98.827 E83.37939
G1 X-57.346 Y54.338 E85.28331
G1 X-57.346 Y53.823 E85.29888
G1 X-12.342 Y98.827 E87.22483
G1 X-11.827 Y98.827 E87.24040
G1 X-57.346 Y53.309 E89.18837
G1 X-57.346 Y52.794 E89.20394
G1 X-11.312 Y98.827 E91.17394
G1 X-10.798 Y98.827 E91.18952
G1 X-57.346 Y52.279 E93.18154
G1 X-57.346 Y51.764 E93.19711
G1 X-10.283 Y98.827 E95.21116
G1 X-9.768 Y98.827 E95.22673
G1 X-57.346 Y51.250 E97.26280
G1 X-57.346 Y50.735 E97.27838
G1 X-9.254 Y98.827 E99.33648
G1 X-8.739 Y98.827 E99.35205
G1 X-57.346 Y50.220 E101.43217
G1 X-57.346 Y49.706 E101.44775
G1 X-8.224 Y98.827 E103.54990
G1 X-7.710 Y98.827 E103.56547
G1 X-57.346 Y49.191 E105.68964
G1 X-57.346 Y48.676 E105.70522
G1 X-7.195 Y98.827 E107.85142
G1 X-6.680 Y98.827 E107.86699
G1 X-57.346 Y48.162 E110.03522
G1 X-57.346 Y47.647 E110.05079
G1 X-6.166 Y98.827 E112.24104
G1 X-5.651 Y98.827 E112.25662
G1 X-57.346 Y47.132 E114.46889
G1 X-57.346 Y46.618 E114.48447
G1 X-5.136 Y98.827 E116.71877
G1 X-4.622 Y98.827 E116.73434
G1 X-57.346 Y46.103 E118.99067
G1 X-57.346 Y45.588 E119.00624
G1 X-4.107 Y98.827 E121.28459
G1 X-3.592 Y98.827 E121.30017
G1 X-57.346 Y45.074 E123.60055
G1 X-57.346 Y44.559 E123.61612
G1 X-3.078 Y98.827 E125.93852
G1 X-2.563 Y98.827 E125.95410
G1 X-57.346 Y44.044 E128.29853
G1 X-57.346 Y43.530 E128.31410
G1 X-2.048 Y98.827 E130.68055
G1 X-1.534 Y98.827 E130.69613
G1 X-57.346 Y43.015 E133.08461
G1 X-57.346 Y42.500 E133.10018
G1 X-1.019 Y98.827 E135.51069
G1 X-0.504 Y98.827 E135.52626
G1 X-57.346 Y41.986 E137.95879
G1 X-57.346 Y41.471 E137.97436
G1 X0.010 Y98.827 E140.42892
G1 X0.525 Y98.827 E140.44449
G1 X-57.346 Y40.956 E142.92107
G1 X-57.346 Y40.442 E142.93665
G1 X1.040 Y98.827 E145.43526
G1 X1.554 Y98.827 E145.45083
G1 X-57.346 Y39.927 E147.97146
G1 X-57.346 Y39.412 E147.98704
G1 X2.069 Y98.827 E150.52969
G1 X2.584 Y98.827 E150.54527
G1 X-57.346 Y38.898 E153.10995
G1 X-57.346 Y38.383 E153.12552
G1 X3.098 Y98.827 E155.71223
G1 X3.613 Y98.827 E155.72781
G1 X-57.346 Y37.868 E158.33654
G1 X-57.346 Y37.354 E158.35211
G1 X4.128 Y98.827 E160.98287
G1 X4.642 Y98.827 E160.99845
G1 X-57.346 Y36.839 E163.65123
G1 X-57.346 Y36.324 E163.66680
G1 X5.157 Y98.827 E166.34161
G1 X5.672 Y98.827 E166.35719
G1 X-57.346 Y35.810 E169.05402
G1 X-57.346 Y35.295 E169.06960
G1 X6.186 Y98.827 E171.78846
G1 X6.701 Y98.827 E171.80403
G1 X-57.346 Y34.780 E174.54492
G1 X-57.346 Y34.266 E174.56049
G1 X7.216 Y98.827 E177.32340
G1 X7.730 Y98.827 E177.33898
G1 X-57.346 Y33.751 E180.12391
G1 X-57.346 Y33.236 E180.13949
G1 X8.245 Y98.827 E182.94645
G1 X8.760 Y98.827 E182.96202
G1 X-57.346 Y32.722 E185.79101
G1 X-57.346 Y32.207 E185.80659
G1 X9.274 Y98.827 E188.65760
G1 X9.789 Y98.827 E188.67317
G1 X-57.346 Y31.692 E191.54621
G1 X-57.346 Y31.178 E191.56179
G1 X10.304 Y98.827 E194.45685
G1 X10.818 Y98.827 E194.47242
G1 X-57.346 Y30.663 E197.38951
G1 X-57.346 Y30.148 E197.40509
G1 X11.333 Y98.827 E200.34420
G1 X11.848 Y98.827 E200.35978
G1 X-57.346 Y29.634 E203.32092
G1 X-57.346 Y29.119 E203.33649
G1 X12.362 Y98.827 E206.31966
G1 X12.877 Y98.827 E206.33523
G1 X-57.346 Y28.604 E209.34042
G1 X-57.346 Y28.090 E209.35600
G1 X13.392 Y98.827 E212.38321
G1 X13.906 Y98.827 E212.39879
G1 X-57.346 Y27.575 E215.44803
G1 X-57.346 Y27.060 E215.46360
G1 X14.421 Y98.827 E218.53487
G1 X14.936 Y98.827 E218.55044
G1 X-57.346 Y26.546 E221.64374
G1 X-57.346 Y26.031 E221.65931
G1 X15.450 Y98.827 E224.77463
G1 X15.965 Y98.827 E224.79020
G1 X-57.346 Y25.516 E227.92755
G1 X-57.346 Y25.002 E227.94312
G1 X16.480 Y98.827 E231.10249
G1 X16.994 Y98.827 E231.11806
G1 X-57.346 Y24.487 E234.29946
G1 X-57.346 Y23.972 E234.31503
G1 X17.509 Y98.827 E237.51845
G1 X18.024 Y98.827 E237.53403
G1 X-57.346 Y23.458 E240.75947
G1 X-57.346 Y22.943 E240.77505
G1 X18.538 Y98.827 E244.02252
G1 X19.053 Y98.827 E244.03809
G1 X-57.346 Y22.428 E247.30759
G1 X-57.346 Y21.914 E247.32316
G1 X19.568 Y98.827 E250.61468
G1 X20.083 Y98.827 E250.63026
G1 X-57.346 Y21.399 E253.94380
G1 X-57.346 Y20.884 E253.95938
G1 X20.597 Y98.827 E257.29495
G1 X21.112 Y98.827 E257.31052
G1 X-57.346 Y20.370 E260.66812
G1 X-57.346 Y19.855 E260.68370
G1 X21.627 Y98.827 E264.06332
G1 X22.141 Y98.827 E264.07889
G1 X-57.346 Y19.340 E267.48054
G1 X-57.346 Y18.826 E267.49612
G1 X22.656 Y98.827 E270.91979
G1 X23.171 Y98.827 E270.93536
G1 X-57.346 Y18.311 E274.38106
G1 X-57.346 Y17.796 E274.39664
G1 X23.685 Y98.827 E277.86436
G1 X24.200 Y98.827 E277.87994
G1 X-57.346 Y17.281 E281.36969
G1 X-57.346 Y16.767 E281.38526
G1 X24.715 Y98.827 E284.89704
G1 X25.229 Y98.827 E284.91261
G1 X-57.346 Y16.252 E288.44641
G1 X-57.346 Y15.737 E288.46199
G1 X25.744 Y98.827 E292.01781
G1 X26.259 Y98.827 E292.03339
G1 X-57.346 Y15.223 E295.61124
G1 X-57.346 Y14.708 E295.62681
G1 X26.773 Y98.827 E299.22669
G1 X27.288 Y98.827 E299.24226
G1 X-57.346 Y14.193 E302.86417
G1 X-57.346 Y13.679 E302.87974
G1 X27.803 Y98.827 E306.52367
G1 X28.317 Y98.827 E306.53924
G1 X-57.346 Y13.164 E310.20520
G1 X-57.346 Y12.649 E310.22077
G1 X28.832 Y98.827 E313.90875
G1 X29.347 Y98.827 E313.92433
G1 X-57.346 Y12.135 E317.63433
G1 X-57.346 Y11.620 E317.64990
G1 X29.861 Y98.827 E321.38193
G1 X30.376 Y98.827 E321.39751
G1 X-57.346 Y11.105 E325.15156
G1 X-57.346 Y10.591 E325.16714
G1 X30.891 Y98.827 E328.94322
G1 X31.405 Y98.827 E328.95879
G1 X-57.346 Y10.076 E332.75690
G1 X-57.346 Y9.561 E332.77247
G1 X31.920 Y98.827 E336.59260
G1 X32.435 Y98.827 E336.60818
G1 X-57.346 Y9.047 E340.45034
G1 X-57.346 Y8.532 E340.46591
G1 X32.949 Y98.827 E344.33009
G1 X33.464 Y98.827 E344.34567
G1 X-57.346 Y8.017 E348.23187
G1 X-57.346 Y7.503 E348.24745
G1 X33.979 Y98.827 E352.15568
G1 X34.493 Y98.827 E352.17126
G1 X-57.346 Y6.988 E356.10151
G1 X-57.346 Y6.473 E356.11709
G1 X35.008 Y98.827 E360.06937
G1 X35.523 Y98.827 E360.08495
G1 X-57.346 Y5.959 E364.05926
G1 X-57.346 Y5.444 E364.07483
G1 X36.037 Y98.827 E368.07117
G1 X36.552 Y98.827 E368.08674
G1 X-57.346 Y4.929 E372.10510
G1 X-57.346 Y4.415 E372.12067
G1 X37.067 Y98.827 E376.16106
G1 X37.581 Y98.827 E376.17663
G1 X-57.346 Y3.900 E380.23904
G1 X-57.346 Y3.385 E380.25462
G1 X38.096 Y98.827 E384.33906
G1 X38.611 Y98.827 E384.35463
G1 X-57.346 Y2.871 E388.46109
G1 X-57.346 Y2.356 E388.47667
G1 X39.125 Y98.827 E392.60515
G1 X39.640 Y98.827 E392.62073
G1 X-57.346 Y1.841 E396.77124
G1 X-57.346 Y1.327 E396.78681
G1 X40.155 Y98.827 E400.95935
