; generated by PrusaSlicer 2.3.3 on 2021-08-29 at 12:38:17 UTC

; 

; external perimeters extrusion width = 0.39mm
; perimeters extrusion width = 0.39mm
; infill extrusion width = 0.39mm
; solid infill extrusion width = 0.39mm
; top infill extrusion width = 0.35mm
; support material extrusion width = 0.31mm
; first layer extrusion width = 0.37mm

M201 X9000 Y9000 Z500 E10000 ; sets maximum accelerations, mm/sec^2
M203 X500 Y500 Z12 E120 ; sets maximum feedrates, mm/sec
M204 P1500 R1500 T1500 ; sets acceleration (P, T) and retract acceleration (R), mm/sec^2
M205 X10.00 Y10.00 Z0.20 E2.50 ; sets the jerk limits, mm/sec
M205 S0 T0 ; sets the minimum extruding and travel feed rate, mm/sec
M107
M190 S38 ; set bed temperature and wait for it to be reached
;TYPE:Custom
M109 S184 ; set temperature and wait for it to be reached START_CUSTOM
G28 ; home all axes
G1 Z1 F5000 ; lift nozzle

;; change mode relative
G91
M83

G1 X210 Y15 F5000 ; move to right
G1 E25  F300      ; extrude some

G1 Z-1.22   F4000 ; lower nozzle
G1 X-25 Y5  F4000 ; wipe nozzle
G1 X10  Y-5 F4000 ; wipe nozzle
G1 X-25 Y5  F4000 ; wipe nozzle
G1 X10  Y-5 F4000 ; wipe nozzle
G1 X-25 Y5  F4000 ; wipe nozzle
G1 X10  Y-5 F4000 ; wipe nozzle
G1 Z1.22    F4000 ; lift nozzle

;; reset mode
M82
G90

G28 ; home all axes
G1 Z5 F5000 ; lift nozzle END_CUSTOM
G21 ; set units to millimeters
G90 ; use absolute coordinates
M82 ; use absolute distances for extrusion
G92 E0
; Filament gcode
;LAYER_CHANGE
;Z:0.32
;HEIGHT:0.32
G1 E-3.00000 F1800.000
G92 E0
G1 Z0.270 F4500.000
G1 X94.204 Y91.961
G1 E3.00000 F1800.000
;TYPE:Skirt
;WIDTH:0.37
G1 F1500.000
G1 X96.094 Y90.246 E3.09463
G1 X96.873 Y89.647 E3.13108
G1 X98.930 Y88.274 E3.22278
G1 X101.494 Y86.986 E3.32919
G1 X104.183 Y86.041 E3.43487
G1 X106.614 Y85.510 E3.52717
G1 X107.591 Y85.367 E3.56375
G1 X110.163 Y85.198 E3.65934
G1 X113.043 Y85.367 E3.76631
G1 X115.930 Y85.916 E3.87532
G1 X118.717 Y86.836 E3.98415
G1 X121.386 Y88.123 E4.09400
G1 X123.841 Y89.736 E4.20293
G1 X126.046 Y91.649 E4.31119
G1 X127.999 Y93.840 E4.42002
G1 X129.676 Y96.309 E4.53070
G1 X136.095 Y108.717 E5.04875
G1 X136.523 Y109.756 E5.09040
G1 X136.809 Y110.842 E5.13206
G1 X136.966 Y112.388 E5.18969
G1 X136.963 Y127.021 E5.73231
G1 X136.764 Y128.628 E5.79234
G1 X136.264 Y130.167 E5.85237
G1 X135.841 Y131.011 E5.88735
G1 X135.332 Y131.796 E5.92207
G1 X118.881 Y153.979 E6.94617
G1 X112.573 Y160.318 E7.27780
G1 X111.668 Y161.055 E7.32106
G1 X110.665 Y161.663 E7.36457
G1 X109.065 Y162.293 E7.42833
G1 X107.372 Y162.589 E7.49208
G1 X95.597 Y162.740 E7.92872
G1 X83.415 Y161.981 E8.38134
G1 X80.518 Y161.426 E8.49074
G1 X77.573 Y160.435 E8.60597
G1 X75.154 Y159.260 E8.70569
G1 X73.065 Y157.916 E8.79779
G1 X72.287 Y157.332 E8.83384
G1 X70.411 Y155.677 E8.92663
G1 X68.538 Y153.582 E9.03084
G1 X67.120 Y151.540 E9.12302
G1 X66.618 Y150.699 E9.15934
G1 X65.478 Y148.387 E9.25494
G1 X64.555 Y145.747 E9.35866
G1 X64.027 Y143.325 E9.45057
G1 X63.886 Y142.363 E9.48662
G1 X63.717 Y139.805 E9.58166
G1 X63.874 Y136.994 E9.68607
G1 X64.320 Y134.521 E9.77926
G1 X64.566 Y133.565 E9.81585
G1 X65.437 Y131.034 E9.91511
G1 X66.642 Y128.562 E10.01712
G1 X68.189 Y126.194 E10.12199
G1 X92.330 Y94.137 E11.61010
G1 X94.169 Y92.001 E11.71464
G1 X94.397 Y92.196 F4500.000
G1 F1500.000
G1 X96.282 Y90.482 E11.80914
G1 X97.038 Y89.899 E11.84455
G1 X99.078 Y88.537 E11.93549
G1 X101.608 Y87.265 E12.04049
G1 X104.268 Y86.331 E12.14503
G1 X106.669 Y85.806 E12.23617
G1 X107.613 Y85.667 E12.27157
G1 X110.160 Y85.500 E12.36621
G1 X113.001 Y85.665 E12.47176
G1 X115.857 Y86.209 E12.57956
G1 X118.607 Y87.116 E12.68694
G1 X121.239 Y88.387 E12.79532
G1 X123.661 Y89.978 E12.90279
G1 X125.836 Y91.865 E13.00956
G1 X127.759 Y94.022 E13.11670
G1 X129.421 Y96.470 E13.22641
G1 X135.823 Y108.846 E13.74314
G1 X136.235 Y109.847 E13.78326
G1 X136.512 Y110.893 E13.82338
G1 X136.664 Y112.390 E13.87920
G1 X136.662 Y127.010 E14.42133
G1 X136.469 Y128.567 E14.47950
G1 X135.983 Y130.058 E14.53767
G1 X135.087 Y131.621 E14.60445
G1 X118.652 Y153.783 E15.62761
G1 X112.374 Y160.092 E15.95764
G1 X111.497 Y160.807 E15.99960
G1 X110.530 Y161.394 E16.04155
G1 X108.979 Y162.005 E16.10338
G1 X107.336 Y162.289 E16.16520
G1 X95.608 Y162.439 E16.60012
G1 X83.458 Y161.683 E17.05157
G1 X80.598 Y161.136 E17.15952
G1 X77.680 Y160.153 E17.27371
G1 X75.299 Y158.996 E17.37187
G1 X73.231 Y157.664 E17.46308
G1 X72.479 Y157.099 E17.49796
G1 X70.622 Y155.461 E17.58979
G1 X68.769 Y153.387 E17.69292
G1 X67.365 Y151.365 E17.78421
G1 X66.884 Y150.557 E17.81909
G1 X65.755 Y148.268 E17.91373
G1 X64.844 Y145.662 E18.01609
G1 X64.322 Y143.264 E18.10711
G1 X64.186 Y142.333 E18.14199
G1 X64.018 Y139.808 E18.23582
G1 X64.174 Y137.027 E18.33911
G1 X64.616 Y134.578 E18.43139
G1 X64.854 Y133.653 E18.46680
G1 X65.716 Y131.148 E18.56504
G1 X66.902 Y128.714 E18.66545
G1 X68.433 Y126.372 E18.76920
G1 X92.570 Y94.319 E20.25713
G1 X94.363 Y92.236 E20.35902
G1 X94.590 Y92.432 F4500.000
G1 F1500.000
G1 X96.482 Y90.708 E20.45391
G1 X97.207 Y90.148 E20.48789
G1 X99.226 Y88.799 E20.57793
G1 X101.728 Y87.541 E20.68178
G1 X104.352 Y86.620 E20.78492
G1 X106.730 Y86.101 E20.87516
G1 X107.643 Y85.967 E20.90940
G1 X110.164 Y85.801 E21.00307
G1 X112.967 Y85.965 E21.10720
G1 X115.778 Y86.499 E21.21328
G1 X118.497 Y87.397 E21.31946
G1 X121.093 Y88.650 E21.42637
G1 X123.482 Y90.220 E21.53238
G1 X125.626 Y92.081 E21.63766
G1 X127.523 Y94.209 E21.74337
G1 X129.162 Y96.624 E21.85159
G1 X135.551 Y108.976 E22.36726
G1 X135.948 Y109.938 E22.40587
G1 X136.215 Y110.944 E22.44447
G1 X136.363 Y112.393 E22.49848
G1 X136.360 Y126.999 E23.04008
G1 X136.173 Y128.506 E23.09640
G1 X135.702 Y129.949 E23.15272
G1 X134.842 Y131.446 E23.21672
G1 X118.419 Y153.593 E24.23916
G1 X112.175 Y159.865 E24.56734
G1 X111.331 Y160.555 E24.60774
G1 X110.394 Y161.125 E24.64840
G1 X108.891 Y161.716 E24.70831
G1 X107.306 Y161.989 E24.76796
G1 X95.612 Y162.138 E25.20162
G1 X83.493 Y161.384 E25.65190
G1 X80.672 Y160.843 E25.75841
G1 X77.788 Y159.871 E25.87127
G1 X75.444 Y158.732 E25.96789
G1 X73.397 Y157.413 E26.05819
G1 X72.670 Y156.867 E26.09192
G1 X70.832 Y155.246 E26.18280
G1 X69.004 Y153.199 E26.28457
G1 X67.614 Y151.196 E26.37496
G1 X67.149 Y150.414 E26.40868
G1 X66.032 Y148.149 E26.50236
G1 X65.133 Y145.578 E26.60336
G1 X64.617 Y143.203 E26.69348
G1 X64.486 Y142.303 E26.72720
G1 X64.320 Y139.804 E26.82008
G1 X64.473 Y137.060 E26.92200
G1 X64.912 Y134.635 E27.01336
G1 X65.142 Y133.741 E27.04759
G1 X65.998 Y131.256 E27.14506
G1 X67.166 Y128.860 E27.24389
G1 X68.676 Y126.550 E27.34625
G1 X92.811 Y94.501 E28.83399
G1 X94.556 Y92.472 E28.93323
G1 X94.784 Y92.668 F4500.000
G1 F1500.000
G1 X96.676 Y90.939 E29.02827
G1 X97.376 Y90.398 E29.06109
G1 X99.374 Y89.061 E29.15023
G1 X101.842 Y87.820 E29.25267
G1 X104.437 Y86.909 E29.35465
G1 X106.791 Y86.396 E29.44399
G1 X107.674 Y86.267 E29.47706
G1 X110.161 Y86.102 E29.56951
G1 X112.927 Y86.263 E29.67223
G1 X115.705 Y86.792 E29.77710
G1 X118.380 Y87.675 E29.88157
G1 X120.941 Y88.910 E29.98701
G1 X123.297 Y90.458 E30.09155
G1 X125.411 Y92.293 E30.19535
G1 X127.283 Y94.392 E30.29963
G1 X128.903 Y96.779 E30.40660
G1 X135.279 Y109.105 E30.92122
G1 X135.661 Y110.030 E30.95833
G1 X135.919 Y110.997 E30.99543
G1 X136.062 Y112.398 E31.04765
G1 X136.059 Y126.988 E31.58868
G1 X135.878 Y128.446 E31.64315
G1 X135.420 Y129.841 E31.69763
G1 X134.595 Y131.273 E31.75889
G1 X118.185 Y153.403 E32.78054
G1 X111.970 Y159.644 E33.10713
G1 X111.159 Y160.308 E33.14600
G1 X110.258 Y160.856 E33.18513
G1 X108.809 Y161.426 E33.24287
G1 X107.274 Y161.689 E33.30061
G1 X95.616 Y161.836 E33.73294
G1 X83.535 Y161.085 E34.18181
G1 X80.752 Y160.553 E34.28688
G1 X77.896 Y159.589 E34.39866
G1 X75.589 Y158.468 E34.49375
G1 X73.558 Y157.157 E34.58340
G1 X71.042 Y155.030 E34.70556
G1 X69.239 Y153.010 E34.80599
G1 X67.864 Y151.027 E34.89547
G1 X67.415 Y150.272 E34.92804
G1 X66.309 Y148.030 E35.02074
G1 X65.422 Y145.493 E35.12040
G1 X64.912 Y143.142 E35.20961
G1 X64.786 Y142.273 E35.24218
G1 X64.621 Y139.799 E35.33411
G1 X64.773 Y137.092 E35.43465
G1 X65.208 Y134.692 E35.52508
G1 X65.431 Y133.829 E35.55815
G1 X66.279 Y131.364 E35.65483
G1 X67.429 Y129.006 E35.75210
G1 X68.919 Y126.727 E35.85306
G1 X93.051 Y94.682 E37.34061
G1 X94.750 Y92.707 E37.43721
G1 X94.977 Y92.903 F4500.000
G1 F1500.000
G1 X95.045 Y92.824 E37.44107
G1 X97.545 Y90.647 E37.56402
G1 X99.523 Y89.323 E37.65225
G1 X101.957 Y88.099 E37.75328
G1 X104.522 Y87.198 E37.85411
G1 X106.852 Y86.691 E37.94254
G1 X107.697 Y86.568 E37.97420
G1 X110.166 Y86.404 E38.06593
G1 X112.893 Y86.563 E38.16724
G1 X115.626 Y87.082 E38.27039
G1 X118.270 Y87.955 E38.37366
G1 X120.795 Y89.174 E38.47762
G1 X123.118 Y90.701 E38.58070
G1 X125.202 Y92.509 E38.68301
G1 X127.048 Y94.579 E38.78586
G1 X128.645 Y96.933 E38.89134
G1 X135.004 Y109.229 E39.40467
G1 X135.374 Y110.123 E39.44053
G1 X135.622 Y111.051 E39.47615
G1 X135.760 Y112.403 E39.52658
G1 X135.758 Y126.970 E40.06675
G1 X135.584 Y128.379 E40.11939
G1 X135.141 Y129.728 E40.17204
G1 X134.351 Y131.095 E40.23059
G1 X117.955 Y153.208 E41.25140
G1 X111.771 Y159.418 E41.57641
G1 X110.986 Y160.061 E41.61400
G1 X110.120 Y160.588 E41.65160
G1 X108.725 Y161.137 E41.70720
G1 X107.240 Y161.390 E41.76304
G1 X95.627 Y161.535 E42.19373
G1 X83.576 Y160.787 E42.64146
G1 X80.825 Y160.260 E42.74532
G1 X78.010 Y159.310 E42.85550
G1 X75.734 Y158.204 E42.94933
G1 X73.729 Y156.910 E43.03782
G1 X71.258 Y154.819 E43.15788
G1 X69.478 Y152.826 E43.25696
G1 X68.117 Y150.863 E43.34553
G1 X66.588 Y147.917 E43.46861
G1 X65.711 Y145.408 E43.56716
G1 X65.207 Y143.081 E43.65546
G1 X64.922 Y139.801 E43.77754
G1 X65.072 Y137.124 E43.87695
G1 X65.504 Y134.750 E43.96646
G1 X65.719 Y133.916 E43.99837
G1 X66.561 Y131.472 E44.09424
G1 X67.693 Y129.152 E44.18995
G1 X69.163 Y126.905 E44.28953
G1 X93.291 Y94.864 E45.77688
G1 X94.943 Y92.943 E45.87083
;WIPE_START
G1 F3600.000
G1 X95.045 Y92.824 E45.79650
G1 X97.545 Y90.647 E44.22157
G1 X99.523 Y89.323 E43.09135
G1 X99.656 Y89.257 E43.02083
;WIPE_END
G1 E42.87083 F1800.000
G92 E0
G1 X124.241 Y129.529 F4500.000
G1 E3.00000 F1800.000
;TYPE:Support material
G1 F1500.000
G1 X124.241 Y120.292 E3.34252
G1 X123.638 Y121.092 E3.37967
G1 X123.638 Y129.393 E3.68748
G1 X123.264 Y129.393 E3.70137
G1 X123.264 Y132.139 E3.80318
G1 X123.036 Y132.139 E3.81164
G1 X123.036 Y121.893 E4.19159
G1 X122.433 Y122.693 E4.22874
G1 X122.433 Y132.139 E4.57902
G1 X121.830 Y132.139 E4.60137
G1 X121.830 Y123.493 E4.92197
G1 X121.228 Y124.294 E4.95912
G1 X121.228 Y132.139 E5.25004
G1 X120.625 Y132.139 E5.27239
G1 X120.625 Y125.094 E5.53364
G1 X120.022 Y125.894 E5.57079
G1 X120.022 Y137.630 E6.00599
G1 X119.420 Y137.630 E6.02834
G1 X119.420 Y126.694 E6.43386
G1 X118.817 Y127.495 E6.47101
G1 X118.817 Y137.630 E6.84686
G1 X118.214 Y137.630 E6.86921
G1 X118.214 Y128.295 E7.21538
G1 X117.612 Y129.095 E7.25253
G1 X117.612 Y140.376 E7.67084
G1 X117.009 Y140.376 E7.69319
G1 X117.009 Y129.895 E8.08183
G1 X116.406 Y130.696 E8.11897
G1 X116.406 Y140.376 E8.47793
G1 X115.804 Y140.376 E8.50028
G1 X115.804 Y131.496 E8.82957
G1 X115.201 Y132.296 E8.86672
G1 X115.201 Y140.376 E9.16633
G1 X115.027 Y140.376 E9.17278
G1 X115.027 Y143.121 E9.27460
G1 X114.598 Y143.121 E9.29049
G1 X114.598 Y133.096 E9.66223
G1 X113.996 Y133.897 E9.69938
G1 X113.996 Y143.121 E10.04145
G1 X113.393 Y143.121 E10.06380
G1 X113.393 Y134.697 E10.37620
G1 X112.790 Y135.497 E10.41335
G1 X112.790 Y143.121 E10.69607
G1 X112.281 Y143.121 E10.71495
G1 X112.281 Y148.613 E10.91857
G1 X112.188 Y148.613 E10.92204
G1 X112.188 Y136.298 E11.37871
G1 X111.585 Y137.098 E11.41586
G1 X111.585 Y148.613 E11.84286
G1 X110.982 Y148.613 E11.86520
G1 X110.982 Y137.898 E12.26252
G1 X110.380 Y138.698 E12.29967
G1 X110.380 Y148.613 E12.66732
G1 X109.777 Y148.613 E12.68967
G1 X109.777 Y139.499 E13.02764
G1 X109.174 Y140.299 E13.06478
G1 X109.174 Y151.358 E13.47489
G1 X108.572 Y151.358 E13.49724
G1 X108.572 Y141.099 E13.87767
G1 X107.969 Y141.899 E13.91482
G1 X107.969 Y151.358 E14.26557
G1 X107.367 Y151.358 E14.28792
G1 X107.367 Y142.700 E14.60900
G1 X106.764 Y143.500 E14.64615
G1 X106.764 Y154.104 E15.03937
G1 X106.161 Y154.104 E15.06172
G1 X106.161 Y144.300 E15.42526
G1 X105.559 Y145.101 E15.46241
G1 X105.559 Y154.104 E15.79627
G1 X104.956 Y154.104 E15.81862
G1 X104.956 Y145.901 E16.12281
G1 X104.353 Y146.701 E16.15996
G1 X104.353 Y154.104 E16.43448
G1 X103.751 Y154.104 E16.45682
G1 X103.751 Y147.501 E16.70166
G1 X103.148 Y148.302 E16.73881
G1 X103.148 Y154.104 E16.95398
G1 X102.545 Y154.104 E16.97633
G1 X102.545 Y149.102 E17.16181
G1 X101.943 Y149.902 E17.19896
G1 X101.943 Y154.104 E17.35478
G1 X101.340 Y154.104 E17.37712
G1 X101.340 Y150.565 E17.50836
G1 X101.217 Y150.661 E17.51414
G1 X101.133 Y150.696 E17.51751
G1 X100.737 Y150.752 E17.53235
G1 X100.737 Y154.104 E17.65663
G1 X100.135 Y154.104 E17.67898
G1 X100.135 Y150.572 E17.80995
G1 X99.532 Y150.122 E17.83784
G1 X99.532 Y154.104 E17.98549
G1 X98.929 Y154.104 E18.00784
G1 X98.929 Y149.668 E18.17232
G1 X98.327 Y149.214 E18.20030
G1 X98.327 Y154.104 E18.38161
G1 X97.724 Y154.104 E18.40396
G1 X97.724 Y148.761 E18.60210
G1 X97.430 Y148.539 E18.61575
G1 X97.121 Y148.898 E18.63330
G1 X97.121 Y154.104 E18.82635
G1 X96.519 Y154.104 E18.84869
G1 X96.519 Y149.598 E19.01577
G1 X96.423 Y149.707 E19.02114
G1 X95.916 Y150.160 E19.04634
G1 X95.916 Y154.240 E19.19763
;WIPE_START
G1 F3600.000
G1 X95.916 Y150.160 E17.25972
G1 X96.423 Y149.707 E16.93690
G1 X96.519 Y149.598 E16.86812
G1 X96.519 Y150.694 E16.34763
;WIPE_END
G1 E16.19763 F1800.000
G92 E0
G1 X99.532 Y145.559 F4500.000
G1 E3.00000 F1800.000
G1 F1500.000
G1 X99.532 Y146.567 E3.03737
G1 X100.135 Y147.020 E3.06535
G1 X100.135 Y144.984 E3.14086
G1 X100.737 Y144.184 E3.17801
G1 X100.737 Y146.624 E3.26850
G1 X101.340 Y145.824 E3.30565
G1 X101.340 Y143.383 E3.39614
G1 X101.943 Y142.583 E3.43329
G1 X101.943 Y145.023 E3.52378
G1 X102.545 Y144.223 E3.56093
G1 X102.545 Y141.783 E3.65142
G1 X103.148 Y140.983 E3.68857
G1 X103.148 Y143.423 E3.77906
G1 X103.751 Y142.623 E3.81621
G1 X103.751 Y140.182 E3.90670
G1 X104.353 Y139.382 E3.94385
G1 X104.353 Y141.822 E4.03434
G1 X104.956 Y141.022 E4.07149
G1 X104.956 Y138.582 E4.16198
G1 X105.559 Y137.782 E4.19913
G1 X105.559 Y140.222 E4.28962
G1 X106.161 Y139.422 E4.32677
G1 X106.161 Y136.981 E4.41726
G1 X106.764 Y136.181 E4.45441
G1 X106.764 Y138.621 E4.54490
G1 X107.367 Y137.821 E4.58205
G1 X107.367 Y135.381 E4.67254
G1 X107.969 Y134.580 E4.70969
G1 X107.969 Y137.021 E4.80018
G1 X108.572 Y136.220 E4.83733
G1 X108.572 Y133.780 E4.92783
G1 X109.174 Y132.980 E4.96497
G1 X109.174 Y135.420 E5.05547
G1 X109.777 Y134.620 E5.09261
G1 X109.777 Y132.180 E5.18311
G1 X110.380 Y131.379 E5.22025
G1 X110.380 Y133.820 E5.31075
G1 X110.982 Y133.019 E5.34790
G1 X110.982 Y130.579 E5.43839
G1 X111.585 Y129.779 E5.47554
G1 X111.585 Y132.219 E5.56603
G1 X112.188 Y131.419 E5.60318
G1 X112.188 Y128.979 E5.69367
G1 X112.790 Y128.178 E5.73082
G1 X112.790 Y130.619 E5.82131
G1 X113.393 Y129.818 E5.85846
G1 X113.393 Y127.378 E5.94895
G1 X113.996 Y126.578 E5.98610
G1 X113.996 Y129.018 E6.07659
G1 X114.598 Y128.218 E6.11374
G1 X114.598 Y125.778 E6.20423
G1 X115.201 Y124.977 E6.24138
G1 X115.201 Y127.418 E6.33187
G1 X115.804 Y126.617 E6.36902
G1 X115.804 Y124.177 E6.45951
G1 X116.406 Y123.377 E6.49666
G1 X116.406 Y125.817 E6.58715
G1 X117.009 Y125.017 E6.62430
G1 X117.009 Y122.576 E6.71479
G1 X117.612 Y121.776 E6.75194
G1 X117.612 Y124.216 E6.84243
G1 X118.214 Y123.416 E6.87958
G1 X118.214 Y120.976 E6.97007
G1 X118.817 Y120.176 E7.00722
G1 X118.817 Y122.616 E7.09771
G1 X119.420 Y121.816 E7.13486
G1 X119.420 Y119.375 E7.22535
G1 X120.022 Y118.575 E7.26250
G1 X120.022 Y121.015 E7.35299
G1 X120.625 Y120.215 E7.39014
G1 X120.625 Y117.775 E7.48063
G1 X121.228 Y116.975 E7.51778
G1 X121.228 Y119.415 E7.60827
G1 X121.830 Y118.615 E7.64542
G1 X121.830 Y116.154 E7.73667
G1 X122.433 Y115.235 E7.77743
G1 X122.433 Y117.814 E7.87308
G1 X122.903 Y117.190 E7.90206
G1 X123.036 Y117.171 E7.90703
G1 X123.036 Y114.157 E8.01879
G1 X123.558 Y113.072 E8.06344
G1 X123.638 Y112.834 E8.07278
