; generated by PrusaSlicer 2.3.3 on 2021-08-26 at 21:02:30 UTC

; 

; external perimeters extrusion width = 0.39mm
; perimeters extrusion width = 0.39mm
; infill extrusion width = 0.39mm
; solid infill extrusion width = 0.39mm
; top infill extrusion width = 0.35mm
; first layer extrusion width = 0.37mm

M201 X9000 Y9000 Z500 E10000 ; sets maximum accelerations, mm/sec^2
M203 X500 Y500 Z12 E120 ; sets maximum feedrates, mm/sec
M204 P1500 R1500 T1500 ; sets acceleration (P, T) and retract acceleration (R), mm/sec^2
M205 X10.00 Y10.00 Z0.20 E2.50 ; sets the jerk limits, mm/sec
M205 S0 T0 ; sets the minimum extruding and travel feed rate, mm/sec
M107
M190 S38 ; set bed temperature and wait for it to be reached
;TYPE:Custom
M109 S184 ; set temperature and wait for it to be reached START_CUSTOM
G28 ; home all axes
G1 Z5 F5000 ; lift nozzle

;; change mode relative
G91
M83

G1 X210 Y15 F5000 ; move to right
G1 E40  F300      ; extrude some

G1 Z-5      F5000 ; lower nozzle
G1 X-25 Y5  F5000 ; wipe nozzle
G1 X10  Y-5 F5000 ; wipe nozzle
G1 Z5       F5000 ; lift nozzle

;; reset mode
M82
G90

G28 ; home all axes
G1 Z5 F5000 ; lift nozzle END_CUSTOM
G21 ; set units to millimeters
G90 ; use absolute coordinates
M82 ; use absolute distances for extrusion
G92 E0
; Filament gcode
;LAYER_CHANGE
;Z:0.2
;HEIGHT:0.2
G1 E-3.00000 F1800.000
G92 E0
G1 Z-0.050 F3600.000
G1 X80.325 Y96.066
G1 E3.00000 F1800.000
;TYPE:Skirt
;WIDTH:0.37
G1 F1200.000
G1 X81.733 Y95.205 E3.04150
G1 X83.248 Y94.579 E3.08275
G1 X84.815 Y94.204 E3.12328
G1 X86.456 Y94.078 E3.16469
G1 X88.250 Y94.242 E3.21001
G1 X89.989 Y94.717 E3.25536
G1 X91.611 Y95.482 E3.30046
G1 X93.084 Y96.518 E3.34577
G1 X111.552 Y112.892 E3.96669
G1 X112.739 Y114.120 E4.00964
G1 X113.876 Y115.486 E4.05436
G1 X114.900 Y116.927 E4.09884
G1 X115.815 Y118.442 E4.14337
G1 X116.629 Y120.053 E4.18876
G1 X117.315 Y121.718 E4.23406
G1 X117.869 Y123.423 E4.27917
G1 X118.294 Y125.180 E4.32465
G1 X118.580 Y126.932 E4.36929
G1 X118.734 Y128.740 E4.41495
G1 X118.748 Y130.540 E4.46024
G1 X118.623 Y132.358 E4.50607
G1 X118.365 Y134.127 E4.55104
G1 X117.950 Y135.945 E4.59795
G1 X117.540 Y137.148 E4.62993
G1 X117.011 Y138.235 E4.66035
G1 X116.268 Y139.367 E4.69441
G1 X115.350 Y140.414 E4.72944
G1 X114.324 Y141.300 E4.76354
G1 X113.202 Y142.030 E4.79722
G1 X112.216 Y142.511 E4.82481
G1 X111.234 Y142.867 E4.85109
G1 X108.549 Y143.464 E4.92028
G1 X105.792 Y143.740 E4.98999
G1 X102.955 Y143.684 E5.06138
G1 X100.317 Y143.322 E5.12835
G1 X97.665 Y142.640 E5.19724
G1 X95.130 Y141.664 E5.26558
G1 X92.798 Y140.445 E5.33178
G1 X91.317 Y139.486 E5.37617
G1 X90.009 Y138.498 E5.41741
G1 X88.712 Y137.363 E5.46076
G1 X87.596 Y136.239 E5.50061
G1 X71.653 Y118.242 E6.10548
G1 X70.957 Y117.354 E6.13385
G1 X70.404 Y116.474 E6.16000
G1 X69.800 Y115.205 E6.19534
G1 X69.361 Y113.812 E6.23209
G1 X69.119 Y112.346 E6.26948
G1 X69.092 Y110.884 E6.30626
G1 X69.270 Y109.442 E6.34281
G1 X69.654 Y108.023 E6.37981
G1 X70.231 Y106.681 E6.41656
G1 X71.013 Y105.398 E6.45434
G1 X72.142 Y104.057 E6.49844
G1 X79.114 Y97.086 E6.74646
G1 X80.285 Y96.100 E6.78499
G1 X80.461 Y96.380 F3600.000
G1 F1200.000
G1 X81.803 Y95.536 E6.82486
G1 X83.289 Y94.910 E6.86544
G1 X84.842 Y94.531 E6.90564
G1 X86.459 Y94.405 E6.94644
G1 X88.195 Y94.565 E6.99031
G1 X89.880 Y95.026 E7.03426
G1 X91.450 Y95.767 E7.07791
G1 X92.881 Y96.775 E7.12195
G1 X111.325 Y113.128 E7.74207
G1 X112.496 Y114.339 E7.78445
G1 X113.613 Y115.681 E7.82839
G1 X114.623 Y117.102 E7.87224
G1 X115.516 Y118.578 E7.91562
G1 X116.329 Y120.184 E7.96091
G1 X117.006 Y121.826 E8.00559
G1 X117.554 Y123.514 E8.05026
G1 X117.971 Y125.233 E8.09473
G1 X118.255 Y126.966 E8.13893
G1 X118.407 Y128.749 E8.18393
G1 X118.422 Y130.525 E8.22861
G1 X118.303 Y132.281 E8.27291
G1 X118.045 Y134.054 E8.31798
G1 X117.644 Y135.826 E8.36367
G1 X117.247 Y136.999 E8.39483
G1 X116.745 Y138.041 E8.42392
G1 X116.025 Y139.146 E8.45710
G1 X115.137 Y140.164 E8.49108
G1 X114.148 Y141.023 E8.52405
G1 X113.064 Y141.732 E8.55662
G1 X112.093 Y142.208 E8.58384
G1 X111.135 Y142.555 E8.60946
G1 X108.482 Y143.144 E8.67782
G1 X105.771 Y143.413 E8.74637
G1 X102.922 Y143.354 E8.81806
G1 X100.366 Y142.998 E8.88299
G1 X97.737 Y142.319 E8.95128
G1 X95.251 Y141.360 E9.01831
G1 X92.899 Y140.125 E9.08515
G1 X91.492 Y139.210 E9.12737
G1 X90.203 Y138.234 E9.16804
G1 X88.930 Y137.119 E9.21061
G1 X87.831 Y136.010 E9.24990
G1 X71.903 Y118.031 E9.85415
G1 X71.235 Y117.180 E9.88138
G1 X70.703 Y116.339 E9.90641
G1 X70.112 Y115.105 E9.94082
G1 X69.682 Y113.751 E9.97658
G1 X69.446 Y112.328 E10.01285
G1 X69.417 Y110.915 E10.04841
G1 X69.590 Y109.508 E10.08408
G1 X69.965 Y108.126 E10.12008
G1 X70.525 Y106.825 E10.15573
G1 X71.284 Y105.582 E10.19236
G1 X72.364 Y104.298 E10.23459
G1 X79.328 Y97.334 E10.48235
G1 X80.417 Y96.408 E10.51830
G1 X80.592 Y96.684 F3600.000
G1 F1200.000
G1 X81.920 Y95.844 E10.55783
G1 X83.335 Y95.240 E10.59654
G1 X84.863 Y94.859 E10.63616
G1 X86.455 Y94.732 E10.67633
G1 X88.140 Y94.887 E10.71891
G1 X89.765 Y95.332 E10.76129
G1 X91.282 Y96.048 E10.80350
G1 X92.661 Y97.018 E10.84592
G1 X111.041 Y113.309 E11.46378
G1 X112.234 Y114.538 E11.50688
G1 X113.312 Y115.827 E11.54915
G1 X114.153 Y116.986 E11.58516
G1 X115.065 Y118.445 E11.62845
G1 X115.844 Y119.922 E11.67046
G1 X116.554 Y121.557 E11.71532
G1 X117.122 Y123.204 E11.75913
G1 X117.595 Y125.032 E11.80664
G1 X117.899 Y126.768 E11.85096
G1 X118.064 Y128.470 E11.89400
G1 X118.103 Y130.122 E11.93556
G1 X118.012 Y131.897 E11.98028
G1 X117.796 Y133.578 E12.02292
G1 X117.433 Y135.336 E12.06807
G1 X117.072 Y136.546 E12.09983
G1 X116.552 Y137.710 E12.13191
G1 X115.840 Y138.847 E12.16566
G1 X114.973 Y139.865 E12.19930
G1 X113.993 Y140.730 E12.23218
G1 X112.932 Y141.431 E12.26418
G1 X112.001 Y141.891 E12.29029
G1 X111.099 Y142.225 E12.31449
G1 X108.430 Y142.821 E12.38330
G1 X105.757 Y143.086 E12.45086
G1 X102.948 Y143.028 E12.52155
G1 X100.428 Y142.677 E12.58555
G1 X97.836 Y142.008 E12.65289
G1 X95.386 Y141.062 E12.71898
G1 X93.061 Y139.840 E12.78503
G1 X91.679 Y138.941 E12.82651
G1 X90.408 Y137.980 E12.86660
G1 X89.153 Y136.880 E12.90857
G1 X88.070 Y135.787 E12.94730
G1 X72.154 Y117.821 E13.55113
G1 X71.508 Y117.000 E13.57740
G1 X71.002 Y116.203 E13.60114
G1 X70.424 Y115.004 E13.63463
G1 X70.005 Y113.695 E13.66921
G1 X69.774 Y112.317 E13.70435
G1 X69.743 Y110.946 E13.73887
G1 X69.909 Y109.579 E13.77349
G1 X70.270 Y108.244 E13.80830
G1 X70.815 Y106.976 E13.84301
G1 X71.550 Y105.772 E13.87849
G1 X72.595 Y104.530 E13.91934
G1 X79.553 Y97.571 E14.16690
G1 X80.550 Y96.715 E14.19994
G1 X80.759 Y96.965 F3600.000
G1 F1200.000
G1 X82.075 Y96.133 E14.23911
G1 X83.438 Y95.550 E14.27640
G1 X84.919 Y95.181 E14.31480
G1 X86.457 Y95.059 E14.35362
G1 X88.070 Y95.207 E14.39437
G1 X89.656 Y95.640 E14.43572
G1 X91.127 Y96.336 E14.47666
G1 X92.464 Y97.279 E14.51781
G1 X110.816 Y113.546 E15.13476
G1 X111.992 Y114.758 E15.17724
G1 X113.051 Y116.024 E15.21876
G1 X113.879 Y117.165 E15.25422
G1 X114.768 Y118.584 E15.29637
G1 X115.544 Y120.052 E15.33814
G1 X116.238 Y121.645 E15.38183
G1 X116.799 Y123.266 E15.42500
G1 X117.241 Y124.945 E15.46868
G1 X117.548 Y126.619 E15.51148
G1 X117.729 Y128.347 E15.55520
G1 X117.777 Y130.085 E15.59894
G1 X117.690 Y131.821 E15.64267
G1 X117.476 Y133.513 E15.68556
G1 X117.124 Y135.226 E15.72955
G1 X116.776 Y136.405 E15.76050
G1 X116.284 Y137.517 E15.79108
G1 X115.618 Y138.596 E15.82297
G1 X114.829 Y139.544 E15.85402
G1 X113.859 Y140.421 E15.88689
G1 X112.792 Y141.134 E15.91918
G1 X111.928 Y141.567 E15.94350
G1 X111.001 Y141.913 E15.96838
G1 X108.370 Y142.499 E16.03619
G1 X105.737 Y142.760 E16.10277
G1 X102.946 Y142.699 E16.17299
G1 X100.484 Y142.354 E16.23554
G1 X97.916 Y141.690 E16.30226
G1 X95.495 Y140.752 E16.36758
G1 X93.131 Y139.501 E16.43486
G1 X91.833 Y138.649 E16.47392
G1 X90.514 Y137.644 E16.51565
G1 X89.362 Y136.627 E16.55430
G1 X88.304 Y135.559 E16.59212
G1 X72.399 Y117.605 E17.19552
G1 X71.301 Y116.066 E17.24309
G1 X70.730 Y114.890 E17.27599
G1 X70.323 Y113.619 E17.30956
G1 X70.098 Y112.271 E17.34392
G1 X70.072 Y110.928 E17.37773
G1 X70.238 Y109.604 E17.41129
G1 X70.599 Y108.296 E17.44543
G1 X71.137 Y107.066 E17.47921
G1 X71.884 Y105.869 E17.51470
G1 X72.836 Y104.752 E17.55162
G1 X79.784 Y97.803 E17.79882
G1 X80.719 Y96.999 E17.82986
G1 X80.931 Y97.245 F3600.000
G1 F1200.000
G1 X82.212 Y96.430 E17.86804
G1 X83.529 Y95.864 E17.90410
G1 X84.969 Y95.504 E17.94144
G1 X86.460 Y95.386 E17.97908
G1 X88.016 Y95.529 E18.01838
G1 X89.553 Y95.951 E18.05848
G1 X90.972 Y96.624 E18.09798
G1 X92.260 Y97.535 E18.13768
G1 X110.586 Y113.779 E18.75374
G1 X111.750 Y114.977 E18.79576
G1 X112.789 Y116.220 E18.83653
G1 X113.605 Y117.344 E18.87146
G1 X114.472 Y118.725 E18.91248
G1 X115.247 Y120.190 E18.95417
G1 X115.931 Y121.758 E18.99722
G1 X116.485 Y123.355 E19.03974
G1 X116.919 Y125.004 E19.08263
G1 X117.223 Y126.660 E19.12499
G1 X117.402 Y128.356 E19.16789
G1 X117.450 Y130.070 E19.21103
G1 X117.367 Y131.761 E19.25361
G1 X117.154 Y133.454 E19.29654
G1 X116.811 Y135.129 E19.33957
G1 X116.478 Y136.266 E19.36936
G1 X116.012 Y137.332 E19.39863
G1 X115.370 Y138.379 E19.42954
G1 X114.612 Y139.297 E19.45949
G1 X113.677 Y140.148 E19.49128
G1 X112.651 Y140.837 E19.52238
G1 X111.812 Y141.261 E19.54603
G1 X110.910 Y141.599 E19.57027
G1 X108.318 Y142.176 E19.63707
G1 X105.723 Y142.433 E19.70266
G1 X102.972 Y142.373 E19.77188
G1 X100.546 Y142.033 E19.83351
G1 X98.012 Y141.377 E19.89938
G1 X95.630 Y140.454 E19.96364
G1 X93.289 Y139.214 E20.03028
G1 X92.021 Y138.382 E20.06844
G1 X90.715 Y137.386 E20.10975
G1 X89.581 Y136.384 E20.14782
G1 X88.543 Y135.336 E20.18493
G1 X72.650 Y117.394 E20.78792
G1 X71.598 Y115.928 E20.83331
G1 X71.041 Y114.787 E20.86525
G1 X70.644 Y113.555 E20.89781
G1 X70.424 Y112.246 E20.93120
G1 X70.398 Y110.951 E20.96378
G1 X70.558 Y109.669 E20.99627
G1 X70.908 Y108.401 E21.02938
G1 X71.430 Y107.212 E21.06204
G1 X72.157 Y106.049 E21.09654
G1 X73.066 Y104.984 E21.13178
G1 X80.009 Y98.040 E21.37880
G1 X80.892 Y97.280 E21.40811
;WIPE_START
G1 F2880.000
G1 X82.212 Y96.430 E20.47603
G1 X83.529 Y95.864 E19.62501
G1 X84.969 Y95.504 E18.74370
G1 X85.280 Y95.480 E18.55811
;WIPE_END
G1 E18.40811 F1800.000
G92 E0
G1 X94.704 Y124.710 F3600.000
G1 E3.00000 F1800.000
;TYPE:External perimeter
G1 F360.000
G1 X94.667 Y124.391 E3.00806
G1 X94.705 Y124.147 E3.01428
G1 X94.786 Y123.918 E3.02039
G1 X94.859 Y123.797 E3.02395
G1 X95.102 Y123.542 E3.03281
G1 X95.646 Y123.268 E3.04814
G1 X96.228 Y123.153 E3.06307
G1 X96.467 Y123.166 E3.06909
G1 X96.713 Y123.230 E3.07547
G1 X97.014 Y123.431 E3.08459
G1 X97.190 Y123.620 E3.09107
G1 X97.353 Y123.947 E3.10027
G1 X97.410 Y124.192 E3.10660
G1 X97.413 Y124.442 E3.11288
G1 X97.368 Y124.684 E3.11908
G1 X97.275 Y124.912 E3.12526
G1 X97.132 Y125.114 E3.13149
G1 X96.810 Y125.389 E3.14215
G1 X96.456 Y125.635 E3.15297
G1 X96.109 Y125.737 E3.16208
G1 X95.860 Y125.740 E3.16835
G1 X95.666 Y125.711 E3.17330
G1 X95.387 Y125.603 E3.18081
G1 X95.179 Y125.468 E3.18705
G1 X95.000 Y125.299 E3.19324
G1 X94.856 Y125.102 E3.19939
G1 X94.749 Y124.879 E3.20561
G1 X94.717 Y124.760 E3.20869
G1 X94.400 Y124.608 F3600.000
;WIPE_START
G1 F2880.000
G1 X94.667 Y124.391 E2.98749
G1 X94.705 Y124.147 E2.84072
G1 X94.786 Y123.918 E2.69656
G1 X94.859 Y123.797 E2.61249
G1 X95.102 Y123.542 E2.40335
G1 X95.646 Y123.268 E2.04158
G1 X96.228 Y123.153 E1.68926
G1 X96.467 Y123.166 E1.54721
G1 X96.713 Y123.230 E1.39666
G1 X97.014 Y123.431 E1.18132
G1 X97.190 Y123.620 E1.02841
G1 X97.353 Y123.947 E0.81125
G1 X97.410 Y124.192 E0.66191
G1 X97.413 Y124.442 E0.51375
G1 X97.368 Y124.684 E0.36722
G1 X97.362 Y124.698 E0.35869
;WIPE_END
G1 E0.20869 F1800.000
G92 E0
G1 X98.338 Y125.079 F3600.000
G1 E3.00000 F1800.000
G1 F360.000
G1 X98.897 Y124.985 E3.01427
G1 X98.983 Y124.558 E3.02523
G1 X99.234 Y123.643 E3.04909
G1 X99.346 Y123.338 E3.05728
G1 X99.438 Y123.166 E3.06218
G1 X99.603 Y122.967 E3.06866
G1 X99.819 Y122.828 E3.07513
G1 X100.024 Y122.781 E3.08043
G1 X100.172 Y122.779 E3.08415
G1 X100.356 Y122.817 E3.08889
G1 X100.602 Y122.935 E3.09574
G1 X100.802 Y123.123 E3.10266
G1 X100.910 Y123.357 E3.10913
G1 X100.937 Y123.540 E3.11378
G1 X100.915 Y123.806 E3.12050
G1 X100.800 Y124.118 E3.12886
G1 X100.653 Y124.326 E3.13529
G1 X100.626 Y124.396 E3.13717
G1 X100.682 Y124.543 E3.14111
G1 X100.835 Y124.468 E3.14539
G1 X100.864 Y124.614 E3.14913
G1 X101.100 Y124.464 E3.15615
G1 X101.401 Y124.351 E3.16424
G1 X101.602 Y124.325 E3.16936
G1 X101.871 Y124.345 E3.17614
G1 X102.108 Y124.441 E3.18256
G1 X102.248 Y124.564 E3.18724
G1 X102.348 Y124.716 E3.19184
G1 X102.419 Y124.966 E3.19836
G1 X102.406 Y125.270 E3.20602
G1 X102.342 Y125.459 E3.21104
G1 X102.233 Y125.612 E3.21576
G1 X102.090 Y125.748 E3.22074
G1 X101.935 Y125.846 E3.22536
G1 X101.238 Y126.050 E3.24362
G1 X100.542 Y126.219 E3.26164
G1 X100.325 Y126.327 E3.26773
G1 X100.244 Y126.464 E3.27174
G1 X99.926 Y127.737 E3.30474
G1 X99.791 Y128.090 E3.31425
G1 X99.613 Y128.330 E3.32177
G1 X99.386 Y128.506 E3.32899
G1 X99.119 Y128.595 E3.33610
G1 X98.851 Y128.582 E3.34283
G1 X98.600 Y128.483 E3.34962
G1 X98.380 Y128.309 E3.35668
G1 X98.226 Y128.073 E3.36378
G1 X98.169 Y127.817 E3.37037
G1 X98.198 Y127.559 E3.37690
G1 X98.364 Y127.145 E3.38811
G1 X98.523 Y126.896 E3.39555
G1 X98.406 Y126.663 E3.40211
G1 X98.294 Y126.615 E3.40517
G1 X98.093 Y126.774 E3.41163
G1 X97.667 Y126.931 E3.42305
G1 X97.393 Y126.966 E3.43000
G1 X97.209 Y126.951 E3.43464
G1 X96.961 Y126.838 E3.44149
G1 X96.788 Y126.631 E3.44828
G1 X96.675 Y126.310 E3.45683
G1 X96.700 Y126.029 E3.46394
G1 X96.788 Y125.868 E3.46855
G1 X96.925 Y125.715 E3.47373
G1 X97.364 Y125.413 E3.48713
G1 X97.611 Y125.305 E3.49391
G1 X98.287 Y125.092 E3.51173
G1 X98.442 Y124.745 F3600.000
;WIPE_START
G1 F2880.000
G1 X98.897 Y124.985 E3.14387
G1 X98.983 Y124.558 E2.88528
G1 X99.234 Y123.643 E2.32202
G1 X99.346 Y123.338 E2.12885
G1 X99.438 Y123.166 E2.01304
G1 X99.603 Y122.967 E1.86008
G1 X99.819 Y122.828 E1.70739
G1 X100.024 Y122.781 E1.58228
G1 X100.172 Y122.779 E1.49453
G1 X100.356 Y122.817 E1.38274
G1 X100.602 Y122.935 E1.22114
G1 X100.802 Y123.123 E1.05782
G1 X100.910 Y123.357 E0.90491
G1 X100.937 Y123.540 E0.79530
G1 X100.919 Y123.764 E0.66173
;WIPE_END
G1 E0.51173 F1800.000
G92 E0
G1 X99.823 Y131.667 F3600.000
G1 E3.00000 F1800.000
G1 F360.000
G1 X99.442 Y131.781 E3.01000
G1 X99.129 Y131.820 E3.01793
G1 X98.724 Y131.777 E3.02817
G1 X98.412 Y131.671 E3.03646
G1 X97.992 Y131.445 E3.04846
G1 X97.769 Y131.265 E3.05568
G1 X97.649 Y131.127 E3.06027
G1 X97.556 Y130.971 E3.06486
G1 X97.496 Y130.790 E3.06965
G1 X97.486 Y130.530 E3.07620
G1 X97.526 Y130.340 E3.08109
G1 X97.639 Y130.086 E3.08808
G1 X97.807 Y129.878 E3.09480
G1 X97.961 Y129.763 E3.09963
G1 X98.207 Y129.683 E3.10615
G1 X98.457 Y129.704 E3.11246
G1 X98.619 Y129.764 E3.11680
G1 X99.090 Y130.017 E3.13025
G1 X99.211 Y130.044 E3.13337
G1 X99.340 Y130.045 E3.13661
G1 X99.552 Y129.992 E3.14211
G1 X100.111 Y129.742 E3.15751
G1 X100.512 Y129.601 E3.16821
G1 X100.634 Y129.540 E3.17165
G1 X100.677 Y129.503 E3.17307
G1 X100.756 Y129.375 E3.17685
G1 X101.001 Y128.748 E3.19378
G1 X101.716 Y127.193 E3.23685
G1 X102.074 Y126.360 E3.25965
G1 X102.256 Y126.063 E3.26842
G1 X102.522 Y125.790 E3.27801
G1 X102.744 Y125.654 E3.28455
G1 X102.962 Y125.608 E3.29015
G1 X103.187 Y125.633 E3.29586
G1 X103.353 Y125.703 E3.30039
G1 X103.499 Y125.809 E3.30493
G1 X103.624 Y125.945 E3.30959
G1 X103.728 Y126.106 E3.31441
G1 X103.816 Y126.329 E3.32042
G1 X103.845 Y126.518 E3.32523
G1 X103.836 Y126.696 E3.32973
G1 X103.792 Y126.871 E3.33427
G1 X103.679 Y127.116 E3.34107
G1 X103.290 Y127.755 E3.35988
G1 X102.869 Y128.335 E3.37789
G1 X102.752 Y128.606 E3.38534
G1 X102.856 Y128.701 E3.38888
G1 X103.134 Y128.545 E3.39691
G1 X103.385 Y128.325 E3.40530
G1 X103.683 Y128.110 E3.41453
G1 X104.233 Y127.790 E3.43054
G1 X104.564 Y127.667 E3.43944
G1 X104.949 Y127.610 E3.44922
G1 X105.206 Y127.644 E3.45576
G1 X105.369 Y127.713 E3.46020
G1 X105.509 Y127.829 E3.46479
G1 X105.636 Y128.050 E3.47118
G1 X105.680 Y128.305 E3.47769
G1 X105.650 Y128.568 E3.48434
G1 X105.566 Y128.747 E3.48934
G1 X105.390 Y128.974 E3.49654
