; generated by Slic3r 0.9.10-dev on 2013-04-29 at 20:50:27

; layer_height = 0.3
; perimeters = 3
; top_solid_layers = 3
; bottom_solid_layers = 3
; fill_density = 0.18
; perimeter_speed = 60
; infill_speed = 80
; travel_speed = 300
; nozzle_diameter = 0.35
; filament_diameter = 1.75
; extrusion_multiplier = 1
; perimeters extrusion width = 0.37mm
; infill extrusion width = 0.37mm
; solid infill extrusion width = 0.37mm
; top infill extrusion width = 0.37mm

G21 ; set units to millimeters
M107
G28
G92 X0 Y0 Z0 E0
G1 F5000 Y30 X30
G1 X220
G1 F100 E10
G28
G92 X0 Y0 Z0
G1 F4000 X101 Y127
G92 X0 Y0 Z0 E0
M106 S255
G90 ; use absolute coordinates
G92 E0
M82 ; use absolute distances for extrusion
G1 F600.000 E-0.70000
G1 Z0.400 F18000.000
G92 E0
G1 X0.025 Y-27.224
G1 Z0.200
G1 F600.000 E0.70000
G1 X-2.415 Y-27.334 F751.064 E0.77387
G1 X-4.805 Y-28.584 E0.85545
G1 X-4.875 Y-28.654 E0.85844
G1 X-6.495 Y-30.874 E0.94157
G1 X-6.545 Y-31.004 E0.94578
G1 X-7.235 Y-35.104 E1.07153
G1 X-7.275 Y-35.504 E1.08369
G1 X-7.245 Y-35.704 E1.08980
G1 X-7.175 Y-35.834 E1.09427
G1 X-5.885 Y-37.484 E1.15762
G1 X-4.855 Y-38.724 E1.20637
G1 X-4.775 Y-38.784 E1.20940
G1 X-4.315 Y-39.014 E1.22495
G1 X-2.395 Y-39.844 E1.28822
G1 X-0.015 Y-39.904 E1.36022
G1 X2.375 Y-39.844 E1.43253
G1 X4.315 Y-39.014 E1.49635
G1 X4.775 Y-38.784 E1.51191
G1 X4.895 Y-38.684 E1.51663
G1 X5.885 Y-37.484 E1.56369
G1 X7.165 Y-35.764 E1.62853
G1 X7.235 Y-35.604 E1.63381
G1 X7.235 Y-35.484 E1.63744
G1 X6.475 Y-31.004 E1.77488
G1 X6.445 Y-30.904 E1.77804
G1 X4.865 Y-28.744 E1.85898
G1 X4.765 Y-28.664 E1.86285
G1 X2.475 Y-27.434 E1.94147
G1 X2.365 Y-27.394 E1.94501
G1 X0.079 Y-27.228 E2.01433
G1 X-0.049 Y-26.131 F18000.000
G1 X-0.953 Y-26.131 F751.064 E2.04167
G1 X-0.994 Y-26.172 E2.04343
G1 X-2.458 Y-26.231 E2.08775
G1 X-2.663 Y-26.264 E2.09402
G1 X-2.980 Y-26.387 E2.10432
G1 X-5.340 Y-27.627 E2.18495
G1 X-5.547 Y-27.765 E2.19246
G1 X-5.674 Y-27.892 E2.19790
G1 X-7.370 Y-30.215 E2.28489
G1 X-7.525 Y-30.477 E2.29411
G1 X-7.615 Y-30.774 E2.30347
G1 X-8.322 Y-34.975 E2.43233
G1 X-8.366 Y-35.423 E2.44594
G1 X-8.368 Y-35.647 E2.45272
G1 X-8.329 Y-35.887 E2.46008
G1 X-8.254 Y-36.130 E2.46777
G1 X-8.130 Y-36.425 E2.47745
G1 X-7.985 Y-36.569 E2.48362
G1 X-6.723 Y-38.187 E2.54570
G1 X-5.719 Y-39.403 E2.59337
G1 X-5.514 Y-39.599 E2.60195
G1 X-5.299 Y-39.744 E2.60979
G1 X-4.670 Y-40.058 E2.63106
G1 X-2.750 Y-40.888 E2.69432
G1 X-2.544 Y-40.937 E2.70073
G1 X-0.023 Y-40.997 E2.77700
G1 X2.478 Y-40.937 E2.85267
G1 X2.623 Y-40.914 E2.85711
G1 X2.875 Y-40.828 E2.86517
G1 X4.670 Y-40.058 E2.92424
G1 X5.348 Y-39.716 E2.94722
G1 X5.583 Y-39.542 E2.95607
G1 X5.719 Y-39.403 E2.96194
G1 X6.734 Y-38.174 E3.01014
G1 X8.061 Y-36.391 E3.07736
G1 X8.241 Y-36.067 E3.08858
G1 X8.319 Y-35.756 E3.09826
G1 X8.322 Y-35.354 E3.11043
G1 X7.544 Y-30.773 E3.25097
G1 X7.455 Y-30.477 E3.26030
G1 X7.300 Y-30.215 E3.26953
G1 X5.683 Y-28.016 E3.35209
G1 X5.484 Y-27.829 E3.36033
G1 X5.309 Y-27.715 E3.36665
G1 X2.944 Y-26.445 E3.44784
G1 X2.613 Y-26.324 E3.45850
G1 X0.970 Y-26.197 E3.50834
G1 X0.855 Y-26.092 E3.51308
G1 X0.006 Y-26.129 E3.53877
G1 X-0.041 Y-26.495 F18000.000
G1 X-0.802 Y-26.495 F751.064 E3.56180
G1 X-0.837 Y-26.529 E3.56328
G1 X-2.429 Y-26.595 E3.61147
G1 X-2.576 Y-26.619 E3.61597
G1 X-2.799 Y-26.703 E3.62319
G1 X-5.159 Y-27.943 E3.70382
G1 X-5.315 Y-28.047 E3.70950
G1 X-5.392 Y-28.124 E3.71277
G1 X-7.077 Y-30.432 E3.79921
G1 X-7.188 Y-30.616 E3.80570
G1 X-7.258 Y-30.848 E3.81305
G1 X-7.961 Y-35.021 E3.94102
G1 X-8.003 Y-35.451 E3.95412
G1 X-7.999 Y-35.683 E3.96111
G1 X-7.940 Y-35.929 E3.96878
G1 X-7.821 Y-36.219 E3.97826
G1 X-7.712 Y-36.328 E3.98291
G1 X-6.443 Y-37.955 E4.04533
G1 X-5.444 Y-39.165 E4.09278
G1 X-5.297 Y-39.306 E4.09894
G1 X-5.127 Y-39.424 E4.10521
G1 X-4.546 Y-39.714 E4.12486
G1 X-2.626 Y-40.544 E4.18812
G1 X-2.502 Y-40.573 E4.19197
G1 X-0.021 Y-40.633 E4.26703
G1 X2.449 Y-40.573 E4.34175
G1 X2.737 Y-40.491 E4.35082
G1 X4.546 Y-39.714 E4.41035
G1 X5.156 Y-39.407 E4.43102
G1 X5.339 Y-39.272 E4.43789
G1 X5.444 Y-39.165 E4.44243
G1 X6.450 Y-37.946 E4.49023
G1 X7.764 Y-36.181 E4.55677
G1 X7.905 Y-35.926 E4.56559
G1 X7.959 Y-35.703 E4.57253
G1 X7.961 Y-35.400 E4.58169
G1 X7.188 Y-30.847 E4.72135
G1 X7.118 Y-30.616 E4.72869
G1 X7.007 Y-30.432 E4.73517
G1 X5.413 Y-28.260 E4.81665
G1 X5.267 Y-28.122 E4.82272
G1 X5.129 Y-28.032 E4.82771
G1 X2.786 Y-26.773 E4.90817
G1 X2.526 Y-26.679 E4.91653
G1 X0.817 Y-26.551 E4.96834
G1 X0.720 Y-26.462 E4.97235
G1 X0.014 Y-26.492 E4.99373
G1 X-0.033 Y-26.858 F18000.000
G1 X-0.652 Y-26.858 F751.064 E5.01244
G1 X-0.680 Y-26.887 E5.01364
G1 X-2.488 Y-26.973 E5.06841
G1 X-2.617 Y-27.019 E5.07255
G1 X-4.977 Y-28.259 E5.15318
G1 X-5.083 Y-28.330 E5.15704
G1 X-5.164 Y-28.429 E5.16089
G1 X-6.784 Y-30.649 E5.24401
G1 X-6.850 Y-30.754 E5.24776
G1 X-6.902 Y-30.922 E5.25310
G1 X-7.599 Y-35.066 E5.38019
G1 X-7.641 Y-35.611 E5.39673
G1 X-7.592 Y-35.822 E5.40327
G1 X-7.513 Y-36.013 E5.40953
G1 X-6.163 Y-37.722 E5.47541
G1 X-5.094 Y-39.002 E5.52582
G1 X-4.954 Y-39.103 E5.53107
G1 X-4.421 Y-39.370 E5.54909
G1 X-2.460 Y-40.210 E5.61362
G1 X-0.019 Y-40.270 E5.68747
G1 X2.419 Y-40.210 E5.76123
G1 X2.600 Y-40.154 E5.76694
G1 X4.421 Y-39.370 E5.82691
G1 X4.964 Y-39.098 E5.84527
G1 X5.169 Y-38.927 E5.85335
G1 X6.166 Y-37.718 E5.90074
G1 X7.466 Y-35.971 E5.96661
G1 X7.568 Y-35.785 E5.97304
G1 X7.599 Y-35.649 E5.97725
G1 X7.599 Y-35.446 E5.98340
G1 X6.832 Y-30.922 E6.12217
G1 X6.780 Y-30.754 E6.12750
G1 X5.143 Y-28.505 E6.21164
G1 X4.950 Y-28.348 E6.21916
G1 X2.627 Y-27.101 E6.29889
G1 X2.438 Y-27.033 E6.30496
G1 X0.665 Y-26.904 E6.35875
G1 X0.585 Y-26.832 E6.36201
G1 X0.022 Y-26.856 E6.37907
M106 S255
G1 F600.000 E5.67907
G1 Z0.700 F18000.000
G92 E0
G1 Z0.800
G1 Z1.100
G1 Z1.400
G1 Z1.700
G1 Z2.000
G1 Z2.300
G1 Z2.600
G1 Z2.900
G1 Z3.200
G1 Z3.500
G1 Z3.800
G1 Z4.100
G1 Z4.400
G1 Z4.700
G1 Z5.000
G1 Z5.300
G1 Z5.600
G1 Z5.900
G1 Z6.200
G1 Z6.500
G1 Z6.800
G1 Z7.100
G1 Z7.400
G1 Z7.700
G1 Z8.000
G1 Z8.300
G1 Z8.600
G1 Z8.900
G1 Z9.200
G1 Z9.500
G1 Z9.800
G1 Z10.100
G1 Z10.400
G1 Z10.700
G1 Z11.000
G1 Z11.300
G1 Z11.600
G1 Z11.900
G1 Z12.200
G1 Z12.500
G1 Z12.800
G1 Z13.100
G1 Z13.400
G1 Z13.700
G1 Z14.000
M107
M104 S0 ; turn off temperature
M140 S0 ; turn of HBP
M84     ; disable motors
; filament used = 5.0mm (0.0cm3)
