; generated by Slic3r 0.9.10-dev on 2013-04-29 at 20:49:37

; layer_height = 0.3
; perimeters = 3
; top_solid_layers = 3
; bottom_solid_layers = 3
; fill_density = 0.18
; perimeter_speed = 60
; infill_speed = 80
; travel_speed = 300
; nozzle_diameter = 0.35
; filament_diameter = 1.75
; extrusion_multiplier = 1
; perimeters extrusion width = 0.37mm
; infill extrusion width = 0.37mm
; solid infill extrusion width = 0.37mm
; top infill extrusion width = 0.37mm

G21 ; set units to millimeters
M107
G28
G92 X0 Y0 Z0 E0
G1 F5000 Y30 X30
G1 X220
G1 F100 E10
G28
G92 X0 Y0 Z0
G1 F4000 X101 Y127
G92 X0 Y0 Z0 E0
M106 S255
G90 ; use absolute coordinates
G92 E0
M82 ; use absolute distances for extrusion
G1 F600.000 E-0.70000
G1 Z0.400 F18000.000
G92 E0
G1 X-28.177 Y-28.108
G1 Z0.200
G1 F600.000 E0.70000
G1 X-28.207 Y-28.208 F1080.000 E0.70316
G1 X-28.897 Y-32.308 E0.82891
G1 X-28.937 Y-32.708 E0.84107
G1 X-28.927 Y-32.838 E0.84501
G1 X-28.837 Y-33.038 E0.85164
G1 X-27.547 Y-34.688 E0.91499
G1 X-26.477 Y-35.968 E0.96545
G1 X8.923 Y-55.008 E2.18118
G1 X10.263 Y-55.558 E2.22499
G1 X11.753 Y-55.998 E2.27198
G1 X13.263 Y-56.288 E2.31849
G1 X14.873 Y-56.488 E2.36756
G1 X16.543 Y-56.608 E2.41820
G1 X18.273 Y-56.668 E2.47055
G1 X20.013 Y-56.688 E2.52318
G1 X25.273 Y-56.668 E2.68228
G1 X26.993 Y-56.608 E2.73433
G1 X28.663 Y-56.488 E2.78497
G1 X30.273 Y-56.288 E2.83404
G1 X31.783 Y-55.998 E2.88055
G1 X33.283 Y-55.558 E2.92782
G1 X34.613 Y-55.008 E2.97136
G1 X35.943 Y-54.238 E3.01784
G1 X37.073 Y-53.278 E3.06268
G1 X38.113 Y-51.958 E3.11351
G1 X38.993 Y-50.278 E3.17087
G1 X39.733 Y-48.098 E3.24050
G1 X40.263 Y-45.518 E3.32016
G1 X40.623 Y-42.338 E3.41696
G1 X40.783 Y-38.528 E3.53230
G1 X40.743 Y-33.988 E3.66962
G1 X39.503 Y35.572 E5.77383
G1 X39.343 Y37.082 E5.81975
G1 X38.983 Y38.662 E5.86876
G1 X38.423 Y40.212 E5.91861
G1 X37.703 Y41.702 E5.96866
G1 X36.823 Y43.192 E6.02100
G1 X35.893 Y44.552 E6.07083
G1 X34.903 Y45.842 E6.12001
G1 X33.913 Y47.022 E6.16660
G1 X32.983 Y48.042 E6.20835
G1 X32.113 Y48.902 E6.24535
G1 X31.393 Y49.562 E6.27489
G1 X30.743 Y50.092 E6.30026
G1 X30.203 Y50.462 E6.32006
G1 X29.773 Y50.702 E6.33495
G1 X29.303 Y50.882 E6.35017
G1 X28.983 Y50.952 E6.36008
G1 X28.643 Y50.972 E6.37038
G1 X14.903 Y50.972 E6.78595
G1 X14.563 Y50.952 E6.79626
G1 X14.243 Y50.882 E6.80616
G1 X13.823 Y50.722 E6.81976
G1 X13.303 Y50.442 E6.83762
G1 X12.793 Y50.092 E6.85633
G1 X12.143 Y49.562 E6.88169
G1 X11.423 Y48.902 E6.91124
G1 X10.563 Y48.042 E6.94802
G1 X9.623 Y47.022 E6.98997
G1 X8.633 Y45.842 E7.03656
G1 X7.643 Y44.552 E7.08574
G1 X6.713 Y43.192 E7.13557
G1 X5.833 Y41.702 E7.18791
G1 X-28.153 Y-28.059 E9.53494
G1 X-29.157 Y-27.624 F18000.000
G1 X-29.231 Y-27.773 F1080.000 E9.53996
G1 X-29.290 Y-28.019 E9.54761
G1 X-29.983 Y-32.179 E9.67518
G1 X-30.030 Y-32.675 E9.69023
G1 X-30.030 Y-32.851 E9.69557
G1 X-29.991 Y-33.091 E9.70293
G1 X-29.916 Y-33.334 E9.71062
G1 X-29.791 Y-33.629 E9.72030
G1 X-29.647 Y-33.773 E9.72648
G1 X-28.384 Y-35.391 E9.78855
G1 X-27.381 Y-36.607 E9.83622
G1 X-27.144 Y-36.846 E9.84641
G1 X-26.964 Y-36.958 E9.85282
G1 X-26.882 Y-36.985 E9.85544
G1 X8.370 Y-55.953 E11.06618
G1 X9.891 Y-56.587 E11.11602
G1 X11.506 Y-57.064 E11.16695
G1 X13.117 Y-57.373 E11.21656
G1 X14.777 Y-57.578 E11.26714
G1 X16.487 Y-57.700 E11.31901
G1 X18.246 Y-57.761 E11.37225
G1 X20.005 Y-57.781 E11.42545
G1 X25.301 Y-57.761 E11.58562
G1 X27.049 Y-57.700 E11.63855
G1 X28.760 Y-57.578 E11.69042
G1 X30.420 Y-57.373 E11.74100
G1 X32.031 Y-57.064 E11.79061
G1 X33.658 Y-56.586 E11.84189
G1 X35.105 Y-55.987 E11.88927
G1 X36.256 Y-55.312 E11.92963
G1 X36.535 Y-55.193 E11.93879
G1 X36.695 Y-55.033 E11.94564
G1 X37.800 Y-54.095 E11.98950
G1 X37.959 Y-53.938 E11.99624
G1 X38.969 Y-52.638 E12.04603
G1 X39.098 Y-52.509 E12.05154
G1 X39.235 Y-52.179 E12.06234
G1 X39.996 Y-50.714 E12.11230
G1 X40.769 Y-48.451 E12.18462
G1 X41.347 Y-45.675 E12.27040
G1 X41.713 Y-42.426 E12.36927
G1 X41.876 Y-38.541 E12.48687
G1 X41.836 Y-33.974 E12.62501
G1 X40.594 Y35.654 E14.73127
G1 X40.426 Y37.241 E14.77957
G1 X40.022 Y39.005 E14.83428
G1 X39.436 Y40.629 E14.88649
G1 X38.641 Y42.274 E14.94177
G1 X37.776 Y43.736 E14.99313
G1 X36.762 Y45.218 E15.04745
G1 X35.746 Y46.540 E15.09789
G1 X34.781 Y47.693 E15.14337
G1 X33.767 Y48.805 E15.18887
G1 X32.876 Y49.685 E15.22673
G1 X32.066 Y50.428 E15.25999
G1 X31.410 Y50.960 E15.28553
G1 X30.789 Y51.385 E15.30831
G1 X30.217 Y51.702 E15.32806
G1 X29.588 Y51.939 E15.34839
G1 X29.052 Y52.045 E15.36493
G1 X28.665 Y52.065 E15.37664
G1 X15.824 Y52.065 E15.76503
G1 X15.754 Y52.126 E15.76785
G1 X14.866 Y52.065 E15.79478
G1 X13.975 Y52.065 E15.82170
G1 X13.787 Y51.877 E15.82974
G1 X13.364 Y51.714 E15.84348
G1 X12.721 Y51.368 E15.86555
G1 X12.126 Y50.960 E15.88737
G1 X11.470 Y50.428 E15.91291
G1 X10.660 Y49.685 E15.94617
G1 X9.768 Y48.792 E15.98433
G1 X8.759 Y47.697 E16.02939
G1 X7.791 Y46.540 E16.07500
G1 X6.774 Y45.218 E16.12544
G1 X5.761 Y43.736 E16.17976
G1 X4.897 Y42.276 E16.23104
G1 X-29.133 Y-27.575 E18.58111
G1 F600.000 E17.88111
G1 Z0.400 F18000.000
G92 E0
G1 X-25.228 Y-24.550
G1 Z0.200
G1 F600.000 E0.70000
G1 X-24.315 Y-24.041 F1080.000 E0.73162
G1 X-24.110 Y-23.983 E0.73806
G1 X-21.613 Y-23.881 E0.81362
G1 X-19.921 Y-24.017 E0.86497
G1 X-19.210 Y-24.051 E0.88651
G1 X-19.014 Y-24.105 E0.89267
G1 X-16.538 Y-25.434 E0.97765
G1 X-16.384 Y-25.569 E0.98385
G1 X-14.745 Y-27.820 E1.06805
G1 X-14.662 Y-28.020 E1.07460
G1 X-14.469 Y-29.251 E1.11230
G1 X-13.855 Y-32.770 E1.22034
G1 X-13.941 Y-33.134 E1.23167
G1 X-15.354 Y-35.034 E1.30325
G1 X-16.403 Y-36.306 E1.35313
G1 X-16.554 Y-36.426 E1.35896
G1 X-17.132 Y-36.711 E1.37847
G1 X-19.055 Y-37.552 E1.44194
G1 X-19.226 Y-37.591 E1.44726
G1 X-21.050 Y-37.640 E1.50244
G1 X4.521 Y-51.395 E2.38065
G1 X4.022 Y-50.423 E2.41372
G1 X3.304 Y-48.290 E2.48179
G1 X2.747 Y-45.609 E2.56459
G1 X2.379 Y-42.348 E2.66387
G1 X2.213 Y-38.502 E2.78029
G1 X2.254 Y-33.964 E2.91754
G1 X2.453 Y-28.880 E3.07142
G1 X2.765 Y-23.382 E3.23798
G1 X3.066 Y-18.857 E3.37516
G1 X4.012 Y-5.710 E3.77382
G1 X4.555 Y2.440 E4.02086
G1 X4.747 Y6.314 E4.13817
G1 X4.815 Y8.221 E4.19588
G1 X4.864 Y9.740 E4.24187
G1 X4.924 Y12.904 E4.33757
G1 X4.932 Y15.839 E4.42635
G1 X4.886 Y18.532 E4.50781
G1 X4.789 Y21.029 E4.58340
G1 X4.645 Y23.321 E4.65284
G1 X4.453 Y25.447 E4.71742
G1 X4.218 Y27.363 E4.77579
G1 X3.700 Y31.214 E4.89333
G1 X3.569 Y32.400 E4.92942
G1 X3.473 Y33.978 E4.97724
G1 X3.476 Y34.368 E4.98902
G1 X-25.204 Y-24.501 E6.96961
G1 F600.000 E6.26961
G1 Z0.400 F18000.000
G92 E0
G1 X39.002 Y2.326
G1 Z0.200
G1 F600.000 E0.70000
G1 X38.698 Y19.408 F1080.000 E1.21673
G1 X38.664 Y18.532 E1.24325
G1 X38.618 Y15.839 E1.32470
G1 X38.626 Y12.904 E1.41349
G1 X38.686 Y9.740 E1.50919
G1 X38.735 Y8.221 E1.55518
G1 X38.803 Y6.314 E1.61289
G1 X38.999 Y2.381 E1.73199
G1 F600.000 E1.03199
G1 Z0.400 F18000.000
G92 E0
G1 X40.233 Y35.548
G1 Z0.200
G1 F600.000 E0.70000
G1 X40.065 Y37.191 F1080.000 E0.74992
G1 X39.677 Y38.889 E0.80263
G1 X39.100 Y40.487 E0.85400
G1 X38.327 Y42.089 E0.90780
G1 X37.461 Y43.551 E0.95919
G1 X36.471 Y44.999 E1.01224
G1 X35.464 Y46.309 E1.06223
G1 X34.495 Y47.467 E1.10789
G1 X33.515 Y48.541 E1.15187
G1 X32.613 Y49.433 E1.19023
G1 X31.839 Y50.143 E1.22200
G1 X31.191 Y50.670 E1.24727
G1 X30.593 Y51.079 E1.26918
G1 X30.071 Y51.368 E1.28722
G1 X29.496 Y51.586 E1.30583
G1 X29.091 Y51.675 E1.31837
G1 X28.659 Y51.701 E1.33146
G1 X15.688 Y51.701 E1.72378
G1 X15.629 Y51.753 E1.72616
G1 X14.878 Y51.701 E1.74891
G1 X14.126 Y51.701 E1.77166
G1 X13.992 Y51.567 E1.77741
G1 X13.518 Y51.385 E1.79276
G1 X12.949 Y51.080 E1.81227
G1 X12.346 Y50.670 E1.83434
G1 X11.697 Y50.143 E1.85961
G1 X10.923 Y49.433 E1.89138
G1 X10.033 Y48.543 E1.92944
G1 X9.043 Y47.469 E1.97363
G1 X8.073 Y46.309 E2.01937
G1 X7.065 Y44.999 E2.06936
G1 X6.075 Y43.551 E2.12240
G1 X5.211 Y42.090 E2.17375
G1 X-28.887 Y-27.897 E4.52841
G1 X-29.622 Y-32.225 E4.66117
G1 X-29.666 Y-32.684 E4.67513
G1 X-29.666 Y-32.833 E4.67964
G1 X-29.636 Y-33.009 E4.68503
G1 X-29.483 Y-33.423 E4.69839
G1 X-29.374 Y-33.532 E4.70305
G1 X-28.104 Y-35.159 E4.76546
G1 X-27.106 Y-36.369 E4.81291
G1 X-26.917 Y-36.559 E4.82103
G1 X8.604 Y-55.666 E6.04094
G1 X10.017 Y-56.245 E6.08712
G1 X11.551 Y-56.699 E6.13552
G1 X13.168 Y-57.012 E6.18533
G1 X14.811 Y-57.215 E6.23538
G1 X16.507 Y-57.337 E6.28682
G1 X18.256 Y-57.397 E6.33974
G1 X20.012 Y-57.417 E6.39286
G1 X25.281 Y-57.397 E6.55224
G1 X27.030 Y-57.337 E6.60515
G1 X28.726 Y-57.215 E6.65659
G1 X30.368 Y-57.012 E6.70664
G1 X31.950 Y-56.709 E6.75537
G1 X33.531 Y-56.245 E6.80519
G1 X34.945 Y-55.660 E6.85147
G1 X36.094 Y-54.985 E6.89178
G1 X36.328 Y-54.884 E6.89949
G1 X37.681 Y-53.702 E6.95384
G1 X38.697 Y-52.396 E7.00386
G1 X38.790 Y-52.303 E7.00784
G1 X38.873 Y-52.087 E7.01485
G1 X39.662 Y-50.570 E7.06656
G1 X40.440 Y-48.285 E7.13958
G1 X40.987 Y-45.619 E7.22187
G1 X41.351 Y-42.395 E7.32002
G1 X41.512 Y-38.549 E7.43644
G1 X41.473 Y-33.979 E7.57467
G1 X40.234 Y35.494 E9.67625
G1 F600.000 E8.97625
G1 Z0.400 F18000.000
G92 E0
G1 X3.910 Y36.089
G1 Z0.200
G1 F600.000 E0.70000
G1 X-26.037 Y-25.381 F1080.000 E2.76806
G1 X-25.506 Y-25.122 E2.78593
G1 X-24.175 Y-24.380 E2.83202
G1 X-24.052 Y-24.345 E2.83589
G1 X-21.665 Y-24.244 E2.90814
G1 X-19.944 Y-24.380 E2.96034
G1 X-19.267 Y-24.412 E2.98084
G1 X-19.150 Y-24.445 E2.98453
G1 X-16.746 Y-25.736 E3.06705
G1 X-16.653 Y-25.816 E3.07077
G1 X-15.064 Y-27.999 E3.15242
G1 X-15.014 Y-28.119 E3.15635
G1 X-14.828 Y-29.311 E3.19284
G1 X-14.226 Y-32.759 E3.29871
G1 X-14.278 Y-32.977 E3.30550
G1 X-15.637 Y-34.806 E3.37441
G1 X-16.659 Y-36.045 E3.42299
G1 X-16.749 Y-36.117 E3.42649
G1 X-17.282 Y-36.380 E3.44444
G1 X-19.168 Y-37.205 E3.50672
G1 X-19.271 Y-37.228 E3.50991
G1 X-21.651 Y-37.292 E3.58193
G1 X-22.506 Y-37.269 E3.60779
G1 X5.503 Y-52.336 E4.56972
G1 X5.249 Y-52.006 E4.58229
G1 X4.378 Y-50.332 E4.63937
G1 X3.643 Y-48.152 E4.70895
G1 X3.101 Y-45.519 E4.79026
G1 X2.743 Y-42.344 E4.88689
G1 X2.577 Y-38.515 E5.00283
G1 X2.617 Y-33.976 E5.14012
G1 X2.817 Y-28.899 E5.29377
G1 X3.128 Y-23.404 E5.46026
G1 X3.428 Y-18.881 E5.59735
G1 X4.375 Y-5.735 E5.99599
G1 X4.918 Y2.419 E6.24315
G1 X5.110 Y6.298 E6.36063
G1 X5.178 Y8.208 E6.41843
G1 X5.228 Y9.731 E6.46451
G1 X5.288 Y12.900 E6.56038
G1 X5.296 Y15.842 E6.64936
G1 X5.250 Y18.542 E6.73105
G1 X5.152 Y21.048 E6.80689
G1 X5.008 Y23.348 E6.87661
G1 X4.814 Y25.486 E6.94151
G1 X4.579 Y27.409 E7.00013
G1 X4.060 Y31.261 E7.11766
G1 X3.930 Y32.449 E7.15382
G1 X3.836 Y34.014 E7.20123
G1 X3.854 Y35.551 E7.24775
G1 X3.904 Y36.034 E7.26243
G1 F600.000 E6.56243
G1 Z0.400 F18000.000
G92 E0
G1 X38.925 Y27.039
G1 Z0.200
G1 F600.000 E0.70000
G1 X38.736 Y25.486 F1080.000 E0.74732
G1 X38.542 Y23.348 E0.81222
G1 X38.398 Y21.048 E0.88194
G1 X38.300 Y18.542 E0.95779
G1 X38.254 Y15.842 E1.03947
G1 X38.262 Y12.900 E1.12845
G1 X38.322 Y9.731 E1.22432
G1 X38.372 Y8.208 E1.27040
G1 X38.440 Y6.298 E1.32820
G1 X38.632 Y2.419 E1.44568
G1 X39.175 Y-5.735 E1.69284
G1 X39.620 Y-11.918 E1.88033
G1 X38.926 Y26.984 E3.05712
G1 F600.000 E2.35712
G1 Z0.400 F18000.000
G92 E0
G1 X39.869 Y35.545
G1 Z0.200
G1 F600.000 E0.70000
G1 X39.705 Y37.140 F1080.000 E0.74848
G1 X39.332 Y38.774 E0.79917
G1 X38.765 Y40.346 E0.84971
G1 X38.012 Y41.903 E0.90202
G1 X37.147 Y43.367 E0.95346
G1 X36.181 Y44.779 E1.00522
G1 X35.183 Y46.079 E1.05478
G1 X34.209 Y47.240 E1.10061
G1 X33.249 Y48.293 E1.14371
G1 X32.365 Y49.167 E1.18132
G1 X31.612 Y49.857 E1.21221
G1 X30.971 Y50.379 E1.23720
G1 X30.397 Y50.772 E1.25824
G1 X29.925 Y51.035 E1.27457
G1 X29.404 Y51.234 E1.29147
G1 X29.032 Y51.316 E1.30296
G1 X28.653 Y51.338 E1.31446
G1 X15.552 Y51.338 E1.71071
G1 X15.503 Y51.380 E1.71266
G1 X14.891 Y51.338 E1.73123
G1 X14.277 Y51.338 E1.74980
G1 X14.182 Y51.243 E1.75385
G1 X13.672 Y51.055 E1.77027
G1 X13.123 Y50.761 E1.78913
G1 X12.566 Y50.379 E1.80956
G1 X11.925 Y49.857 E1.83456
G1 X11.172 Y49.167 E1.86544
G1 X10.298 Y48.294 E1.90281
G1 X9.328 Y47.241 E1.94610
G1 X8.354 Y46.079 E1.99198
G1 X7.356 Y44.779 E2.04153
G1 X6.390 Y43.367 E2.09329
G1 X5.525 Y41.903 E2.14471
G1 X-28.543 Y-28.022 E4.49729
G1 X-29.261 Y-32.270 E4.62759
G1 X-29.302 Y-32.694 E4.64046
G1 X-29.282 Y-32.926 E4.64753
G1 X-29.175 Y-33.217 E4.65690
G1 X-27.825 Y-34.926 E4.72278
G1 X-26.831 Y-36.131 E4.77001
G1 X-26.690 Y-36.272 E4.77605
G1 X8.759 Y-55.336 E5.99342
G1 X10.143 Y-55.904 E6.03866
G1 X11.655 Y-56.351 E6.08635
G1 X13.220 Y-56.652 E6.13455
G1 X14.845 Y-56.853 E6.18407
G1 X16.527 Y-56.973 E6.23507
G1 X18.265 Y-57.034 E6.28769
G1 X20.012 Y-57.054 E6.34053
G1 X25.278 Y-57.034 E6.49980
G1 X27.010 Y-56.973 E6.55221
G1 X28.692 Y-56.853 E6.60321
G1 X30.317 Y-56.652 E6.65273
G1 X31.870 Y-56.354 E6.70057
G1 X33.404 Y-55.904 E6.74893
G1 X34.785 Y-55.333 E6.79412
G1 X35.992 Y-54.624 E6.83645
G1 X36.122 Y-54.576 E6.84066
G1 X37.403 Y-53.465 E6.89194
G1 X38.481 Y-52.097 E6.94462
G1 X38.509 Y-51.998 E6.94774
G1 X39.328 Y-50.427 E7.00132
G1 X40.087 Y-48.196 E7.07260
G1 X40.627 Y-45.564 E7.15384
G1 X40.988 Y-42.364 E7.25125
G1 X41.149 Y-38.538 E7.36708
G1 X41.109 Y-33.984 E7.50482
G1 X39.870 Y35.491 E9.60645
G1 F600.000 E8.90645
G1 Z0.400 F18000.000
G92 E0
G1 X4.720 Y38.583
G1 Z0.200
G1 F600.000 E0.70000
G1 X-27.407 Y-27.362 F1080.000 E2.91864
G1 X-26.360 Y-25.943 E2.97199
G1 X-25.337 Y-25.444 E3.00638
G1 X-23.994 Y-24.707 E3.05274
G1 X-21.661 Y-24.608 E3.12337
G1 X-19.968 Y-24.744 E3.17474
G1 X-19.325 Y-24.774 E3.19419
G1 X-16.954 Y-26.037 E3.27544
G1 X-15.367 Y-28.218 E3.35703
G1 X-15.187 Y-29.370 E3.39230
G1 X-14.597 Y-32.748 E3.49601
G1 X-14.614 Y-32.820 E3.49827
G1 X-15.918 Y-34.574 E3.56436
G1 X-16.915 Y-35.784 E3.61177
G1 X-17.431 Y-36.048 E3.62932
G1 X-19.282 Y-36.858 E3.69041
G1 X-21.661 Y-36.928 E3.76240
G1 X-24.049 Y-36.853 E3.83465
G1 X7.262 Y-53.695 E4.90997
G1 X6.575 Y-53.111 E4.93726
G1 X5.564 Y-51.823 E4.98677
G1 X4.702 Y-50.164 E5.04333
G1 X4.000 Y-48.079 E5.10988
G1 X3.461 Y-45.470 E5.19043
G1 X3.105 Y-42.310 E5.28662
G1 X2.941 Y-38.504 E5.40185
G1 X2.981 Y-33.987 E5.53846
G1 X3.180 Y-28.918 E5.69188
G1 X3.491 Y-23.425 E5.85829
G1 X3.791 Y-18.906 E5.99529
G1 X4.738 Y-5.760 E6.39391
G1 X5.281 Y2.398 E6.64120
G1 X5.474 Y6.283 E6.75885
G1 X5.592 Y9.721 E6.86291
G1 X5.652 Y12.896 E6.95895
G1 X5.659 Y15.844 E7.04813
G1 X5.614 Y18.552 E7.13004
G1 X5.516 Y21.066 E7.20614
G1 X5.371 Y23.376 E7.27614
G1 X5.176 Y25.524 E7.34136
G1 X4.940 Y27.456 E7.40022
G1 X4.421 Y31.309 E7.51782
G1 X4.293 Y32.475 E7.55330
G1 X4.200 Y34.009 E7.59979
G1 X4.217 Y35.539 E7.64604
G1 X4.380 Y37.067 E7.69254
G1 X4.708 Y38.529 E7.73786
G1 F600.000 E7.03786
G1 Z0.400 F18000.000
G92 E0
G1 X39.201 Y31.969
G1 Z0.200
G1 F600.000 E0.70000
G1 X38.374 Y25.524 F1080.000 E0.89652
G1 X38.179 Y23.376 E0.96175
G1 X38.034 Y21.066 E1.03175
G1 X37.936 Y18.552 E1.10785
G1 X37.891 Y15.844 E1.18976
G1 X37.898 Y12.896 E1.27894
G1 X37.958 Y9.721 E1.37497
G1 X38.008 Y8.196 E1.42114
G1 X38.076 Y6.283 E1.47904
G1 X38.269 Y2.398 E1.59669
G1 X38.812 Y-5.760 E1.84397
G1 X39.759 Y-18.906 E2.24260
G1 X40.059 Y-23.424 E2.37957
G1 X40.249 Y-26.783 E2.48131
G1 X39.202 Y31.914 E4.25691
G1 X38.894 Y32.504 F18000.000
G1 X38.986 Y34.021 F1080.000 E4.30289
G1 X38.969 Y35.521 E4.34826
G1 X38.810 Y37.013 E4.39364
G1 X38.475 Y38.500 E4.43974
G1 X37.931 Y39.989 E4.48768
G1 X37.218 Y41.459 E4.53711
G1 X36.376 Y42.886 E4.58720
G1 X35.450 Y44.244 E4.63693
G1 X34.480 Y45.510 E4.68515
G1 X33.511 Y46.659 E4.73062
G1 X32.584 Y47.667 E4.77204
G1 X31.742 Y48.510 E4.80808
G1 X31.029 Y49.164 E4.83734
G1 X30.431 Y49.651 E4.86067
G1 X29.932 Y49.995 E4.87900
G1 X29.518 Y50.220 E4.89326
G1 X29.173 Y50.353 E4.90444
G1 X28.877 Y50.418 E4.91360
G1 X28.607 Y50.440 E4.92179
G1 X14.943 Y50.440 E5.33505
G1 X14.673 Y50.418 E5.34324
G1 X14.377 Y50.353 E5.35241
G1 X14.032 Y50.220 E5.36359
G1 X13.618 Y49.995 E5.37785
G1 X13.119 Y49.651 E5.39617
G1 X12.521 Y49.164 E5.41951
G1 X11.808 Y48.510 E5.44877
G1 X10.966 Y47.667 E5.48480
G1 X10.039 Y46.659 E5.52623
G1 X9.070 Y45.510 E5.57170
G1 X8.100 Y44.244 E5.61991
G1 X7.174 Y42.886 E5.66964
G1 X6.332 Y41.459 E5.71973
G1 X5.619 Y39.989 E5.76916
G1 X5.075 Y38.500 E5.81711
G1 X4.740 Y37.013 E5.86321
