; generated by Slic3r 0.9.10-dev on 2013-06-02 at 20:20:15

; layer_height = 0.3
; perimeters = 3
; top_solid_layers = 3
; bottom_solid_layers = 2
; fill_density = 0.18
; perimeter_speed = 60
; infill_speed = 80
; travel_speed = 300
; nozzle_diameter = 0.35
; filament_diameter = 1.75
; extrusion_multiplier = 1
; perimeters extrusion width = 0.37mm
; infill extrusion width = 0.37mm
; solid infill extrusion width = 0.37mm
; top infill extrusion width = 0.37mm

G21 ; set units to millimeters
M107
G28
G92 X0 Y0 Z0 E0
G1 F5000 Y30 X30
G1 X220
G1 F100 E10
G28
G92 X0 Y0 Z0
G1 F4000 X101 Y127
G92 X0 Y0 Z0 E0
M106 S255
G90 ; use absolute coordinates
G92 E0
M82 ; use absolute distances for extrusion
G1 F600.000 E-0.70000
G1 Z0.400 F18000.000
G92 E0
G1 X64.690 Y51.056
G1 Z0.200
G1 F600.000 E0.70000
G1 X60.480 Y56.056 F1080.000 E0.89770
G1 X55.960 Y60.836 E1.09667
G1 X51.160 Y65.356 E1.29609
G1 X46.080 Y69.566 E1.49564
G1 X40.740 Y73.406 E1.69457
G1 X35.100 Y76.856 E1.89454
G1 X29.160 Y79.876 E2.09608
G1 X23.030 Y82.366 E2.29620
G1 X16.660 Y84.296 E2.49751
G1 X10.110 Y85.626 E2.69967
G1 X3.470 Y86.306 E2.90155
G1 X-3.250 Y86.316 E3.10480
G1 X-9.890 Y85.666 E3.30659
G1 X-16.400 Y84.366 E3.50737
G1 X-22.820 Y82.446 E3.71004
G1 X-28.960 Y79.976 E3.91021
G1 X-34.910 Y76.966 E4.11189
G1 X-40.560 Y73.526 E4.31196
G1 X-45.910 Y69.706 E4.51079
G1 X-51.020 Y65.506 E4.71085
G1 X-55.800 Y61.026 E4.90899
G1 X-60.330 Y56.226 E5.10862
G1 X-64.570 Y51.216 E5.30713
G1 X-68.500 Y45.996 E5.50475
G1 X-72.170 Y40.536 E5.70373
G1 X-75.510 Y34.916 E5.90146
G1 X-78.540 Y29.086 E6.10019
G1 X-81.240 Y23.066 E6.29974
G1 X-83.550 Y16.906 E6.49872
G1 X-85.450 Y10.626 E6.69717
G1 X-86.930 Y4.176 E6.89732
G1 X-87.960 Y-2.314 E7.09607
G1 X-88.550 Y-8.884 E7.29558
G1 X-88.710 Y-15.464 E7.49466
G1 X-87.310 Y-86.044 E9.62980
G1 X-87.250 Y-86.174 E9.63413
G1 X-87.090 Y-86.304 E9.64037
G1 X-87.020 Y-86.324 E9.64257
G1 X87.010 Y-86.324 E14.90619
G1 X87.080 Y-86.304 E14.90839
G1 X87.190 Y-86.224 E14.91250
G1 X87.240 Y-86.174 E14.91464
G1 X87.300 Y-86.044 E14.91897
G1 X88.710 Y-15.684 E17.04747
G1 X88.550 Y-9.114 E17.24624
G1 X87.980 Y-2.544 E17.44570
G1 X86.960 Y3.946 E17.64441
G1 X85.500 Y10.396 E17.84442
G1 X83.600 Y16.716 E18.04403
G1 X81.310 Y22.856 E18.24223
G1 X78.640 Y28.866 E18.44114
G1 X75.610 Y34.716 E18.64040
G1 X72.280 Y40.346 E18.83824
G1 X68.630 Y45.816 E19.03713
G1 X64.724 Y51.013 E19.23377
G1 X65.547 Y51.738 F18000.000
G1 X61.299 Y56.781 F1080.000 E19.43319
G1 X56.748 Y61.593 E19.63351
G1 X51.912 Y66.150 E19.83449
G1 X46.760 Y70.423 E20.03693
G1 X41.337 Y74.323 E20.23897
G1 X35.609 Y77.826 E20.44205
G1 X29.803 Y80.765 E20.63885
G1 X29.690 Y80.840 E20.64296
G1 X23.422 Y83.386 E20.84757
G1 X16.940 Y85.352 E21.05245
G1 X10.264 Y86.710 E21.25849
G1 X3.503 Y87.399 E21.46407
G1 X-2.327 Y87.407 E21.64039
G1 X-2.434 Y87.494 E21.64456
G1 X-3.304 Y87.409 E21.67100
G1 X-4.178 Y87.409 E21.69744
G1 X-4.273 Y87.313 E21.70152
G1 X-10.042 Y86.750 E21.87684
G1 X-16.653 Y85.430 E22.08073
G1 X-23.187 Y83.476 E22.28701
G1 X-29.488 Y80.942 E22.49242
G1 X-29.602 Y80.866 E22.49656
G1 X-35.417 Y77.937 E22.69349
G1 X-41.155 Y74.444 E22.89664
G1 X-46.588 Y70.565 E23.09858
G1 X-51.700 Y66.367 E23.29864
G1 X-56.630 Y61.746 E23.50302
G1 X-61.147 Y56.952 E23.70223
G1 X-65.416 Y51.909 E23.90208
G1 X-69.408 Y46.607 E24.10281
G1 X-73.069 Y41.163 E24.30123
G1 X-76.462 Y35.454 E24.50208
G1 X-79.512 Y29.585 E24.70213
G1 X-82.233 Y23.525 E24.90307
G1 X-84.581 Y17.274 E25.10501
G1 X-86.524 Y10.852 E25.30794
G1 X-87.994 Y4.444 E25.50680
G1 X-89.048 Y-2.193 E25.71004
G1 X-89.641 Y-8.815 E25.91113
G1 X-89.803 Y-15.445 E26.11174
G1 X-88.403 Y-86.194 E28.25197
G1 X-88.355 Y-86.400 E28.25837
G1 X-88.207 Y-86.717 E28.26897
G1 X-88.109 Y-86.861 E28.27421
G1 X-87.911 Y-87.056 E28.28264
G1 X-87.614 Y-87.269 E28.29368
G1 X-87.486 Y-87.328 E28.29795
G1 X-87.109 Y-87.417 E28.30966
G1 X87.099 Y-87.417 E33.57867
G1 X87.476 Y-87.328 E33.59038
G1 X87.604 Y-87.269 E33.59464
G1 X87.938 Y-87.022 E33.60721
G1 X88.099 Y-86.861 E33.61411
G1 X88.197 Y-86.717 E33.61936
G1 X88.344 Y-86.400 E33.62995
G1 X88.393 Y-86.194 E33.63635
G1 X89.803 Y-15.711 E35.76857
G1 X89.641 Y-9.047 E35.97017
G1 X89.068 Y-2.424 E36.17125
G1 X88.024 Y4.213 E36.37444
G1 X86.574 Y10.621 E36.57315
G1 X84.633 Y17.072 E36.77691
G1 X82.322 Y23.270 E36.97697
G1 X79.624 Y29.342 E37.17793
G1 X76.562 Y35.253 E37.37928
G1 X73.180 Y40.971 E37.58023
G1 X69.539 Y46.426 E37.77860
G1 X65.580 Y51.695 E37.97792
G1 F600.000 E37.27792
G1 Z0.400 F18000.000
G92 E0
G1 X59.787 Y47.149
G1 Z0.200
G1 F600.000 E0.70000
G1 X55.791 Y51.900 F1080.000 E0.88776
G1 X51.536 Y56.410 E1.07528
G1 X47.028 Y60.649 E1.26245
G1 X42.271 Y64.585 E1.44921
G1 X37.270 Y68.179 E1.63547
G1 X32.034 Y71.387 E1.82119
G1 X26.579 Y74.163 E2.00631
G1 X20.926 Y76.458 E2.19083
G1 X15.106 Y78.225 E2.37481
G1 X9.159 Y79.432 E2.55834
G1 X3.133 Y80.050 E2.74156
G1 X-2.921 Y80.061 E2.92466
G1 X-8.949 Y79.464 E3.10787
G1 X-14.899 Y78.277 E3.29139
G1 X-20.725 Y76.528 E3.47535
G1 X-26.384 Y74.252 E3.65985
G1 X-31.846 Y71.492 E3.84495
G1 X-37.090 Y68.298 E4.03065
G1 X-42.099 Y64.717 E4.21689
G1 X-46.865 Y60.792 E4.40363
G1 X-51.382 Y56.562 E4.59079
G1 X-55.646 Y52.061 E4.77830
G1 X-59.651 Y47.319 E4.96606
G1 X-63.391 Y42.358 E5.15396
G1 X-66.856 Y37.200 E5.34191
G1 X-70.030 Y31.860 E5.52977
G1 X-72.894 Y26.356 E5.71745
G1 X-75.424 Y20.699 E5.90486
G1 X-77.595 Y14.907 E6.09195
G1 X-79.382 Y8.996 E6.27872
G1 X-80.764 Y2.986 E6.46525
G1 X-81.730 Y-3.103 E6.65172
G1 X-82.281 Y-9.251 E6.83842
G1 X-82.440 Y-15.442 E7.02574
G1 X-82.250 Y-21.667 E7.21408
G1 X-81.770 Y-27.925 E7.40393
G1 X-81.097 Y-34.229 E7.59567
G1 X-80.354 Y-40.592 E7.78942
G1 X-79.659 Y-47.022 E7.98506
G1 X-79.125 Y-53.520 E8.18224
G1 X-78.847 Y-60.071 E8.38055
G1 X-78.890 Y-66.624 E8.57877
G1 X-79.283 Y-73.190 E8.77772
G1 X-79.990 Y-79.852 E8.98033
G1 X-80.846 Y-85.231 E9.14508
G1 X80.846 Y-85.231 E14.03555
G1 X80.032 Y-80.147 E14.19127
G1 X79.304 Y-73.419 E14.39598
G1 X78.900 Y-66.878 E14.59418
G1 X78.844 Y-60.300 E14.79315
G1 X79.112 Y-53.748 E14.99148
G1 X79.638 Y-47.248 E15.18871
G1 X80.329 Y-40.815 E15.38441
G1 X81.072 Y-34.449 E15.57823
G1 X81.750 Y-28.144 E15.77004
G1 X82.239 Y-21.884 E15.95995
G1 X82.440 Y-15.659 E16.14834
G1 X82.294 Y-9.466 E16.33568
G1 X81.757 Y-3.317 E16.52240
G1 X80.806 Y2.775 E16.70887
G1 X79.438 Y8.788 E16.89539
G1 X77.665 Y14.703 E17.08215
G1 X75.507 Y20.500 E17.26923
G1 X72.989 Y26.161 E17.45663
G1 X70.136 Y31.671 E17.64430
G1 X66.973 Y37.016 E17.83216
G1 X63.518 Y42.181 E18.02010
G1 X59.820 Y47.106 E18.20637
G1 F600.000 E17.50637
G1 Z0.400 F18000.000
G92 E0
G1 X-87.097 Y-41.655
G1 Z0.200
G1 F600.000 E0.70000
G1 X-86.418 Y-75.827 F1080.000 E1.73376
G1 X-86.078 Y-72.623 E1.83121
G1 X-85.706 Y-66.409 E2.01951
G1 X-85.665 Y-60.183 E2.20782
G1 X-85.931 Y-53.937 E2.39689
G1 X-86.447 Y-47.665 E2.58722
G1 X-87.091 Y-41.709 E2.76843
G1 F600.000 E2.06843
G1 Z0.400 F18000.000
G92 E0
G1 X85.919 Y-54.155
G1 Z0.200
G1 F600.000 E0.70000
G1 X85.662 Y-60.400 F1080.000 E0.88904
G1 X85.714 Y-66.625 E1.07733
G1 X86.098 Y-72.840 E1.26564
G1 X86.412 Y-75.736 E1.35375
G1 X87.096 Y-41.662 E2.38452
G1 X86.427 Y-47.885 E2.57381
G1 X85.923 Y-54.101 E2.76243
G1 F600.000 E2.06243
G1 Z0.400 F18000.000
G92 E0
G1 X88.029 Y-85.982
G1 Z0.200
G1 F600.000 E0.70000
G1 X89.439 Y-15.679 F1080.000 E2.82677
G1 X89.278 Y-9.071 E3.02669
G1 X88.706 Y-2.466 E3.22720
G1 X87.669 Y4.129 E3.42911
G1 X86.218 Y10.542 E3.62798
G1 X84.286 Y16.963 E3.83080
G1 X81.973 Y23.160 E4.03086
G1 X79.297 Y29.183 E4.23019
G1 X76.246 Y35.073 E4.43083
G1 X72.878 Y40.767 E4.63090
G1 X69.238 Y46.221 E4.82924
G1 X65.264 Y51.510 E5.02933
G1 X61.025 Y56.540 E5.22829
G1 X56.480 Y61.347 E5.42837
G1 X51.642 Y65.904 E5.62940
G1 X46.536 Y70.136 E5.82998
G1 X41.136 Y74.019 E6.03114
G1 X35.436 Y77.505 E6.23322
G1 X29.614 Y80.454 E6.43062
G1 X29.520 Y80.517 E6.43405
G1 X23.274 Y83.053 E6.63792
G1 X16.775 Y85.019 E6.84329
G1 X10.210 Y86.350 E7.04589
G1 X3.521 Y87.034 E7.24925
G1 X-2.458 Y87.044 E7.43009
G1 X-2.548 Y87.118 E7.43362
G1 X-3.286 Y87.045 E7.45604
G1 X-4.027 Y87.045 E7.47847
G1 X-4.108 Y86.964 E7.48193
G1 X-9.989 Y86.390 E7.66063
G1 X-16.571 Y85.075 E7.86364
G1 X-23.063 Y83.134 E8.06860
G1 X-29.318 Y80.618 E8.27252
G1 X-29.413 Y80.554 E8.27598
G1 X-35.245 Y77.615 E8.47351
G1 X-40.955 Y74.140 E8.67566
G1 X-46.365 Y70.277 E8.87672
G1 X-51.470 Y66.083 E9.07656
G1 X-56.358 Y61.502 E9.27918
G1 X-60.875 Y56.711 E9.47832
G1 X-65.134 Y51.680 E9.67769
G1 X-69.108 Y46.401 E9.87754
G1 X-72.768 Y40.957 E10.07595
G1 X-76.146 Y35.274 E10.27591
G1 X-79.207 Y29.383 E10.47670
G1 X-81.903 Y23.370 E10.67601
G1 X-84.237 Y17.154 E10.87684
G1 X-86.168 Y10.772 E11.07849
G1 X-87.639 Y4.359 E11.27750
G1 X-88.686 Y-2.235 E11.47946
G1 X-89.278 Y-8.839 E11.68000
G1 X-89.439 Y-15.459 E11.88027
G1 X-88.039 Y-86.151 E14.01881
G1 X-88.010 Y-86.275 E14.02266
G1 X-87.828 Y-86.628 E14.03469
G1 X-87.675 Y-86.778 E14.04115
G1 X-87.436 Y-86.951 E14.05008
G1 X-87.084 Y-87.054 E14.06117
G1 X87.074 Y-87.054 E19.32865
G1 X87.425 Y-86.951 E19.33973
G1 X87.665 Y-86.778 E19.34867
G1 X87.818 Y-86.628 E19.35513
G1 X88.000 Y-86.275 E19.36716
G1 X88.029 Y-86.151 E19.37100
G1 X88.029 Y-86.036 E19.37448
G1 F600.000 E18.67448
G1 Z0.400 F18000.000
G92 E0
G1 X81.273 Y-85.595
G1 Z0.200
G1 F600.000 E0.70000
G1 X80.393 Y-80.104 F1080.000 E0.86820
G1 X79.667 Y-73.392 E1.07239
G1 X79.263 Y-66.860 E1.27032
G1 X79.208 Y-60.301 E1.46871
G1 X79.475 Y-53.766 E1.66653
G1 X80.001 Y-47.280 E1.86336
G1 X80.690 Y-40.854 E2.05881
G1 X81.434 Y-34.490 E2.25261
G1 X82.112 Y-28.178 E2.44463
G1 X82.602 Y-21.904 E2.63495
G1 X82.804 Y-15.660 E2.82390
G1 X82.658 Y-9.446 E3.01190
G1 X82.118 Y-3.273 E3.19934
G1 X81.163 Y2.843 E3.38656
G1 X79.790 Y8.881 E3.57383
G1 X78.010 Y14.819 E3.76132
G1 X75.844 Y20.637 E3.94910
G1 X73.317 Y26.319 E4.13717
G1 X70.455 Y31.848 E4.32548
G1 X67.281 Y37.210 E4.51395
G1 X63.815 Y42.392 E4.70250
G1 X60.072 Y47.376 E4.89102
G1 X56.062 Y52.142 E5.07940
G1 X51.793 Y56.667 E5.26755
G1 X47.269 Y60.922 E5.45541
G1 X42.493 Y64.873 E5.64289
G1 X37.471 Y68.482 E5.82993
G1 X32.212 Y71.705 E6.01648
G1 X26.730 Y74.495 E6.20251
G1 X21.048 Y76.801 E6.38800
G1 X15.195 Y78.578 E6.57299
G1 X9.214 Y79.792 E6.75758
G1 X3.152 Y80.414 E6.94190
G1 X-2.939 Y80.424 E7.12611
G1 X-9.003 Y79.824 E7.31041
G1 X-14.987 Y78.630 E7.49499
G1 X-20.845 Y76.872 E7.67997
G1 X-26.534 Y74.584 E7.86544
G1 X-32.023 Y71.810 E8.05145
G1 X-37.290 Y68.601 E8.23799
G1 X-42.321 Y65.005 E8.42501
G1 X-47.105 Y61.065 E8.61248
G1 X-51.639 Y56.820 E8.80032
G1 X-55.917 Y52.304 E8.98847
G1 X-59.935 Y47.546 E9.17684
G1 X-63.688 Y42.569 E9.36536
G1 X-67.163 Y37.394 E9.55390
G1 X-70.348 Y32.037 E9.74238
G1 X-73.222 Y26.514 E9.93070
G1 X-75.761 Y20.838 E10.11878
G1 X-77.940 Y15.024 E10.30657
G1 X-79.734 Y9.090 E10.49407
G1 X-81.121 Y3.055 E10.68134
G1 X-82.091 Y-3.058 E10.86856
G1 X-82.645 Y-9.230 E11.05599
G1 X-82.804 Y-15.443 E11.24397
G1 X-82.613 Y-21.686 E11.43287
G1 X-82.132 Y-27.958 E11.62314
G1 X-81.458 Y-34.269 E11.81509
G1 X-80.715 Y-40.631 E12.00883
G1 X-80.021 Y-47.055 E12.20423
G1 X-79.488 Y-53.539 E12.40102
G1 X-79.211 Y-60.059 E12.59841
G1 X-79.254 Y-66.617 E12.79675
G1 X-79.645 Y-73.164 E12.99513
G1 X-80.351 Y-79.809 E13.19722
G1 X-81.273 Y-85.595 E13.37444
G1 X81.218 Y-85.595 E18.28906
G1 F600.000 E17.58906
G1 Z0.400 F18000.000
G92 E0
G1 X86.674 Y-80.821
G1 Z0.200
G1 F600.000 E0.70000
G1 X87.613 Y-33.993 F1080.000 E2.11660
G1 X86.744 Y-41.536 E2.34623
G1 X86.065 Y-47.851 E2.53833
G1 X85.555 Y-54.133 E2.72897
G1 X85.299 Y-60.394 E2.91850
G1 X85.351 Y-66.638 E3.10736
G1 X85.736 Y-72.870 E3.29621
G1 X86.437 Y-79.341 E3.49306
G1 X86.665 Y-80.767 E3.53674
G1 F600.000 E2.83674
G1 Z0.400 F18000.000
G92 E0
G1 X-85.715 Y-72.653
G1 Z0.200
G1 F600.000 E0.70000
G1 X-85.342 Y-66.421 F1080.000 E0.88884
G1 X-85.301 Y-60.176 E1.07771
G1 X-85.568 Y-53.914 E1.26728
G1 X-86.085 Y-47.631 E1.45797
G1 X-86.768 Y-41.315 E1.65012
G1 X-87.613 Y-33.998 E1.87288
G1 X-86.682 Y-80.854 E3.29034
G1 X-86.395 Y-79.048 E3.34568
G1 X-85.721 Y-72.707 E3.53852
G1 F600.000 E2.83852
G1 Z0.400 F18000.000
G92 E0
G1 X-87.676 Y-85.978
G1 Z0.200
G1 F600.000 E0.70000
G1 X-87.666 Y-86.150 F1080.000 E0.70521
G1 X-87.546 Y-86.396 E0.71348
G1 X-87.440 Y-86.500 E0.71798
G1 X-87.257 Y-86.632 E0.72480
G1 X-87.058 Y-86.690 E0.73106
G1 X87.048 Y-86.690 E5.99701
G1 X87.247 Y-86.632 E6.00327
G1 X87.430 Y-86.500 E6.01009
G1 X87.536 Y-86.396 E6.01459
G1 X87.666 Y-86.109 E6.02411
G1 X89.076 Y-15.681 E8.15466
G1 X88.915 Y-9.094 E8.35393
G1 X88.344 Y-2.509 E8.55387
G1 X87.315 Y4.044 E8.75450
G1 X85.862 Y10.462 E8.95353
G1 X83.944 Y16.839 E9.15492
G1 X81.644 Y23.006 E9.35401
G1 X78.970 Y29.024 E9.55317
G1 X75.930 Y34.894 E9.75310
G1 X72.577 Y40.562 E9.95228
G1 X68.937 Y46.015 E10.15060
G1 X64.981 Y51.281 E10.34980
G1 X60.752 Y56.300 E10.54831
G1 X56.206 Y61.107 E10.74843
G1 X51.403 Y65.629 E10.94794
G1 X46.311 Y69.850 E11.14796
G1 X40.936 Y73.715 E11.34823
G1 X35.264 Y77.184 E11.54931
G1 X29.349 Y80.194 E11.75004
G1 X23.154 Y82.710 E11.95228
G1 X16.699 Y84.663 E12.15626
G1 X10.156 Y85.990 E12.35818
G1 X3.493 Y86.671 E12.56074
G1 X-2.588 Y86.680 E12.74468
G1 X-2.662 Y86.741 E12.74757
G1 X-3.268 Y86.681 E12.76598
G1 X-3.877 Y86.681 E12.78439
G1 X-3.943 Y86.615 E12.78723
G1 X-9.935 Y86.030 E12.96933
G1 X-16.488 Y84.721 E13.17145
G1 X-22.939 Y82.792 E13.37509
G1 X-29.148 Y80.294 E13.57752
G1 X-35.074 Y77.294 E13.77839
G1 X-40.755 Y73.836 E13.97956
G1 X-46.141 Y69.990 E14.17973
G1 X-51.241 Y65.800 E14.37936
G1 X-56.086 Y61.259 E14.58020
G1 X-60.602 Y56.471 E14.77927
G1 X-64.851 Y51.451 E14.97818
G1 X-68.807 Y46.196 E15.17714
G1 X-72.467 Y40.752 E15.37553
G1 X-75.829 Y35.094 E15.57461
G1 X-78.880 Y29.224 E15.77468
G1 X-81.574 Y23.216 E15.97382
G1 X-83.893 Y17.034 E16.17354
G1 X-85.812 Y10.693 E16.37392
G1 X-87.285 Y4.275 E16.57308
G1 X-88.325 Y-2.278 E16.77376
G1 X-88.915 Y-8.864 E16.97374
G1 X-89.076 Y-15.461 E17.17333
G1 X-87.677 Y-85.923 E19.30492
G1 F600.000 E18.60492
G1 Z0.400 F18000.000
G92 E0
G1 X-81.699 Y-85.959
G1 Z0.200
G1 F600.000 E0.70000
G1 X81.700 Y-85.959 F1080.000 E5.64207
G1 X80.755 Y-80.060 E5.82275
G1 X80.029 Y-73.365 E6.02642
G1 X79.626 Y-66.838 E6.22422
G1 X79.572 Y-60.298 E6.42203
G1 X79.838 Y-53.785 E6.61919
G1 X80.363 Y-47.311 E6.81562
G1 X81.052 Y-40.894 E7.01083
G1 X81.795 Y-34.531 E7.20461
G1 X82.475 Y-28.211 E7.39683
G1 X82.965 Y-21.924 E7.58757
G1 X83.168 Y-15.662 E7.77707
G1 X83.021 Y-9.426 E7.96573
G1 X82.479 Y-3.229 E8.15389
G1 X81.521 Y2.912 E8.34186
G1 X80.142 Y8.974 E8.52989
G1 X78.355 Y14.935 E8.71811
G1 X76.181 Y20.775 E8.90659
G1 X73.645 Y26.476 E9.09532
G1 X70.773 Y32.024 E9.28427
G1 X67.589 Y37.404 E9.47336
G1 X64.111 Y42.602 E9.66251
G1 X60.357 Y47.602 E9.85163
G1 X56.334 Y52.384 E10.04063
G1 X52.050 Y56.925 E10.22943
G1 X47.510 Y61.195 E10.41796
G1 X42.715 Y65.161 E10.60616
G1 X37.672 Y68.785 E10.79399
G1 X32.390 Y72.023 E10.98138
G1 X26.881 Y74.826 E11.16831
G1 X21.169 Y77.144 E11.35477
G1 X15.284 Y78.931 E11.54078
G1 X9.269 Y80.152 E11.72643
G1 X3.171 Y80.777 E11.91184
G1 X-2.956 Y80.788 E12.09715
G1 X-9.056 Y80.184 E12.28255
G1 X-15.075 Y78.984 E12.46819
G1 X-20.966 Y77.216 E12.65419
G1 X-26.684 Y74.915 E12.84064
G1 X-32.200 Y72.128 E13.02755
G1 X-37.491 Y68.905 E13.21493
G1 X-42.542 Y65.294 E13.40274
G1 X-47.346 Y61.339 E13.59093
G1 X-51.895 Y57.078 E13.77945
G1 X-56.188 Y52.547 E13.96824
G1 X-60.220 Y47.773 E14.15723
G1 X-63.984 Y42.780 E14.34635
G1 X-67.471 Y37.589 E14.53550
G1 X-70.666 Y32.215 E14.72459
G1 X-73.549 Y26.672 E14.91355
G1 X-76.097 Y20.976 E15.10229
G1 X-78.285 Y15.140 E15.29078
G1 X-80.085 Y9.183 E15.47901
G1 X-81.479 Y3.125 E15.66704
G1 X-82.452 Y-3.014 E15.85501
G1 X-83.008 Y-9.209 E16.04316
G1 X-83.168 Y-15.444 E16.23179
G1 X-82.976 Y-21.706 E16.42126
G1 X-82.494 Y-27.992 E16.61195
G1 X-81.820 Y-34.310 E16.80412
G1 X-81.077 Y-40.671 E16.99784
G1 X-80.384 Y-47.087 E17.19301
G1 X-79.852 Y-53.558 E17.38940
G1 X-79.575 Y-60.075 E17.58668
G1 X-79.617 Y-66.610 E17.78433
G1 X-80.008 Y-73.138 E17.98215
G1 X-80.712 Y-79.766 E18.18372
