; generated by Slic3r 0.9.10-dev on 2013-06-02 at 20:32:29

; layer_height = 0.3
; perimeters = 3
; top_solid_layers = 3
; bottom_solid_layers = 2
; fill_density = 0.12
; perimeter_speed = 60
; infill_speed = 80
; travel_speed = 300
; nozzle_diameter = 0.35
; filament_diameter = 1.75
; extrusion_multiplier = 1
; perimeters extrusion width = 0.37mm
; infill extrusion width = 0.37mm
; solid infill extrusion width = 0.37mm
; top infill extrusion width = 0.37mm

G21 ; set units to millimeters
M107
G28
G92 X0 Y0 Z0 E0
G1 F5000 Y30 X30
G1 X220
G1 F100 E10
G28
G92 X0 Y0 Z0
G1 F4000 X101 Y127
G92 X0 Y0 Z0 E0
M106 S255
G90 ; use absolute coordinates
G92 E0
M82 ; use absolute distances for extrusion
G1 F600.000 E-0.70000
G1 Z0.400 F18000.000
G92 E0
G1 X55.350 Y-0.000
G1 Z0.200
G1 F600.000 E0.70000
G1 X55.290 Y3.690 F1080.000 E0.81162
G1 X55.090 Y7.380 E0.92339
G1 X54.760 Y11.050 E1.03484
G1 X54.300 Y14.690 E1.14581
G1 X53.710 Y18.290 E1.25614
G1 X52.990 Y21.840 E1.36570
G1 X52.130 Y25.360 E1.47530
G1 X51.160 Y28.810 E1.58369
G1 X50.060 Y32.170 E1.69062
G1 X49.000 Y35.050 E1.78344
G1 X44.680 Y44.480 E2.09716
G1 X44.490 Y44.850 E2.10974
G1 X42.830 Y47.750 E2.21081
G1 X41.050 Y50.570 E2.31167
G1 X39.190 Y53.240 E2.41009
G1 X37.210 Y55.810 E2.50821
G1 X35.320 Y58.030 E2.59639
G1 X33.030 Y60.490 E2.69805
G1 X30.790 Y62.640 E2.79195
G1 X28.510 Y64.600 E2.88289
G1 X26.130 Y66.440 E2.97388
G1 X23.720 Y68.090 E3.06222
G1 X21.230 Y69.600 E3.15030
G1 X18.720 Y70.920 E3.23607
G1 X16.090 Y72.110 E3.32338
G1 X13.470 Y73.100 E3.40809
G1 X10.830 Y73.900 E3.49152
G1 X8.130 Y74.540 E3.57545
G1 X5.450 Y74.990 E3.65764
G1 X2.730 Y75.260 E3.74031
G1 X0.050 Y75.360 E3.82143
G1 X-2.740 Y75.260 E3.90587
G1 X-5.460 Y74.990 E3.98854
G1 X-8.140 Y74.540 E4.07073
G1 X-10.840 Y73.900 E4.15466
G1 X-13.480 Y73.100 E4.23809
G1 X-16.100 Y72.110 E4.32280
G1 X-18.680 Y70.940 E4.40849
G1 X-21.240 Y69.600 E4.49588
G1 X-23.730 Y68.090 E4.58396
G1 X-26.140 Y66.440 E4.67230
G1 X-28.520 Y64.600 E4.76328
G1 X-30.800 Y62.640 E4.85422
G1 X-33.040 Y60.490 E4.94813
G1 X-35.180 Y58.210 E5.04271
G1 X-37.220 Y55.810 E5.13798
G1 X-39.200 Y53.240 E5.23610
G1 X-41.060 Y50.570 E5.33452
G1 X-42.840 Y47.750 E5.43538
G1 X-44.500 Y44.850 E5.53645
G1 X-46.070 Y41.810 E5.63993
G1 X-47.520 Y38.690 E5.74399
G1 X-48.850 Y35.490 E5.84880
G1 X-50.070 Y32.170 E5.95578
G1 X-51.170 Y28.810 E6.06271
G1 X-52.140 Y25.360 E6.17111
G1 X-53.000 Y21.840 E6.28070
G1 X-53.720 Y18.290 E6.39026
G1 X-54.310 Y14.690 E6.50060
G1 X-54.770 Y11.050 E6.61157
G1 X-55.100 Y7.380 E6.72301
G1 X-55.300 Y3.700 E6.83448
G1 X-55.360 Y-0.000 E6.94640
G1 X-55.300 Y-3.710 E7.05863
G1 X-55.100 Y-7.390 E7.17010
G1 X-54.770 Y-11.060 E7.28155
G1 X-54.310 Y-14.700 E7.39252
G1 X-53.720 Y-18.300 E7.50285
G1 X-53.000 Y-21.850 E7.61241
G1 X-52.140 Y-25.370 E7.72200
G1 X-51.170 Y-28.820 E7.83040
G1 X-50.070 Y-32.180 E7.93733
G1 X-48.850 Y-35.500 E8.04431
G1 X-47.520 Y-38.700 E8.14912
G1 X-46.070 Y-41.820 E8.25318
G1 X-44.500 Y-44.860 E8.35667
G1 X-42.840 Y-47.760 E8.45773
G1 X-41.060 Y-50.580 E8.55859
G1 X-39.200 Y-53.250 E8.65701
G1 X-37.220 Y-55.820 E8.75514
G1 X-35.180 Y-58.220 E8.85040
G1 X-33.040 Y-60.500 E8.94498
G1 X-30.800 Y-62.650 E9.03889
G1 X-28.520 Y-64.610 E9.12983
G1 X-26.140 Y-66.450 E9.22082
G1 X-23.730 Y-68.100 E9.30915
G1 X-21.240 Y-69.610 E9.39723
G1 X-18.680 Y-70.950 E9.48463
G1 X-16.100 Y-72.120 E9.57031
G1 X-13.480 Y-73.110 E9.65502
G1 X-10.850 Y-73.910 E9.73816
G1 X-8.140 Y-74.550 E9.82238
G1 X-5.460 Y-75.000 E9.90458
G1 X-2.740 Y-75.270 E9.98725
G1 X-0.020 Y-75.360 E10.06956
G1 X2.730 Y-75.270 E10.15278
G1 X5.450 Y-75.000 E10.23545
G1 X8.130 Y-74.550 E10.31764
G1 X10.830 Y-73.910 E10.40157
G1 X13.470 Y-73.110 E10.48500
G1 X16.090 Y-72.120 E10.56972
G1 X18.670 Y-70.950 E10.65540
G1 X21.230 Y-69.610 E10.74279
G1 X23.720 Y-68.100 E10.83087
G1 X26.130 Y-66.450 E10.91921
G1 X28.510 Y-64.610 E11.01020
G1 X30.790 Y-62.650 E11.10113
G1 X33.030 Y-60.500 E11.19504
G1 X35.170 Y-58.220 E11.28962
G1 X37.210 Y-55.820 E11.38489
G1 X39.190 Y-53.250 E11.48301
G1 X41.050 Y-50.580 E11.58143
G1 X42.830 Y-47.760 E11.68229
G1 X44.490 Y-44.860 E11.78336
G1 X46.060 Y-41.820 E11.88684
G1 X47.140 Y-39.500 E11.96424
G1 X52.160 Y-25.230 E12.42177
G1 X52.990 Y-21.850 E12.52704
G1 X53.710 Y-18.300 E12.63660
G1 X54.300 Y-14.700 E12.74693
G1 X54.760 Y-11.060 E12.85790
G1 X55.090 Y-7.390 E12.96935
G1 X55.290 Y-3.710 E13.08082
G1 X55.349 Y-0.055 E13.19139
G1 X56.443 Y-0.033 F18000.000
G1 X56.382 Y3.732 F1080.000 E13.30527
G1 X56.181 Y7.450 E13.41788
G1 X55.849 Y11.147 E13.53017
G1 X55.387 Y14.816 E13.64200
G1 X54.794 Y18.445 E13.75321
G1 X54.045 Y22.140 E13.86725
G1 X53.206 Y25.572 E13.97411
G1 X52.230 Y29.054 E14.08347
G1 X51.084 Y32.555 E14.19489
G1 X50.008 Y35.474 E14.28899
G1 X45.522 Y45.247 E14.61425
G1 X43.736 Y48.367 E14.72296
G1 X41.973 Y51.157 E14.82278
G1 X40.055 Y53.911 E14.92431
G1 X38.092 Y56.460 E15.02159
G1 X36.136 Y58.758 E15.11289
G1 X33.752 Y61.319 E15.21870
G1 X31.654 Y63.315 E15.30629
G1 X31.599 Y63.386 E15.30899
G1 X29.163 Y65.480 E15.40617
G1 X26.796 Y67.309 E15.49662
G1 X24.301 Y69.017 E15.58807
G1 X21.775 Y70.548 E15.67742
G1 X19.198 Y71.903 E15.76550
G1 X16.506 Y73.121 E15.85484
G1 X13.839 Y74.130 E15.94111
G1 X11.057 Y74.973 E16.02903
G1 X8.405 Y75.602 E16.11146
G1 X5.579 Y76.077 E16.19814
G1 X2.807 Y76.351 E16.28237
G1 X0.944 Y76.415 E16.33876
G1 X0.867 Y76.487 E16.34195
G1 X-0.040 Y76.453 E16.36940
G1 X-0.948 Y76.453 E16.39685
G1 X-0.983 Y76.418 E16.39835
G1 X-2.817 Y76.351 E16.45386
G1 X-5.589 Y76.077 E16.53809
G1 X-8.415 Y75.602 E16.62478
G1 X-11.067 Y74.973 E16.70721
G1 X-13.849 Y74.130 E16.79513
G1 X-16.516 Y73.121 E16.88139
G1 X-19.202 Y71.901 E16.97061
G1 X-21.785 Y70.548 E17.05880
G1 X-24.311 Y69.017 E17.14816
G1 X-26.806 Y67.309 E17.23961
G1 X-29.173 Y65.480 E17.33005
G1 X-31.609 Y63.386 E17.42723
G1 X-31.664 Y63.315 E17.42994
G1 X-33.760 Y61.321 E17.51743
G1 X-35.996 Y58.938 E17.61628
G1 X-38.103 Y56.459 E17.71466
G1 X-40.065 Y53.911 E17.81193
G1 X-41.983 Y51.157 E17.91345
G1 X-43.746 Y48.367 E18.01328
G1 X-45.532 Y45.247 E18.12199
G1 X-47.052 Y42.290 E18.22255
G1 X-48.481 Y39.226 E18.32483
G1 X-49.908 Y35.793 E18.43727
G1 X-51.094 Y32.555 E18.54157
G1 X-52.240 Y29.054 E18.65299
G1 X-53.216 Y25.572 E18.76235
G1 X-54.055 Y22.140 E18.86921
G1 X-54.804 Y18.445 E18.98325
G1 X-55.397 Y14.816 E19.09446
G1 X-55.859 Y11.147 E19.20629
G1 X-56.191 Y7.450 E19.31858
G1 X-56.392 Y3.742 E19.43088
G1 X-56.453 Y0.005 E19.54392
G1 X-56.392 Y-3.752 E19.65758
G1 X-56.191 Y-7.460 E19.76988
G1 X-55.859 Y-11.157 E19.88217
G1 X-55.397 Y-14.826 E19.99400
G1 X-54.804 Y-18.455 E20.10521
G1 X-54.055 Y-22.150 E20.21925
G1 X-53.216 Y-25.582 E20.32611
G1 X-52.240 Y-29.064 E20.43547
G1 X-51.094 Y-32.565 E20.54690
G1 X-49.908 Y-35.803 E20.65119
G1 X-48.481 Y-39.236 E20.76363
G1 X-47.052 Y-42.300 E20.86591
G1 X-45.532 Y-45.257 E20.96647
G1 X-43.746 Y-48.377 E21.07518
G1 X-41.983 Y-51.167 E21.17501
G1 X-40.065 Y-53.921 E21.27654
G1 X-38.103 Y-56.469 E21.37380
G1 X-35.996 Y-58.948 E21.47218
G1 X-33.760 Y-61.331 E21.57103
G1 X-31.664 Y-63.325 E21.65852
G1 X-31.609 Y-63.396 E21.66123
G1 X-29.173 Y-65.490 E21.75841
G1 X-26.806 Y-67.319 E21.84885
G1 X-24.311 Y-69.027 E21.94030
G1 X-21.785 Y-70.558 E22.02966
G1 X-19.158 Y-71.933 E22.11934
G1 X-16.516 Y-73.131 E22.20707
G1 X-13.850 Y-74.140 E22.29331
G1 X-11.078 Y-74.983 E22.38094
G1 X-8.415 Y-75.612 E22.46369
G1 X-5.589 Y-76.087 E22.55037
G1 X-2.772 Y-76.363 E22.63597
G1 X0.011 Y-76.453 E22.72018
G1 X2.807 Y-76.361 E22.80480
G1 X5.579 Y-76.087 E22.88904
G1 X8.405 Y-75.612 E22.97572
G1 X11.057 Y-74.983 E23.05815
G1 X13.839 Y-74.140 E23.14607
G1 X16.506 Y-73.131 E23.23233
G1 X19.148 Y-71.933 E23.32006
G1 X21.775 Y-70.558 E23.40975
G1 X24.301 Y-69.027 E23.49910
G1 X26.796 Y-67.319 E23.59055
G1 X29.163 Y-65.490 E23.68100
G1 X31.599 Y-63.396 E23.77818
G1 X31.654 Y-63.325 E23.78088
G1 X33.750 Y-61.331 E23.86838
G1 X35.986 Y-58.948 E23.96722
G1 X38.093 Y-56.469 E24.06561
G1 X40.055 Y-53.921 E24.16287
G1 X41.973 Y-51.167 E24.26440
G1 X43.736 Y-48.377 E24.36422
G1 X45.522 Y-45.257 E24.47293
G1 X47.042 Y-42.301 E24.57347
G1 X48.166 Y-39.880 E24.65419
G1 X53.205 Y-25.551 E25.11362
G1 X54.045 Y-22.150 E25.21956
G1 X54.794 Y-18.455 E25.33361
G1 X55.387 Y-14.826 E25.44481
G1 X55.849 Y-11.157 E25.55665
G1 X56.181 Y-7.460 E25.66893
G1 X56.382 Y-3.752 E25.78124
G1 X56.442 Y-0.087 E25.89210
G1 F600.000 E25.19210
G1 Z0.400 F18000.000
G92 E0
G1 X50.479 Y-0.792
G1 Z0.200
G1 F600.000 E0.70000
G1 X49.792 Y5.606 F1080.000 E0.89461
G1 X49.049 Y11.967 E1.08830
G1 X48.368 Y18.302 E1.28103
G1 X47.874 Y24.626 E1.47288
G1 X47.669 Y30.941 E1.66399
G1 X47.767 Y35.117 E1.79032
G1 X44.973 Y41.216 E1.99322
G1 X44.642 Y37.428 E2.10820
G1 X44.488 Y30.932 E2.30476
G1 X44.698 Y24.451 E2.50088
G1 X45.201 Y18.009 E2.69632
G1 X45.888 Y11.610 E2.89095
G1 X46.631 Y5.249 E3.08464
G1 X47.313 Y-1.099 E3.27776
G1 X47.826 Y-7.433 E3.46995
G1 X48.085 Y-13.761 E3.66151
G1 X48.032 Y-20.080 E3.85266
G1 X47.644 Y-26.362 E4.04302
G1 X46.935 Y-32.902 E4.24197
G1 X46.051 Y-38.434 E4.41142
G1 X46.356 Y-38.434 E4.42064
G1 X50.878 Y-25.582 E4.83271
G1 X51.211 Y-20.181 E4.99638
G1 X51.266 Y-13.697 E5.19250
G1 X51.001 Y-7.228 E5.38832
G1 X50.484 Y-0.846 E5.58198
G1 F600.000 E4.88198
G1 Z0.400 F18000.000
G92 E0
G1 X56.079 Y-0.028
G1 Z0.200
G1 F600.000 E0.70000
G1 X56.019 Y3.717 F1080.000 E0.81330
G1 X55.818 Y7.425 E0.92561
G1 X55.487 Y11.113 E1.03760
G1 X55.026 Y14.772 E1.14913
G1 X54.434 Y18.390 E1.26003
G1 X53.693 Y22.044 E1.37280
G1 X52.849 Y25.497 E1.48031
G1 X51.876 Y28.968 E1.58933
G1 X50.743 Y32.429 E1.69948
G1 X49.673 Y35.331 E1.79303
G1 X45.336 Y44.799 E2.10801
G1 X45.183 Y45.108 E2.11844
G1 X43.433 Y48.165 E2.22498
G1 X41.667 Y50.960 E2.32496
G1 X39.765 Y53.690 E2.42560
G1 X37.801 Y56.241 E2.52297
G1 X35.864 Y58.517 E2.61337
G1 X33.508 Y61.047 E2.71793
G1 X31.335 Y63.134 E2.80906
G1 X28.943 Y65.190 E2.90446
G1 X26.577 Y67.018 E2.99489
G1 X24.106 Y68.709 E3.08545
G1 X21.593 Y70.233 E3.17435
G1 X19.038 Y71.576 E3.26164
G1 X16.369 Y72.784 E3.35025
G1 X13.719 Y73.787 E3.43596
G1 X10.977 Y74.618 E3.52261
G1 X8.318 Y75.248 E3.60526
G1 X5.533 Y75.716 E3.69066
G1 X2.780 Y75.988 E3.77435
G1 X0.796 Y76.056 E3.83439
G1 X0.730 Y76.118 E3.83712
G1 X-0.034 Y76.089 E3.86022
G1 X-0.797 Y76.089 E3.88332
G1 X-0.827 Y76.060 E3.88458
G1 X-2.790 Y75.988 E3.94400
G1 X-5.543 Y75.716 E4.02768
G1 X-8.328 Y75.248 E4.11309
G1 X-10.987 Y74.618 E4.19574
G1 X-13.729 Y73.787 E4.28238
G1 X-16.379 Y72.784 E4.36810
G1 X-19.035 Y71.578 E4.45631
G1 X-21.603 Y70.233 E4.54398
G1 X-24.116 Y68.709 E4.63289
G1 X-26.587 Y67.018 E4.72345
G1 X-28.953 Y65.190 E4.81388
G1 X-31.345 Y63.134 E4.90928
G1 X-33.516 Y61.048 E5.00034
G1 X-35.724 Y58.696 E5.09790
G1 X-37.811 Y56.240 E5.19539
G1 X-39.775 Y53.690 E5.29275
G1 X-41.677 Y50.960 E5.39339
G1 X-43.443 Y48.165 E5.49337
G1 X-45.193 Y45.108 E5.59991
G1 X-46.725 Y42.130 E5.70121
G1 X-48.159 Y39.053 E5.80388
G1 X-49.558 Y35.686 E5.91415
G1 X-50.753 Y32.429 E6.01909
G1 X-51.886 Y28.968 E6.12923
G1 X-52.859 Y25.497 E6.23825
G1 X-53.703 Y22.044 E6.34577
G1 X-54.444 Y18.390 E6.45854
G1 X-55.036 Y14.772 E6.56944
G1 X-55.497 Y11.113 E6.68097
G1 X-55.828 Y7.425 E6.79296
G1 X-56.029 Y3.727 E6.90497
G1 X-56.089 Y0.004 E7.01760
G1 X-56.029 Y-3.737 E7.13077
G1 X-55.828 Y-7.435 E7.24278
G1 X-55.497 Y-11.123 E7.35477
G1 X-55.036 Y-14.782 E7.46630
G1 X-54.444 Y-18.400 E7.57720
G1 X-53.703 Y-22.054 E7.68996
G1 X-52.859 Y-25.507 E7.79748
G1 X-51.886 Y-28.978 E7.90650
G1 X-50.753 Y-32.439 E8.01664
G1 X-49.558 Y-35.696 E8.12158
G1 X-48.159 Y-39.063 E8.23185
G1 X-46.725 Y-42.140 E8.33452
G1 X-45.193 Y-45.118 E8.43582
G1 X-43.443 Y-48.175 E8.54236
G1 X-41.677 Y-50.970 E8.64234
G1 X-39.775 Y-53.700 E8.74298
G1 X-37.811 Y-56.250 E8.84034
G1 X-35.724 Y-58.706 E8.93783
G1 X-33.516 Y-61.058 E9.03539
G1 X-31.345 Y-63.144 E9.12645
G1 X-28.953 Y-65.200 E9.22186
G1 X-26.587 Y-67.028 E9.31228
G1 X-24.116 Y-68.719 E9.40285
G1 X-21.603 Y-70.243 E9.49175
G1 X-18.998 Y-71.606 E9.58065
G1 X-16.379 Y-72.794 E9.66764
G1 X-13.729 Y-73.797 E9.75334
G1 X-10.998 Y-74.628 E9.83969
G1 X-8.328 Y-75.258 E9.92265
G1 X-5.543 Y-75.726 E10.00806
G1 X-2.763 Y-75.999 E10.09256
G1 X0.008 Y-76.089 E10.17640
G1 X2.780 Y-75.998 E10.26029
G1 X5.533 Y-75.726 E10.34398
G1 X8.318 Y-75.258 E10.42938
G1 X10.977 Y-74.628 E10.51203
G1 X13.719 Y-73.797 E10.59868
G1 X16.369 Y-72.794 E10.68439
G1 X18.988 Y-71.606 E10.77137
G1 X21.593 Y-70.243 E10.86028
G1 X24.106 Y-68.719 E10.94918
G1 X26.577 Y-67.028 E11.03974
G1 X28.943 Y-65.200 E11.13017
G1 X31.335 Y-63.144 E11.22558
G1 X33.506 Y-61.058 E11.31664
G1 X35.714 Y-58.706 E11.41419
G1 X37.801 Y-56.250 E11.51169
G1 X39.765 Y-53.700 E11.60904
G1 X41.667 Y-50.970 E11.70969
G1 X43.433 Y-48.175 E11.80966
G1 X45.183 Y-45.118 E11.91620
G1 X46.715 Y-42.140 E12.01749
G1 X47.824 Y-39.755 E12.09704
G1 X52.858 Y-25.443 E12.55593
G1 X53.693 Y-22.054 E12.66148
G1 X54.434 Y-18.400 E12.77425
G1 X55.026 Y-14.782 E12.88515
G1 X55.487 Y-11.123 E12.99668
G1 X55.818 Y-7.435 E13.10867
G1 X56.019 Y-3.737 E13.22068
G1 X56.078 Y-0.083 E13.33123
G1 F600.000 E12.63123
G1 Z0.400 F18000.000
G92 E0
G1 X50.841 Y-0.758
G1 Z0.200
G1 F600.000 E0.70000
G1 X50.154 Y5.646 F1080.000 E0.89480
G1 X49.410 Y12.010 E1.08860
G1 X48.730 Y18.338 E1.28109
G1 X48.237 Y24.650 E1.47258
G1 X48.033 Y30.948 E1.66316
G1 X48.133 Y35.192 E1.79156
G1 X44.731 Y42.618 E2.03862
G1 X44.278 Y37.449 E2.19558
G1 X44.124 Y30.930 E2.39279
G1 X44.335 Y24.431 E2.58947
G1 X44.838 Y17.975 E2.78532
G1 X45.526 Y11.570 E2.98016
G1 X46.269 Y5.208 E3.17388
G1 X46.950 Y-1.131 E3.36671
G1 X47.462 Y-7.440 E3.55817
G1 X47.721 Y-13.762 E3.74954
G1 X47.669 Y-20.048 E3.93967
G1 X47.281 Y-26.336 E4.13020
G1 X46.574 Y-32.858 E4.32863
G1 X45.624 Y-38.798 E4.51056
G1 X46.613 Y-38.798 E4.54048
G1 X51.256 Y-25.604 E4.96352
G1 X51.241 Y-25.602 E4.96397
G1 X51.575 Y-20.194 E5.12784
G1 X51.629 Y-13.691 E5.32452
G1 X51.364 Y-7.206 E5.52083
G1 X50.846 Y-0.812 E5.71486
G1 F600.000 E5.01486
G1 Z0.400 F18000.000
G92 E0
G1 X55.716 Y-0.024
G1 Z0.200
G1 F600.000 E0.70000
G1 X55.655 Y3.702 F1080.000 E0.81271
G1 X55.455 Y7.401 E0.92473
G1 X55.125 Y11.079 E1.03643
G1 X54.664 Y14.727 E1.14765
G1 X54.074 Y18.336 E1.25824
G1 X53.341 Y21.948 E1.36973
G1 X52.492 Y25.423 E1.47791
G1 X51.521 Y28.882 E1.58659
G1 X50.401 Y32.303 E1.69545
G1 X49.339 Y35.189 E1.78847
G1 X45.009 Y44.639 E2.10287
G1 X44.843 Y44.969 E2.11402
G1 X43.129 Y47.963 E2.21839
G1 X41.361 Y50.763 E2.31852
G1 X39.476 Y53.469 E2.41828
G1 X37.510 Y56.022 E2.51573
G1 X35.591 Y58.275 E2.60525
G1 X33.264 Y60.775 E2.70856
G1 X31.070 Y62.881 E2.80054
G1 X28.723 Y64.899 E2.89417
G1 X26.358 Y66.727 E2.98458
G1 X23.911 Y68.402 E3.07425
G1 X21.410 Y69.918 E3.16271
G1 X18.879 Y71.249 E3.24921
G1 X16.232 Y72.447 E3.33707
G1 X13.598 Y73.443 E3.42224
G1 X10.897 Y74.262 E3.50761
G1 X8.231 Y74.894 E3.59048
G1 X5.488 Y75.354 E3.67461
G1 X2.753 Y75.625 E3.75774
G1 X0.648 Y75.697 E3.82144
G1 X0.593 Y75.749 E3.82372
G1 X-0.647 Y75.726 E3.86121
G1 X-0.671 Y75.702 E3.86223
G1 X-2.763 Y75.625 E3.92555
G1 X-5.498 Y75.354 E4.00868
G1 X-8.241 Y74.894 E4.09281
G1 X-10.907 Y74.262 E4.17568
G1 X-13.608 Y73.443 E4.26105
G1 X-16.242 Y72.447 E4.34622
G1 X-18.867 Y71.255 E4.43342
G1 X-21.420 Y69.918 E4.52058
G1 X-23.921 Y68.402 E4.60903
G1 X-26.368 Y66.727 E4.69871
G1 X-28.733 Y64.899 E4.78911
G1 X-31.080 Y62.881 E4.88274
G1 X-33.273 Y60.776 E4.97469
G1 X-35.451 Y58.455 E5.07096
G1 X-37.520 Y56.021 E5.16757
G1 X-39.486 Y53.469 E5.26502
G1 X-41.371 Y50.763 E5.36477
G1 X-43.139 Y47.963 E5.46491
G1 X-44.853 Y44.969 E5.56928
G1 X-46.399 Y41.970 E5.67131
G1 X-47.837 Y38.880 E5.77438
G1 X-49.209 Y35.580 E5.88248
G1 X-50.411 Y32.303 E5.98806
G1 X-51.531 Y28.882 E6.09692
G1 X-52.502 Y25.423 E6.20560
G1 X-53.351 Y21.948 E6.31378
G1 X-54.084 Y18.336 E6.42527
G1 X-54.674 Y14.727 E6.53586
G1 X-55.135 Y11.079 E6.64709
G1 X-55.465 Y7.401 E6.75878
G1 X-55.665 Y3.712 E6.87050
G1 X-55.726 Y0.002 E6.98273
G1 X-55.665 Y-3.722 E7.09540
G1 X-55.465 Y-7.411 E7.20711
G1 X-55.135 Y-11.089 E7.31881
G1 X-54.674 Y-14.737 E7.43003
