; generated by Slic3r 1.1.3-dev on 2014-05-25 at 20:44:27

; perimeters extrusion width = 0.35mm
; infill extrusion width = 0.57mm
; solid infill extrusion width = 0.57mm
; top infill extrusion width = 0.57mm

G21 ; set units to millimeters
M107
G28
G92 X0 Y0 Z0 E0
G1 F5000 Y30 X30
G1 X220
G1 F100 E10
G28
G92 X0 Y0 Z0
G1 F4000 X101 Y127
G92 X0 Y0 Z0 E0
M106 S255
G90 ; use absolute coordinates
G92 E0
M82 ; use absolute distances for extrusion
G1 F600.000 E-0.70000
G1 Z0.400 F7800.000
G92 E0
G1 X-11.549 Y23.686 F7800.000
G1 Z0.200 F7800.000
G1 E0.70000 F600.000
G1 X-12.713 Y23.119 E0.74190 F1080.000
G1 X-14.917 Y21.761 E0.82571
G1 X-16.979 Y20.194 E0.90951
G1 X-18.876 Y18.433 E0.99332
G1 X-20.592 Y16.494 E1.07712
G1 X-22.110 Y14.396 E1.16093
G1 X-23.099 Y12.746 E1.22319
G1 X-23.414 Y12.160 E1.24475
G1 X-24.493 Y9.806 E1.32856
G1 X-25.346 Y7.320 E1.41363
G1 X-25.936 Y4.839 E1.49616
G1 X-26.285 Y2.274 E1.57997
G1 X-26.382 Y-0.314 E1.66377
G1 X-26.224 Y-2.898 E1.74758
G1 X-25.942 Y-4.801 E1.80984
G1 X-25.813 Y-5.454 E1.83140
G1 X-25.155 Y-7.958 E1.91521
G1 X-24.253 Y-10.385 E1.99901
G1 X-23.431 Y-12.124 E2.06127
G1 X-23.119 Y-12.713 E2.08284
G1 X-21.761 Y-14.918 E2.16664
G1 X-20.194 Y-16.979 E2.25045
G1 X-18.903 Y-18.404 E2.31271
G1 X-18.433 Y-18.876 E2.33427
G1 X-17.008 Y-20.168 E2.39653
G1 X-16.494 Y-20.592 E2.41809
G1 X-14.396 Y-22.110 E2.50190
G1 X-12.746 Y-23.099 E2.56416
G1 X-12.160 Y-23.414 E2.58572
G1 X-9.806 Y-24.493 E2.66952
G1 X-7.358 Y-25.337 E2.75333
G1 X-5.492 Y-25.804 E2.81559
G1 X-4.839 Y-25.936 E2.83715
G1 X-2.274 Y-26.285 E2.92096
G1 X0.313 Y-26.382 E3.00476
G1 X2.235 Y-26.287 E3.06702
G1 X2.898 Y-26.224 E3.08858 F1080.000
G1 X5.454 Y-25.814 E3.17239
G1 X7.958 Y-25.155 E3.25619
G1 X10.385 Y-24.253 E3.34000
G1 X12.713 Y-23.119 E3.42380
G1 X14.917 Y-21.761 E3.50761
G1 X17.008 Y-20.168 E3.59268
G1 X18.876 Y-18.433 E3.67521
G1 X20.592 Y-16.494 E3.75901
G1 X22.110 Y-14.396 E3.84282
G1 X23.414 Y-12.160 E3.92662
G1 X24.493 Y-9.806 E4.01044
G1 X25.337 Y-7.358 E4.09424
G1 X25.804 Y-5.492 E4.15651
G1 X25.936 Y-4.839 E4.17806
G1 X26.285 Y-2.274 E4.26187
G1 X26.380 Y0.353 E4.34694
G1 X26.224 Y2.898 E4.42948
G1 X25.814 Y5.454 E4.51328
G1 X25.155 Y7.958 E4.59709
G1 X24.253 Y10.385 E4.68089
G1 X23.119 Y12.713 E4.76470
G1 X21.761 Y14.917 E4.84850
G1 X20.168 Y17.008 E4.93358
G1 X18.433 Y18.876 E5.01611
G1 X16.494 Y20.592 E5.09991
G1 X14.396 Y22.110 E5.18372
G1 X12.160 Y23.414 E5.26752
G1 X9.806 Y24.493 E5.35133
G1 X7.358 Y25.337 E5.43514
G1 X4.839 Y25.936 E5.51894
G1 X2.274 Y26.285 E5.60275
G1 X-0.314 Y26.382 E5.68655
G1 X-2.898 Y26.224 E5.77036
G1 X-4.801 Y25.942 E5.83262
G1 X-5.454 Y25.813 E5.85418
G1 X-7.958 Y25.155 E5.93799
G1 X-10.385 Y24.253 E6.02179
G1 X-11.502 Y23.709 E6.06200
G1 F600.000 E5.36200
G1 Z0.400 F7800.000
G92 E0
G1 X-11.544 Y10.067 F7800.000
G1 Z0.200 F7800.000
G1 E0.70000 F600.000
G1 X-12.190 Y10.007 E0.72100 F540.000
G1 X-12.831 Y9.837 E0.74246
G1 X-13.461 Y9.570 E0.76460
G1 X-14.077 Y9.212 E0.78766
G1 X-14.676 Y8.771 E0.81174
G1 X-15.255 Y8.252 E0.83691
G1 X-15.807 Y7.658 E0.86315
G1 X-16.325 Y6.995 E0.89039
G1 X-16.804 Y6.269 E0.91855
G1 X-17.236 Y5.485 E0.94752
G1 X-17.614 Y4.650 E0.97718
G1 X-17.931 Y3.772 E1.00740
G1 X-18.181 Y2.857 E1.03809
G1 X-18.359 Y1.915 E1.06912
G1 X-18.462 Y0.955 E1.10039
G1 X-18.485 Y-0.000 E1.13130
G1 X-18.462 Y-0.955 E1.16221
G1 X-18.359 Y-1.915 E1.19349
G1 X-18.181 Y-2.857 E1.22452
G1 X-17.931 Y-3.772 E1.25520
G1 X-17.614 Y-4.650 E1.28543
G1 X-17.236 Y-5.485 E1.31509
G1 X-16.804 Y-6.269 E1.34406
G1 X-16.325 Y-6.995 E1.37222
G1 X-15.806 Y-7.658 E1.39946
G1 X-15.255 Y-8.252 E1.42569
G1 X-14.676 Y-8.771 E1.45086
G1 X-14.077 Y-9.212 E1.47495
G1 X-13.461 Y-9.570 E1.49800
G1 X-12.831 Y-9.837 E1.52015
G1 X-12.139 Y-10.021 E1.54331
G1 X-12.139 Y-10.397 E1.55548
G1 X-10.436 Y-9.855 E1.61333
G1 X-10.294 Y-9.810 E1.61814 F540.000
G1 X-9.740 Y-9.490 E1.63885
G1 X-9.263 Y-9.064 E1.65958
G1 X-8.866 Y-8.555 E1.68047
G1 X-8.544 Y-7.981 E1.70178
G1 X-8.285 Y-7.352 E1.72378
G1 X-8.078 Y-6.676 E1.74668
G1 X-7.914 Y-5.955 E1.77061
G1 X-7.783 Y-5.194 E1.79560
G1 X-7.590 Y-3.572 E1.84845
G1 X-7.441 Y-1.899 E1.90284
G1 X-7.400 Y-1.899 E1.90416
G1 X-7.307 Y0.000 E1.96568
G1 X-7.354 Y0.960 E1.99678
G1 X-7.590 Y3.572 E2.08169
G1 X-7.783 Y5.194 E2.13455
G1 X-7.914 Y5.955 E2.15954
G1 X-8.078 Y6.676 E2.18347
G1 X-8.285 Y7.352 E2.20637
G1 X-8.544 Y7.981 E2.22837
G1 X-8.866 Y8.555 E2.24968
G1 X-9.263 Y9.064 E2.27057
G1 X-9.740 Y9.490 E2.29129
G1 X-10.294 Y9.810 E2.31200
G1 X-10.905 Y10.004 E2.33274
G1 X-11.492 Y10.062 E2.35183
G1 X-11.530 Y9.675 F7800.000
G1 X-12.122 Y9.623 E2.37107 F540.000
G1 X-12.704 Y9.468 E2.39056
G1 X-13.286 Y9.221 E2.41103
G1 X-13.863 Y8.886 E2.43262
G1 X-14.430 Y8.469 E2.45540
G1 X-14.981 Y7.974 E2.47939
G1 X-15.510 Y7.405 E2.50452
G1 X-16.009 Y6.768 E2.53072
G1 X-16.471 Y6.068 E2.55787
G1 X-16.888 Y5.311 E2.58584
G1 X-17.253 Y4.504 E2.61450
G1 X-17.559 Y3.654 E2.64373
G1 X-17.801 Y2.770 E2.67342
G1 X-17.974 Y1.858 E2.70344
G1 X-18.073 Y0.929 E2.73369
G1 X-18.096 Y-0.000 E2.76377
G1 X-18.073 Y-0.929 E2.79385
G1 X-17.974 Y-1.858 E2.82411
G1 X-17.801 Y-2.770 E2.85412
G1 X-17.559 Y-3.654 E2.88381
G1 X-17.253 Y-4.504 E2.91304
G1 X-16.888 Y-5.311 E2.94171
G1 X-16.471 Y-6.068 E2.96968
G1 X-16.009 Y-6.768 E2.99682
G1 X-15.510 Y-7.405 E3.02302
G1 X-14.981 Y-7.974 E3.04815
G1 X-14.430 Y-8.469 E3.07214
G1 X-13.863 Y-8.886 E3.09492
G1 X-13.286 Y-9.221 E3.11651
G1 X-12.704 Y-9.468 E3.13698
G1 X-12.122 Y-9.623 E3.15647
G1 X-11.750 Y-9.657 E3.16857
G1 X-11.750 Y-9.864 E3.17528 F540.000
G1 X-10.453 Y-9.452 E3.21935
G1 X-9.970 Y-9.173 E3.23740
G1 X-9.548 Y-8.797 E3.25569
G1 X-9.191 Y-8.339 E3.27449
G1 X-8.895 Y-7.811 E3.29409
G1 X-8.652 Y-7.221 E3.31473
G1 X-8.454 Y-6.575 E3.33659
G1 X-8.295 Y-5.878 E3.35972
G1 X-8.168 Y-5.135 E3.38412
G1 X-7.978 Y-3.534 E3.43632
G1 X-7.796 Y-1.509 E3.50212
G1 X-7.771 Y-1.509 E3.50293
G1 X-7.697 Y0.000 E3.55184
G1 X-7.743 Y0.932 E3.58205
G1 X-7.978 Y3.534 E3.66662
G1 X-8.168 Y5.135 E3.71881
G1 X-8.295 Y5.878 E3.74321
G1 X-8.454 Y6.575 E3.76634
G1 X-8.652 Y7.221 E3.78820
G1 X-8.895 Y7.811 E3.80884
G1 X-9.191 Y8.339 E3.82844
G1 X-9.548 Y8.797 E3.84724
G1 X-9.970 Y9.173 E3.86553
G1 X-10.453 Y9.452 E3.88358
G1 X-10.984 Y9.621 E3.90163
G1 X-11.478 Y9.669 E3.91770
G1 X-11.516 Y9.282 F7800.000
G1 X-12.054 Y9.238 E3.93516 F378.000
G1 X-12.578 Y9.099 E3.95270
G1 X-13.112 Y8.872 E3.97148
G1 X-13.650 Y8.560 E3.99161
G1 X-14.184 Y8.167 E4.01309
G1 X-14.708 Y7.696 E4.03590
G1 X-15.214 Y7.152 E4.05993
G1 X-15.693 Y6.540 E4.08508
G1 X-16.137 Y5.866 E4.11121
G1 X-16.539 Y5.136 E4.13819
G1 X-16.892 Y4.357 E4.16586
G1 X-17.188 Y3.537 E4.19410
G1 X-17.421 Y2.682 E4.22278
G1 X-17.588 Y1.801 E4.25179
G1 X-17.684 Y0.904 E4.28102
G1 X-17.707 Y-0.000 E4.31027
G1 X-17.684 Y-0.904 E4.33952
G1 X-17.588 Y-1.801 E4.36875
G1 X-17.421 Y-2.682 E4.39776
G1 X-17.188 Y-3.537 E4.42644
G1 X-16.892 Y-4.357 E4.45468
G1 X-16.539 Y-5.136 E4.48235
G1 X-16.137 Y-5.866 E4.50933
G1 X-15.693 Y-6.540 E4.53546
G1 X-15.214 Y-7.152 E4.56061
G1 X-14.708 Y-7.696 E4.58464
G1 X-14.184 Y-8.167 E4.60745
G1 X-13.650 Y-8.560 E4.62893
G1 X-13.112 Y-8.872 E4.64906
G1 X-12.578 Y-9.099 E4.66784
G1 X-12.054 Y-9.238 E4.68538
G1 X-11.547 Y-9.285 E4.70187
G1 X-11.361 Y-9.267 E4.70791
G1 X-11.361 Y-9.332 E4.71003
G1 X-10.672 Y-9.113 E4.73342
G1 X-10.199 Y-8.856 E4.75086 F378.000
G1 X-9.833 Y-8.530 E4.76671
G1 X-9.516 Y-8.122 E4.78342
G1 X-9.246 Y-7.640 E4.80131
G1 X-9.019 Y-7.090 E4.82060
G1 X-8.831 Y-6.475 E4.84140
G1 X-8.677 Y-5.802 E4.86374
G1 X-8.553 Y-5.077 E4.88756
G1 X-8.451 Y-4.306 E4.91273
G1 X-8.142 Y-1.120 E5.01633
G1 X-8.086 Y0.000 E5.05263
G1 X-8.131 Y0.905 E5.08194
G1 X-8.451 Y4.306 E5.19252
G1 X-8.553 Y5.077 E5.21770
G1 X-8.677 Y5.802 E5.24151
G1 X-8.831 Y6.475 E5.26385
G1 X-9.019 Y7.090 E5.28465
G1 X-9.246 Y7.640 E5.30394
G1 X-9.516 Y8.122 E5.32183
G1 X-9.833 Y8.530 E5.33854
G1 X-10.199 Y8.856 E5.35440
G1 X-10.611 Y9.094 E5.36979
G1 X-11.063 Y9.237 E5.38514
G1 X-11.464 Y9.277 E5.39819
G1 F600.000 E4.69819
G1 Z0.400 F7800.000
G92 E0
G1 X-10.556 Y-9.443 F7800.000
G1 X-9.539 Y9.823 F7800.000
G1 Z0.200 F7800.000
G1 E0.70000 F600.000
G1 X-8.977 Y9.331 E0.72418 F540.000
G1 X-8.541 Y8.771 E0.74716
G1 X-8.193 Y8.151 E0.77018
G1 X-7.918 Y7.484 E0.79353
G1 X-7.702 Y6.776 E0.81749
G1 X-7.532 Y6.031 E0.84221
G1 X-7.398 Y5.252 E0.86779
G1 X-7.291 Y4.444 E0.89419
G1 X-6.966 Y0.987 E1.00657
G1 X-6.917 Y0.000 E1.03855
G1 X-7.030 Y-2.288 E1.11270
G1 X-7.084 Y-2.288 E1.11446
G1 X-7.203 Y-3.610 E1.15744
G1 X-7.398 Y-5.252 E1.21096
G1 X-7.532 Y-6.031 E1.23653
G1 X-7.702 Y-6.776 E1.26126
G1 X-7.918 Y-7.484 E1.28521
G1 X-8.193 Y-8.151 E1.30857
G1 X-8.541 Y-8.771 E1.33158
G1 X-8.977 Y-9.331 E1.35456
G1 X-9.511 Y-9.807 E1.37773
G1 X-10.136 Y-10.168 E1.40109
G1 X-12.529 Y-10.929 E1.48235
G1 X-12.529 Y-10.320 E1.50205
G1 X-12.958 Y-10.207 E1.51642
G1 X-13.635 Y-9.919 E1.54025
G1 X-14.290 Y-9.538 E1.56477
G1 X-14.922 Y-9.074 E1.59015
G1 X-15.528 Y-8.529 E1.61650
G1 X-16.103 Y-7.911 E1.64383
G1 X-16.642 Y-7.223 E1.67213
G1 X-17.180 Y-6.407 E1.70376
G1 X-17.427 Y-6.531 E1.71270
G1 X-17.212 Y-7.130 E1.73329
G1 X-16.431 Y-8.782 E1.79247
G1 X-15.491 Y-10.351 E1.85165
G1 X-14.402 Y-11.819 E1.91083
G1 X-13.174 Y-13.174 E1.97001
G1 X-11.819 Y-14.402 E2.02918
G1 X-10.351 Y-15.491 E2.08836
G1 X-8.782 Y-16.431 E2.14754
G1 X-7.130 Y-17.212 E2.20672
G1 X-5.408 Y-17.828 E2.26590
G1 X-3.635 Y-18.273 E2.32508
G1 X-1.826 Y-18.541 E2.38426
G1 X-0.000 Y-18.631 E2.44343 F540.000
G1 X1.826 Y-18.541 E2.50261
G1 X3.635 Y-18.273 E2.56179
G1 X5.408 Y-17.828 E2.62097
G1 X7.130 Y-17.212 E2.68015
G1 X8.782 Y-16.431 E2.73933
G1 X10.351 Y-15.491 E2.79851
G1 X11.819 Y-14.402 E2.85769
G1 X13.174 Y-13.174 E2.91686
G1 X14.402 Y-11.819 E2.97604
G1 X15.491 Y-10.351 E3.03522
G1 X16.431 Y-8.782 E3.09440
G1 X17.212 Y-7.130 E3.15357
G1 X17.828 Y-5.408 E3.21276
G1 X18.273 Y-3.635 E3.27193
G1 X18.541 Y-1.826 E3.33111
G1 X18.631 Y0.000 E3.39030
G1 X18.541 Y1.826 E3.44947
G1 X18.273 Y3.635 E3.50865
G1 X17.828 Y5.408 E3.56783
G1 X17.212 Y7.130 E3.62701
G1 X16.431 Y8.782 E3.68619
G1 X15.491 Y10.351 E3.74537
G1 X14.402 Y11.819 E3.80455
G1 X13.174 Y13.174 E3.86372
G1 X11.819 Y14.402 E3.92290
G1 X10.351 Y15.491 E3.98208
G1 X8.782 Y16.431 E4.04126
G1 X7.130 Y17.212 E4.10044
G1 X5.408 Y17.828 E4.15962
G1 X3.635 Y18.273 E4.21880
G1 X1.826 Y18.541 E4.27798
G1 X-0.000 Y18.631 E4.33716
G1 X-1.826 Y18.541 E4.39633
G1 X-3.635 Y18.273 E4.45551
G1 X-5.408 Y17.828 E4.51469
G1 X-7.130 Y17.212 E4.57387
G1 X-8.782 Y16.431 E4.63305
G1 X-10.351 Y15.491 E4.69223
G1 X-11.819 Y14.402 E4.75141
G1 X-13.174 Y13.174 E4.81059
G1 X-14.402 Y11.819 E4.86976
G1 X-15.491 Y10.351 E4.92894
G1 X-16.431 Y8.782 E4.98812
G1 X-17.212 Y7.130 E5.04730
G1 X-17.427 Y6.531 E5.06789
G1 X-17.180 Y6.407 E5.07683
G1 X-16.642 Y7.223 E5.10846
G1 X-16.103 Y7.911 E5.13675
G1 X-15.528 Y8.529 E5.16409
G1 X-14.922 Y9.074 E5.19044
G1 X-14.291 Y9.538 E5.21582
G1 X-13.635 Y9.919 E5.24035
G1 X-12.958 Y10.207 E5.26417
G1 X-12.259 Y10.392 E5.28758
G1 X-11.543 Y10.458 E5.31084
G1 X-10.826 Y10.388 E5.33416
G1 X-10.136 Y10.168 E5.35759
G1 X-9.584 Y9.850 E5.37822
G1 X-13.119 Y13.749 F7800.000
G1 X-13.449 Y13.449 E5.39266 F540.000
G1 X-14.703 Y12.066 E5.45308
G1 X-15.815 Y10.567 E5.51349
G1 X-16.774 Y8.966 E5.57391
G1 X-17.572 Y7.279 E5.63433
G1 X-18.201 Y5.521 E5.69475
G1 X-18.655 Y3.711 E5.75516
G1 X-18.929 Y1.864 E5.81558
G1 X-19.020 Y-0.000 E5.87600
G1 X-18.929 Y-1.864 E5.93641
G1 X-18.655 Y-3.711 E5.99683
G1 X-18.201 Y-5.521 E6.05725
G1 X-17.572 Y-7.279 E6.11766
G1 X-16.774 Y-8.966 E6.17808
G1 X-15.815 Y-10.567 E6.23850
G1 X-14.703 Y-12.066 E6.29891
G1 X-13.449 Y-13.449 E6.35933
G1 X-12.066 Y-14.703 E6.41975
G1 X-10.567 Y-15.815 E6.48016
G1 X-8.966 Y-16.774 E6.54058
G1 X-7.279 Y-17.572 E6.60100
G1 X-5.521 Y-18.201 E6.66141
G1 X-3.711 Y-18.655 E6.72183
G1 X-1.864 Y-18.929 E6.78225
G1 X-0.000 Y-19.020 E6.84266
G1 X1.864 Y-18.929 E6.90308
G1 X3.711 Y-18.655 E6.96350 F540.000
G1 X5.521 Y-18.201 E7.02391
G1 X7.279 Y-17.572 E7.08433
G1 X8.966 Y-16.774 E7.14475
G1 X10.567 Y-15.815 E7.20516
G1 X12.066 Y-14.703 E7.26558
G1 X13.449 Y-13.449 E7.32600
G1 X14.703 Y-12.066 E7.38641
G1 X15.815 Y-10.567 E7.44683
G1 X16.774 Y-8.966 E7.50725
G1 X17.572 Y-7.279 E7.56766
G1 X18.201 Y-5.521 E7.62808
G1 X18.655 Y-3.711 E7.68849
G1 X18.929 Y-1.864 E7.74891
G1 X19.020 Y0.000 E7.80933
G1 X18.929 Y1.864 E7.86975
G1 X18.655 Y3.711 E7.93016
G1 X18.201 Y5.521 E7.99058
G1 X17.572 Y7.279 E8.05100
G1 X16.774 Y8.966 E8.11141
G1 X15.815 Y10.567 E8.17183
G1 X14.703 Y12.066 E8.23225
G1 X13.449 Y13.449 E8.29266
G1 X12.066 Y14.703 E8.35308
G1 X10.567 Y15.815 E8.41350
G1 X8.966 Y16.774 E8.47392
G1 X7.279 Y17.572 E8.53433
G1 X5.521 Y18.201 E8.59475
G1 X3.711 Y18.655 E8.65516
G1 X1.864 Y18.929 E8.71558
G1 X-0.000 Y19.020 E8.77600
G1 X-1.864 Y18.929 E8.83642
G1 X-3.711 Y18.655 E8.89683
G1 X-5.521 Y18.201 E8.95725
G1 X-7.279 Y17.572 E9.01767
G1 X-8.966 Y16.774 E9.07808
G1 X-10.567 Y15.815 E9.13850
G1 X-12.066 Y14.703 E9.19892
G1 X-13.080 Y13.784 E9.24319
G1 X-13.341 Y14.073 F7800.000
G1 X-13.725 Y13.725 E9.25995 F540.000
G1 X-15.004 Y12.314 E9.32161
G1 X-16.139 Y10.784 E9.38326
G1 X-17.118 Y9.150 E9.44492
G1 X-17.933 Y7.428 E9.50657
G1 X-18.574 Y5.634 E9.56823
G1 X-19.037 Y3.787 E9.62988
G1 X-19.317 Y1.902 E9.69153
G1 X-19.410 Y-0.000 E9.75319
G1 X-19.317 Y-1.903 E9.81484
G1 X-19.037 Y-3.787 E9.87650
G1 X-18.574 Y-5.634 E9.93815
G1 X-17.933 Y-7.428 E9.99981
G1 X-17.118 Y-9.150 E10.06146
G1 X-16.139 Y-10.784 E10.12312
G1 X-15.004 Y-12.314 E10.18477
G1 X-13.725 Y-13.725 E10.24643
G1 X-12.314 Y-15.004 E10.30808
G1 X-10.784 Y-16.139 E10.36974
G1 X-9.150 Y-17.118 E10.43139
G1 X-7.428 Y-17.933 E10.49305
G1 X-5.634 Y-18.574 E10.55470
G1 X-3.909 Y-19.019 E10.61236
G1 X-1.892 Y-19.317 E10.67836
G1 X-0.000 Y-19.410 E10.73968 F540.000
G1 X1.903 Y-19.317 E10.80134
G1 X3.787 Y-19.037 E10.86299
G1 X5.634 Y-18.574 E10.92465
G1 X7.428 Y-17.933 E10.98630
G1 X9.150 Y-17.118 E11.04796
G1 X10.784 Y-16.139 E11.10961
G1 X12.321 Y-14.997 E11.17160
G1 X13.725 Y-13.725 E11.23292
G1 X15.004 Y-12.314 E11.29457
G1 X16.139 Y-10.784 E11.35623
G1 X17.122 Y-9.141 E11.41821
G1 X17.932 Y-7.428 E11.47954
G1 X18.574 Y-5.634 E11.54119
G1 X19.037 Y-3.787 E11.60284
G1 X19.317 Y-1.903 E11.66450
G1 X19.410 Y0.010 E11.72649
G1 X19.317 Y1.903 E11.78781
G1 X19.037 Y3.787 E11.84946
G1 X18.574 Y5.634 E11.91112
G1 X17.928 Y7.437 E11.97310
G1 X17.118 Y9.150 E12.03443
G1 X16.139 Y10.784 E12.09608
G1 X15.004 Y12.314 E12.15774
G1 X13.725 Y13.725 E12.21939
G1 X12.314 Y15.004 E12.28105
G1 X10.775 Y16.144 E12.34303
G1 X9.150 Y17.118 E12.40435
G1 X7.428 Y17.933 E12.46601
G1 X5.634 Y18.574 E12.52766
G1 X3.787 Y19.037 E12.58932
G1 X1.903 Y19.317 E12.65097
G1 X-0.000 Y19.410 E12.71263
G1 X-1.903 Y19.317 E12.77428
G1 X-3.787 Y19.037 E12.83594
G1 X-5.634 Y18.574 E12.89759
G1 X-7.418 Y17.936 E12.95891
G1 X-9.150 Y17.118 E13.02090
G1 X-10.784 Y16.139 E13.08255
G1 X-12.314 Y15.004 E13.14421
G1 X-13.302 Y14.108 E13.18740
G1 X-13.564 Y14.396 F7800.000
G1 X-14.001 Y14.001 E13.20648 F378.000
G1 X-15.305 Y12.561 E13.26938
G1 X-16.463 Y11.000 E13.33227
G1 X-17.462 Y9.334 E13.39516
G1 X-18.293 Y7.577 E13.45805
G1 X-18.947 Y5.748 E13.52095
G1 X-19.419 Y3.863 E13.58384
G1 X-19.704 Y1.941 E13.64673
G1 X-19.800 Y-0.000 E13.70962
G1 X-19.704 Y-1.941 E13.77252
G1 X-19.419 Y-3.863 E13.83541
G1 X-18.947 Y-5.748 E13.89830
G1 X-18.293 Y-7.577 E13.96120
G1 X-17.462 Y-9.334 E14.02409
G1 X-16.463 Y-11.000 E14.08698
G1 X-15.305 Y-12.561 E14.14987
G1 X-14.001 Y-14.001 E14.21277
G1 X-12.561 Y-15.305 E14.27566
G1 X-11.000 Y-16.463 E14.33855
G1 X-9.334 Y-17.462 E14.40144
G1 X-7.577 Y-18.293 E14.46434
G1 X-5.748 Y-18.947 E14.52723
G1 X-3.863 Y-19.419 E14.59012
G1 X-1.941 Y-19.704 E14.65301
G1 X-0.000 Y-19.800 E14.71591
G1 X1.911 Y-19.706 E14.77785
G1 X3.863 Y-19.419 E14.84169 F378.000
G1 X5.748 Y-18.947 E14.90458
G1 X7.577 Y-18.293 E14.96747
G1 X9.334 Y-17.462 E15.03036
G1 X11.000 Y-16.463 E15.09326
G1 X12.561 Y-15.305 E15.15615
G1 X14.001 Y-14.001 E15.21904
G1 X15.305 Y-12.561 E15.28194
G1 X16.463 Y-11.000 E15.34483
