; generated by Slic3r 0.9.10b on 2013-09-16 at 19:43:21

; layer_height = 0.3
; perimeters = 2
; top_solid_layers = 1
; bottom_solid_layers = 2
; fill_density = .16
; perimeter_speed = 60
; infill_speed = 80
; travel_speed = 300
; nozzle_diameter = 0.35
; filament_diameter = 1.75
; extrusion_multiplier = 1
; perimeters extrusion width = 0.37mm
; infill extrusion width = 0.37mm
; solid infill extrusion width = 0.37mm
; top infill extrusion width = 0.37mm
; support material extrusion width = 0.37mm

G21 ; set units to millimeters
M107
G28
G92 X0 Y0 Z0 E0
G1 F5000 Y30 X30
G1 X220
G1 F100 E10
G28
G92 X0 Y0 Z0
G1 F4000 X101 Y127
G92 X0 Y0 Z0 E0
M106 S255
G90 ; use absolute coordinates
G92 E0
M82 ; use absolute distances for extrusion
G1 F600.000 E-0.70000
G1 Z0.400 F18000.000
G92 E0
G1 X36.486 Y3.603
G1 Z0.200
G1 F600.000 E0.70000
G1 X36.126 Y6.523 F3240.000 E0.78899
G1 X35.806 Y8.463 E0.84845
G1 X35.616 Y9.423 E0.87805
G1 X35.416 Y10.383 E0.90771
G1 X34.706 Y13.313 E0.99890
G1 X34.126 Y15.233 E1.05956
G1 X33.446 Y17.173 E1.12174
G1 X33.076 Y18.143 E1.15314
G1 X32.236 Y20.093 E1.21735
G1 X31.766 Y21.053 E1.24968
G1 X31.276 Y22.043 E1.28309
G1 X30.176 Y23.963 E1.35002
G1 X28.876 Y25.923 E1.42115
G1 X27.396 Y27.853 E1.49472
G1 X26.536 Y28.843 E1.53438
G1 X25.646 Y29.803 E1.57397
G1 X24.666 Y30.783 E1.61589
G1 X23.596 Y31.763 E1.65978
G1 X22.476 Y32.723 E1.70439
G1 X21.186 Y33.703 E1.75339
G1 X19.806 Y34.673 E1.80441
G1 X18.306 Y35.633 E1.85827
G1 X16.626 Y36.603 E1.91695
G1 X14.696 Y37.583 E1.98241
G1 X12.516 Y38.553 E2.05458
G1 X10.016 Y39.523 E2.13569
G1 X6.996 Y40.493 E2.23163
G1 X3.216 Y41.463 E2.34966
G1 X-2.114 Y42.423 E2.51346
G1 X-19.694 Y42.423 E3.04518
G1 X-23.564 Y41.443 E3.16592
G1 X-26.024 Y40.483 E3.24579
G1 X-27.854 Y39.493 E3.30872
G1 X-29.344 Y38.493 E3.36299
G1 X-30.524 Y37.533 E3.40900
G1 X-31.554 Y36.533 E3.45242
G1 X-32.414 Y35.543 E3.49208
G1 X-33.154 Y34.563 E3.52923
G1 X-33.774 Y33.603 E3.56379
G1 X-34.334 Y32.623 E3.59793
G1 X-34.834 Y31.623 E3.63174
G1 X-35.234 Y30.653 E3.66348
G1 X-35.594 Y29.663 E3.69534
G1 X-35.904 Y28.703 E3.72585
G1 X-36.174 Y27.713 E3.75689
G1 X-36.384 Y26.753 E3.78661
G1 X-36.564 Y25.773 E3.81675
G1 X-36.624 Y24.763 E3.84735
G1 X-36.624 Y18.963 E4.02277
G1 X-36.604 Y17.943 E4.05363
G1 X-36.224 Y16.013 E4.11312
G1 X-23.104 Y-41.717 E5.90372
G1 X-22.984 Y-41.917 E5.91077
G1 X-22.754 Y-41.997 E5.91814
G1 X18.026 Y-41.997 E7.15155
G1 X21.646 Y-41.017 E7.26498
G1 X23.916 Y-40.057 E7.33952
G1 X25.646 Y-39.077 E7.39966
G1 X26.996 Y-38.067 E7.45065
G1 X28.056 Y-37.077 E7.49452
G1 X28.956 Y-36.097 E7.53477
G1 X29.716 Y-35.137 E7.57180
G1 X30.386 Y-34.157 E7.60771
G1 X30.976 Y-33.177 E7.64230
G1 X31.516 Y-32.177 E7.67668
G1 X31.996 Y-31.217 E7.70914
G1 X32.436 Y-30.237 E7.74163
G1 X33.216 Y-28.287 E7.80515
G1 X33.856 Y-26.367 E7.86637
G1 X34.406 Y-24.427 E7.92735
G1 X35.116 Y-21.507 E8.01824
G1 X35.506 Y-19.587 E8.07750
G1 X35.676 Y-18.607 E8.10758
G1 X35.986 Y-16.687 E8.16641
G1 X36.256 Y-14.757 E8.22535
G1 X36.466 Y-12.817 E8.28437
G1 X36.636 Y-10.887 E8.34297
G1 X36.816 Y-7.987 E8.43085
G1 X36.886 Y-5.087 E8.51859
G1 X36.886 Y-3.147 E8.57726
G1 X36.786 Y-0.247 E8.66503
G1 X36.666 Y1.683 E8.72351
G1 X36.491 Y3.549 E8.78019
G1 X37.577 Y3.670 F18000.000
G1 X37.462 Y4.712 F3240.000 E8.81190
G1 X37.208 Y6.680 E8.87191
G1 X36.883 Y8.649 E8.93228
G1 X36.687 Y9.639 E8.96281
G1 X36.469 Y10.684 E8.99509
G1 X35.767 Y13.578 E9.08515
G1 X35.152 Y15.614 E9.14948
G1 X34.485 Y17.516 E9.21045
G1 X34.076 Y18.587 E9.24511
G1 X33.245 Y20.518 E9.30870
G1 X32.746 Y21.535 E9.34297
G1 X32.234 Y22.569 E9.37785
G1 X31.106 Y24.538 E9.44650
G1 X29.764 Y26.561 E9.51992
G1 X28.229 Y28.561 E9.59617
G1 X27.407 Y29.511 E9.63417
G1 X26.423 Y30.571 E9.67791
G1 X25.417 Y31.577 E9.72095
G1 X24.318 Y32.584 E9.76604
G1 X23.153 Y33.582 E9.81243
G1 X21.832 Y34.585 E9.86258
G1 X20.420 Y35.578 E9.91481
G1 X18.829 Y36.596 E9.97193
G1 X17.136 Y37.570 E10.03102
G1 X15.185 Y38.562 E10.09719
G1 X12.946 Y39.558 E10.17132
G1 X10.376 Y40.555 E10.25469
G1 X7.289 Y41.547 E10.35276
G1 X3.467 Y42.527 E10.47211
G1 X-1.993 Y43.510 E10.63990
G1 X-19.728 Y43.516 E11.17630
G1 X-19.927 Y43.492 E11.18237
G1 X-23.880 Y42.490 E11.30570
G1 X-26.437 Y41.495 E11.38870
G1 X-28.408 Y40.436 E11.45637
G1 X-30.024 Y39.349 E11.51527
G1 X-31.246 Y38.354 E11.56295
G1 X-32.337 Y37.297 E11.60888
G1 X-33.257 Y36.240 E11.65127
G1 X-34.052 Y35.189 E11.69113
G1 X-34.716 Y34.158 E11.72822
G1 X-35.302 Y33.133 E11.76393
G1 X-35.817 Y32.103 E11.79874
G1 X-36.265 Y31.020 E11.83420
G1 X-36.615 Y30.061 E11.86508
G1 X-36.958 Y28.998 E11.89885
G1 X-37.235 Y27.980 E11.93077
G1 X-37.459 Y26.958 E11.96241
G1 X-37.655 Y25.848 E11.99650
G1 X-37.718 Y24.772 E12.02911
G1 X-37.718 Y18.959 E12.20491
G1 X-37.684 Y17.768 E12.24095
G1 X-37.278 Y15.712 E12.30433
G1 X-24.161 Y-42.001 E14.09443
G1 X-24.071 Y-42.229 E14.10184
G1 X-23.854 Y-42.587 E14.11449
G1 X-23.748 Y-42.705 E14.11928
G1 X-23.600 Y-42.825 E14.12507
G1 X-23.434 Y-42.918 E14.13081
G1 X-23.056 Y-43.049 E14.14291
G1 X-22.800 Y-43.090 E14.15074
G1 X17.557 Y-43.090 E15.37137
G1 X17.625 Y-43.135 E15.37384
G1 X17.767 Y-43.163 E15.37822
G1 X18.134 Y-43.090 E15.38953
G1 X18.508 Y-43.090 E15.40083
G1 X18.641 Y-43.035 E15.40521
G1 X18.736 Y-42.940 E15.40925
G1 X21.972 Y-42.060 E15.51068
G1 X24.349 Y-41.060 E15.58869
G1 X26.230 Y-40.001 E15.65398
G1 X27.656 Y-38.938 E15.70778
G1 X28.856 Y-37.821 E15.75735
G1 X29.786 Y-36.808 E15.79895
G1 X30.596 Y-35.786 E15.83839
G1 X31.301 Y-34.755 E15.87615
G1 X31.919 Y-33.730 E15.91237
G1 X32.474 Y-32.705 E15.94761
G1 X33.002 Y-31.649 E15.98333
G1 X33.428 Y-30.699 E16.01481
G1 X34.232 Y-28.693 E16.08019
G1 X34.907 Y-26.671 E16.14466
G1 X35.468 Y-24.687 E16.20702
G1 X36.169 Y-21.808 E16.29664
G1 X36.583 Y-19.773 E16.35945
G1 X36.753 Y-18.789 E16.38964
G1 X37.069 Y-16.835 E16.44952
G1 X37.341 Y-14.885 E16.50906
G1 X37.554 Y-12.920 E16.56883
G1 X37.725 Y-10.976 E16.62787
G1 X37.907 Y-8.046 E16.71664
G1 X37.979 Y-5.102 E16.80573
G1 X37.978 Y-3.117 E16.86577
G1 X37.877 Y-0.187 E16.95443
G1 X37.755 Y1.768 E17.01369
G1 X37.582 Y3.616 E17.06981
G1 X37.214 Y3.643 F18000.000
G1 X37.101 Y4.672 F3240.000 E17.10113
G1 X36.848 Y6.628 E17.16076
G1 X36.525 Y8.587 E17.22083
G1 X36.331 Y9.567 E17.25105
G1 X36.119 Y10.584 E17.28246
G1 X35.415 Y13.485 E17.37276
G1 X34.811 Y15.487 E17.43600
G1 X34.139 Y17.402 E17.49737
G1 X33.743 Y18.439 E17.53095
G1 X32.909 Y20.376 E17.59475
G1 X32.420 Y21.375 E17.62838
G1 X31.915 Y22.395 E17.66279
G1 X30.796 Y24.347 E17.73084
G1 X29.468 Y26.348 E17.80350
G1 X27.953 Y28.324 E17.87880
G1 X27.117 Y29.289 E17.91740
G1 X26.165 Y30.315 E17.95975
G1 X25.167 Y31.313 E18.00244
G1 X24.076 Y32.312 E18.04719
G1 X22.925 Y33.299 E18.09304
G1 X21.617 Y34.291 E18.14269
G1 X20.215 Y35.277 E18.19452
G1 X18.655 Y36.276 E18.25056
G1 X16.965 Y37.249 E18.30953
G1 X15.022 Y38.236 E18.37544
G1 X12.803 Y39.224 E18.44892
G1 X10.272 Y40.206 E18.53104
G1 X7.192 Y41.196 E18.62890
G1 X3.383 Y42.173 E18.74781
G1 X-2.033 Y43.148 E18.91427
G1 X-19.717 Y43.153 E19.44911
G1 X-19.839 Y43.139 E19.45282
G1 X-23.775 Y42.142 E19.57563
G1 X-26.301 Y41.158 E19.65763
G1 X-28.224 Y40.122 E19.72368
G1 X-29.788 Y39.072 E19.78066
G1 X-31.006 Y38.081 E19.82816
G1 X-32.077 Y37.042 E19.87329
G1 X-32.978 Y36.006 E19.91481
G1 X-33.740 Y34.999 E19.95302
G1 X-34.395 Y33.986 E19.98950
G1 X-34.980 Y32.963 E20.02513
G1 X-35.495 Y31.932 E20.06002
G1 X-35.922 Y30.898 E20.09384
G1 X-36.275 Y29.929 E20.12504
G1 X-36.607 Y28.900 E20.15773
G1 X-36.879 Y27.902 E20.18901
G1 X-37.101 Y26.890 E20.22036
G1 X-37.289 Y25.857 E20.25212
G1 X-37.354 Y24.769 E20.28508
G1 X-37.354 Y18.960 E20.46076
G1 X-37.325 Y17.827 E20.49506
G1 X-36.928 Y15.812 E20.55716
G1 X-23.809 Y-41.907 E22.34742
G1 X-23.752 Y-42.055 E22.35222
G1 X-23.558 Y-42.373 E22.36347
G1 X-23.395 Y-42.523 E22.37020
G1 X-23.284 Y-42.585 E22.37402
G1 X-22.951 Y-42.700 E22.38471
G1 X-22.785 Y-42.726 E22.38977
G1 X17.667 Y-42.726 E23.61328
G1 X17.844 Y-42.777 E23.61882
G1 X18.098 Y-42.726 E23.62666
G1 X18.357 Y-42.726 E23.63450
G1 X18.491 Y-42.671 E23.63888
G1 X18.547 Y-42.614 E23.64129
G1 X21.863 Y-41.713 E23.74523
G1 X24.205 Y-40.726 E23.82209
G1 X26.036 Y-39.693 E23.88566
G1 X27.436 Y-38.648 E23.93853
G1 X28.589 Y-37.574 E23.98618
G1 X29.511 Y-36.570 E24.02740
G1 X30.305 Y-35.567 E24.06608
G1 X30.997 Y-34.554 E24.10320
G1 X31.605 Y-33.545 E24.13885
G1 X32.155 Y-32.529 E24.17376
G1 X32.667 Y-31.505 E24.20840
G1 X33.098 Y-30.545 E24.24022
G1 X33.894 Y-28.558 E24.30498
G1 X34.557 Y-26.570 E24.36837
G1 X35.114 Y-24.600 E24.43027
G1 X35.819 Y-21.708 E24.52031
G1 X36.225 Y-19.711 E24.58194
G1 X36.395 Y-18.729 E24.61210
G1 X36.708 Y-16.785 E24.67163
G1 X36.980 Y-14.843 E24.73096
G1 X37.192 Y-12.886 E24.79049
G1 X37.362 Y-10.946 E24.84937
G1 X37.544 Y-8.027 E24.93785
G1 X37.615 Y-5.097 E25.02648
G1 X37.615 Y-3.127 E25.08607
G1 X37.514 Y-0.207 E25.17444
G1 X37.393 Y1.739 E25.23340
G1 X37.219 Y3.589 E25.28960
G1 X36.851 Y3.621 F18000.000
G1 X36.487 Y6.576 F3240.000 E25.37963
G1 X36.166 Y8.525 E25.43940
G1 X35.974 Y9.495 E25.46932
G1 X35.768 Y10.484 E25.49985
G1 X35.059 Y13.406 E25.59079
G1 X34.469 Y15.361 E25.65255
G1 X33.793 Y17.288 E25.71432
G1 X33.410 Y18.292 E25.74681
G1 X32.573 Y20.235 E25.81082
G1 X32.094 Y21.215 E25.84380
G1 X31.597 Y22.218 E25.87767
G1 X30.487 Y24.155 E25.94520
G1 X29.173 Y26.136 E26.01710
G1 X27.673 Y28.091 E26.09162
G1 X26.827 Y29.066 E26.13067
G1 X25.905 Y30.060 E26.17167
G1 X24.917 Y31.049 E26.21395
G1 X23.836 Y32.038 E26.25827
G1 X22.705 Y33.008 E26.30333
G1 X21.402 Y33.998 E26.35282
G1 X20.011 Y34.976 E26.40425
G1 X18.481 Y35.955 E26.45920
G1 X16.797 Y36.926 E26.51798
G1 X14.859 Y37.910 E26.58371
G1 X12.660 Y38.889 E26.65654
G1 X10.147 Y39.864 E26.73805
G1 X7.094 Y40.846 E26.83506
G1 X3.300 Y41.819 E26.95353
G1 X-2.074 Y42.787 E27.11866
G1 X-19.772 Y42.781 E27.65396
G1 X-23.670 Y41.793 E27.77557
G1 X-26.161 Y40.822 E27.85645
G1 X-28.040 Y39.808 E27.92100
G1 X-29.565 Y38.785 E27.97656
G1 X-30.766 Y37.808 E28.02339
G1 X-31.815 Y36.789 E28.06762
G1 X-32.695 Y35.778 E28.10816
G1 X-33.445 Y34.785 E28.14579
G1 X-34.084 Y33.797 E28.18138
G1 X-34.658 Y32.794 E28.21635
G1 X-35.166 Y31.778 E28.25070
G1 X-35.579 Y30.776 E28.28348
G1 X-35.936 Y29.796 E28.31501
G1 X-36.257 Y28.802 E28.34661
G1 X-36.529 Y27.802 E28.37794
G1 X-36.744 Y26.822 E28.40831
G1 X-36.928 Y25.815 E28.43926
G1 X-36.990 Y24.766 E28.47104
G1 X-36.990 Y18.962 E28.64658
G1 X-36.965 Y17.885 E28.67918
G1 X-36.577 Y15.912 E28.73998
G1 X-23.458 Y-41.812 E30.53041
G1 X-23.281 Y-42.132 E30.54147
G1 X-23.135 Y-42.252 E30.54718
G1 X-22.770 Y-42.362 E30.55872
G1 X17.857 Y-42.362 E31.78749
G1 X17.948 Y-42.385 E31.79033
G1 X18.174 Y-42.362 E31.79721
G1 X18.280 Y-42.310 E31.80077
G1 X21.755 Y-41.366 E31.90969
G1 X24.061 Y-40.392 E31.98539
G1 X25.841 Y-39.386 E32.04725
G1 X27.217 Y-38.358 E32.09918
G1 X28.324 Y-37.325 E32.14498
G1 X29.232 Y-36.336 E32.18560
G1 X30.008 Y-35.356 E32.22340
G1 X30.690 Y-34.359 E32.25996
G1 X31.290 Y-33.363 E32.29512
G1 X31.836 Y-32.354 E32.32982
G1 X32.332 Y-31.361 E32.36338
G1 X32.767 Y-30.391 E32.39553
G1 X33.556 Y-28.423 E32.45967
G1 X34.207 Y-26.468 E32.52197
G1 X34.761 Y-24.514 E32.58342
G1 X35.468 Y-21.608 E32.67389
G1 X35.866 Y-19.649 E32.73433
G1 X36.036 Y-18.667 E32.76447
G1 X36.348 Y-16.736 E32.82363
G1 X36.619 Y-14.800 E32.88277
G1 X36.830 Y-12.851 E32.94204
G1 X37.000 Y-10.917 E33.00079
G1 X37.181 Y-8.007 E33.08897
G1 X37.251 Y-5.092 E33.17716
G1 X37.251 Y-3.137 E33.23629
G1 X37.151 Y-0.227 E33.32435
G1 X37.030 Y1.713 E33.38314
G1 X36.856 Y3.567 E33.43945
G1 F600.000 E32.73945
G1 Z0.400 F18000.000
G92 E0
G1 X20.165 Y-41.040
G1 Z0.200
G1 F600.000 E0.70000
G1 X-22.381 Y-41.040 F3240.000 E1.98681
G1 X-22.381 Y-41.271 E1.99379
G1 X18.137 Y-41.271 E3.21926
G1 X18.350 Y-41.484 E3.22837
G1 X18.350 Y-41.533 E3.22987
G1 X20.112 Y-41.054 E3.28512
G1 F600.000 E2.58512
G1 Z0.400 F18000.000
G92 E0
G1 X23.917 Y-39.346
G1 Z0.200
G1 F600.000 E0.70000
G1 X24.120 Y-39.523 F3240.000 E0.70815
G1 X24.837 Y-39.115 E0.73310
G1 X-22.185 Y-39.115 E2.15530
G1 X-22.254 Y-39.346 E2.16259
G1 X23.862 Y-39.346 E3.55740
G1 F600.000 E2.85740
G1 Z0.400 F18000.000
G92 E0
G1 X26.864 Y-37.422
G1 Z0.200
G1 F600.000 E0.70000
G1 X27.026 Y-37.538 F3240.000 E0.70602
G1 X27.398 Y-37.191 E0.72142
G1 X-22.254 Y-37.191 E2.22318
G1 X-22.185 Y-37.422 E2.23047
G1 X26.810 Y-37.422 E3.71234
G1 F600.000 E3.01234
G1 Z0.400 F18000.000
G92 E0
G1 X28.784 Y-35.498
G1 Z0.200
G1 F600.000 E0.70000
G1 X28.902 Y-35.575 F3240.000 E0.70428
G1 X29.146 Y-35.267 E0.71617
G1 X-22.381 Y-35.267 E2.27462
G1 X-22.381 Y-35.498 E2.28160
G1 X28.729 Y-35.498 E3.82744
G1 F600.000 E3.12744
G1 Z0.400 F18000.000
G92 E0
G1 X30.770 Y-32.612
G1 Z0.200
G1 F600.000 E0.70000
G1 X30.841 Y-32.653 F3240.000 E0.70248
G1 X30.987 Y-32.381 E0.71182
G1 X19.844 Y-32.381 E1.04882
G1 X19.617 Y-32.612 E1.05863
G1 X30.716 Y-32.612 E1.39431
G1 F600.000 E0.69431
G1 Z0.400 F18000.000
G92 E0
G1 X31.770 Y-30.687
G1 Z0.200
G1 F600.000 E0.70000
G1 X31.816 Y-30.713 F3240.000 E0.70160
G1 X31.931 Y-30.456 E0.71010
G1 X21.243 Y-30.456 E1.03338
G1 X21.096 Y-30.687 E1.04165
G1 X31.715 Y-30.687 E1.36284
G1 F600.000 E0.66284
G1 Z0.400 F18000.000
G92 E0
G1 X32.623 Y-28.782
G1 Z0.200
G1 F600.000 E0.70000
G1 X32.721 Y-28.532 F3240.000 E0.70812
G1 X22.257 Y-28.532 E1.02462
G1 X22.146 Y-28.763 E1.03236
G1 X32.573 Y-28.763 E1.34772
G1 F600.000 E0.64772
G1 Z0.400 F18000.000
G92 E0
G1 X33.308 Y-26.852
G1 Z0.200
G1 F600.000 E0.70000
G1 X33.390 Y-26.608 F3240.000 E0.70777
G1 X23.072 Y-26.608 E1.01984
G1 X22.980 Y-26.839 E1.02736
G1 X33.257 Y-26.839 E1.33818
G1 F600.000 E0.63818
G1 Z0.400 F18000.000
G92 E0
G1 X33.888 Y-24.917
G1 Z0.200
G1 F600.000 E0.70000
G1 X33.953 Y-24.684 F3240.000 E0.70734
G1 X23.748 Y-24.684 E1.01600
G1 X23.673 Y-24.915 E1.02334
G1 X33.834 Y-24.915 E1.33066
G1 F600.000 E0.63066
G1 Z0.400 F18000.000
G92 E0
G1 X34.387 Y-22.990
G1 Z0.200
G1 F600.000 E0.70000
G1 X34.442 Y-22.760 F3240.000 E0.70718
G1 X24.323 Y-22.760 E1.01322
G1 X24.259 Y-22.990 E1.02047
G1 X34.332 Y-22.990 E1.32511
G1 X34.834 Y-21.066 F18000.000
G1 X34.882 Y-20.835 F3240.000 E1.33225
G1 X24.814 Y-20.835 E1.63675
G1 X24.759 Y-21.066 E1.64393
G1 X34.779 Y-21.066 E1.94700
G1 X35.211 Y-19.142 F18000.000
G1 X35.251 Y-18.911 F3240.000 E1.95409
G1 X25.236 Y-18.911 E2.25701
G1 X25.188 Y-19.142 E2.26414
G1 X35.156 Y-19.142 E2.56564
G1 X35.533 Y-17.218 F18000.000
G1 X35.569 Y-16.987 F3240.000 E2.57271
G1 X25.596 Y-16.987 E2.87434
G1 X25.555 Y-17.218 E2.88143
G1 X35.478 Y-17.218 E3.18156
G1 X35.814 Y-15.294 F18000.000
G1 X35.845 Y-15.063 F3240.000 E3.18861
G1 X25.900 Y-15.063 E3.48939
G1 X25.866 Y-15.294 E3.49645
G1 X35.759 Y-15.294 E3.79568
G1 X36.038 Y-13.369 F18000.000
G1 X36.063 Y-13.138 F3240.000 E3.80270
G1 X26.154 Y-13.138 E4.10240
G1 X26.126 Y-13.369 E4.10943
G1 X35.983 Y-13.369 E4.40755
G1 X36.222 Y-11.445 F18000.000
G1 X36.241 Y-11.214 F3240.000 E4.41456
G1 X26.360 Y-11.214 E4.71344
G1 X26.338 Y-11.445 E4.72045
G1 X36.168 Y-11.445 E5.01774
G1 X36.360 Y-9.521 F18000.000
G1 X36.372 Y-9.290 F3240.000 E5.02474
G1 X26.519 Y-9.290 E5.32274
G1 X26.504 Y-9.521 E5.32974
G1 X36.305 Y-9.521 E5.62619
G1 X36.460 Y-7.597 F18000.000
G1 X36.466 Y-7.366 F3240.000 E5.63317
G1 X26.630 Y-7.366 E5.93066
G1 X26.620 Y-7.597 E5.93765
G1 X36.405 Y-7.597 E6.23360
G1 X36.508 Y-5.672 F18000.000
G1 X36.513 Y-5.442 F3240.000 E6.24058
G1 X26.695 Y-5.442 E6.53751
G1 X26.690 Y-5.672 E6.54449
G1 X36.453 Y-5.672 E6.83978
G1 X36.520 Y-3.748 F18000.000
G1 X36.520 Y-3.517 F3240.000 E6.84677
G1 X26.714 Y-3.517 E7.14334
G1 X26.714 Y-3.748 E7.15032
G1 X36.465 Y-3.748 E7.44527
G1 X36.478 Y-1.824 F18000.000
G1 X36.471 Y-1.593 F3240.000 E7.45225
G1 X26.683 Y-1.593 E7.74829
G1 X26.688 Y-1.824 E7.75528
G1 X36.424 Y-1.824 E8.04974
G1 X36.398 Y0.100 F18000.000
G1 X36.383 Y0.331 F3240.000 E8.05674
G1 X26.600 Y0.331 E8.35264
G1 X26.612 Y0.100 E8.35963
G1 X36.343 Y0.100 E8.65395
G1 X36.266 Y2.025 F18000.000
G1 X36.245 Y2.255 F3240.000 E8.66096
G1 X26.465 Y2.255 E8.95676
G1 X26.484 Y2.025 E8.96377
G1 X36.212 Y2.025 E9.25797
