; generated by Slic3r 1.3.0-dev on 2017-06-27 at 17:39:38

; external perimeters extrusion width = 0.35mm (1.47mm^3/s)
; perimeters extrusion width = 0.52mm (2.89mm^3/s)
; infill extrusion width = 0.52mm (5.77mm^3/s)
; solid infill extrusion width = 0.52mm (5.77mm^3/s)
; top infill extrusion width = 0.52mm (4.81mm^3/s)
; support material extrusion width = 0.35mm (3.68mm^3/s)

M107
G28
G92 X0 Y0 Z0 E0
G1 F5000 Y30 X30
G1 X220
G1 F100 E20 ;extrude 20

G28
G92 X0 Y0 Z0
G1 F4000 X101 Y127
G92 X0 Y0 Z0 E0
; Filament gcode

G21 ; set units to millimeters
G90 ; use absolute coordinates
M82 ; use absolute distances for extrusion
G92 E0
G1 E-0.70000 F600.00000
G92 E0
G1 Z0.200 F5400.000
G1 Z0.400 F5400.000
G1 X26.707 Y1.633 F5400.000
G1 Z0.200 F5400.000
G1 E0.70000 F600.00000
G1 F1800
G1 X26.714 Y23.887 E1.36074
G1 X26.602 Y24.910 E1.39129
G1 X24.602 Y33.910 E1.66503
G1 X23.805 Y35.670 E1.72238
G1 X22.370 Y36.962 E1.77974
G1 X21.023 Y37.489 E1.82269
G1 X12.023 Y39.489 E2.09643
G1 X11.000 Y39.601 E2.12698
G1 X-11.000 Y39.601 E2.78019
G1 X-12.023 Y39.489 E2.81073
G1 X-21.023 Y37.489 E3.08447
G1 X-22.782 Y36.693 E3.14183
G1 X-24.075 Y35.257 E3.19918
G1 X-24.602 Y33.910 E3.24213
G1 X-26.602 Y24.910 E3.51587
G1 X-26.714 Y23.887 E3.54642
G1 X-26.714 Y1.887 E4.19963
G1 X-25.921 Y-19.957 E4.84863
G1 X-25.870 Y-20.500 E4.86483
G1 X-25.526 Y-22.742 E4.93218
G1 X-24.966 Y-24.354 E4.98283
G1 X-22.810 Y-28.154 E5.11255
G1 X-21.533 Y-29.603 E5.16991
G1 X-19.943 Y-30.377 E5.22242
G1 X-17.659 Y-30.996 E5.29269
G1 X-16.449 Y-31.160 E5.32893
G1 X15.688 Y-31.319 E6.28314
G1 X16.737 Y-31.207 E6.31445
G1 X17.451 Y-31.048 E6.33618
G1 X19.877 Y-30.356 E6.41107
G1 X21.583 Y-29.451 E6.46842
G1 X22.675 Y-28.142 E6.51902
G1 X24.817 Y-24.342 E6.64854
G1 X25.418 Y-22.281 E6.71229
G1 X26.704 Y1.581 E7.42181
G1 X26.351 Y1.653 F5400.000
G1 F1800
G1 X26.357 Y23.887 E8.08199
G1 X26.253 Y24.832 E8.11022
G1 X24.253 Y33.832 E8.38396
G1 X23.474 Y35.517 E8.43907
G1 X22.064 Y36.724 E8.49419
G1 X20.945 Y37.140 E8.52963
G1 X11.945 Y39.140 E8.80337
G1 X11.000 Y39.244 E8.83160
G1 X-11.000 Y39.244 E9.48481
G1 X-11.945 Y39.140 E9.51304
G1 X-20.945 Y37.140 E9.78678
G1 X-22.630 Y36.361 E9.84190
G1 X-23.837 Y34.951 E9.89701
G1 X-24.253 Y33.832 E9.93245
G1 X-26.253 Y24.832 E10.20619
G1 X-26.357 Y23.887 E10.23443
G1 X-26.357 Y1.887 E10.88763
G1 X-25.564 Y-19.944 E11.53625
G1 X-25.517 Y-20.446 E11.55122
G1 X-25.173 Y-22.688 E11.61857
G1 X-24.656 Y-24.177 E11.66538
G1 X-22.500 Y-27.977 E11.79511
G1 X-21.261 Y-29.360 E11.85022
G1 X-19.850 Y-30.033 E11.89664
G1 X-17.565 Y-30.652 E11.96691
G1 X-16.447 Y-30.803 E12.00041
G1 X15.690 Y-30.962 E12.95462
G1 X16.659 Y-30.858 E12.98356
G1 X17.373 Y-30.699 E13.00528
G1 X19.777 Y-30.013 E13.07951
G1 X21.410 Y-29.130 E13.13463
G1 X22.364 Y-27.967 E13.17927
G1 X24.506 Y-24.167 E13.30880
G1 X25.061 Y-22.262 E13.36772
G1 X26.348 Y1.600 E14.07724
G1 E13.37724 F600.00000
G92 E0
G1 Z0.400 F5400.000
G1 X2.097 Y-7.082 F5400.000
G1 Z0.200 F5400.000
G1 E0.70000 F600.00000
G1 F900
G1 X4.045 Y-6.793 E0.75847
G1 X5.954 Y-6.315 E0.81691
G1 X7.807 Y-5.652 E0.87536
G1 X9.587 Y-4.810 E0.93380
G1 X11.275 Y-3.798 E0.99224
G1 X12.856 Y-2.626 E1.05069
G1 X14.314 Y-1.304 E1.10913
G1 X15.636 Y0.155 E1.16757
G1 X16.809 Y1.736 E1.22602
G1 X17.821 Y3.424 E1.28446
G1 X18.662 Y5.203 E1.34291
G1 X19.326 Y7.057 E1.40135
G1 X19.804 Y8.966 E1.45979
G1 X20.093 Y10.913 E1.51824
G1 X20.189 Y12.887 E1.57691
G1 X20.093 Y14.861 E1.63559
G1 X19.804 Y16.808 E1.69403
G1 X19.326 Y18.717 E1.75248
G1 X18.662 Y20.571 E1.81092
G1 X17.821 Y22.350 E1.86936
G1 X16.809 Y24.038 E1.92781
G1 X15.636 Y25.619 E1.98625
G1 X14.314 Y27.078 E2.04469
G1 X12.856 Y28.400 E2.10314
G1 X11.275 Y29.572 E2.16158
G1 X9.587 Y30.584 E2.22002
G1 X7.807 Y31.426 E2.27847
G1 X5.954 Y32.089 E2.33691
G1 X4.045 Y32.567 E2.39536
G1 X2.097 Y32.856 E2.45382
G1 X0.000 Y32.953 E2.51614
G1 X-2.097 Y32.856 E2.57846
G1 X-4.045 Y32.567 E2.63693
G1 X-5.954 Y32.089 E2.69537
G1 X-7.807 Y31.426 E2.75381
G1 X-9.587 Y30.584 E2.81226
G1 X-11.275 Y29.572 E2.87070
G1 X-12.856 Y28.400 E2.92915
G1 X-14.314 Y27.078 E2.98759
G1 X-15.636 Y25.619 E3.04603
G1 X-16.809 Y24.038 E3.10448
G1 X-17.821 Y22.350 E3.16292
G1 X-18.662 Y20.571 E3.22136
G1 X-19.326 Y18.717 E3.27981
G1 X-19.804 Y16.808 E3.33825
G1 X-20.093 Y14.861 E3.39670
G1 X-20.189 Y12.887 E3.45537
G1 X-20.093 Y10.913 E3.51404
G1 X-19.804 Y8.966 E3.57249
G1 X-19.326 Y7.057 E3.63093
G1 X-18.662 Y5.203 E3.68938
G1 X-17.821 Y3.424 E3.74782
G1 X-16.809 Y1.736 E3.80626
G1 X-15.636 Y0.155 E3.86471
G1 X-14.314 Y-1.304 E3.92315
G1 X-12.856 Y-2.626 E3.98160
G1 X-11.275 Y-3.798 E4.04004
G1 X-9.587 Y-4.810 E4.09848
G1 X-7.807 Y-5.652 E4.15693
G1 X-5.954 Y-6.315 E4.21537
G1 X-4.044 Y-6.793 E4.27383
G1 X-2.067 Y-7.083 E4.33316
G1 X0.000 Y-7.178 E4.39459
G1 X2.044 Y-7.084 E4.45535
G1 X2.062 Y-6.726 F5400.000
G1 F720
G1 X3.975 Y-6.442 E4.51276
G1 X5.850 Y-5.973 E4.57017
G1 X7.670 Y-5.321 E4.62757
G1 X9.418 Y-4.495 E4.68497
G1 X11.076 Y-3.501 E4.74237
G1 X12.629 Y-2.349 E4.79977
G1 X14.062 Y-1.051 E4.85718
G1 X15.360 Y0.382 E4.91458
G1 X16.512 Y1.934 E4.97198
G1 X17.506 Y3.593 E5.02938
G1 X18.332 Y5.340 E5.08678
G1 X18.983 Y7.161 E5.14418
G1 X19.453 Y9.036 E5.20159
G1 X19.737 Y10.948 E5.25899
G1 X19.832 Y12.887 E5.31662
G1 X19.737 Y14.826 E5.37426
G1 X19.453 Y16.738 E5.43166
G1 X18.983 Y18.614 E5.48906
G1 X18.332 Y20.434 E5.54646
G1 X17.506 Y22.182 E5.60386
G1 X16.512 Y23.840 E5.66127
G1 X15.360 Y25.393 E5.71867
G1 X14.062 Y26.825 E5.77607
G1 X12.629 Y28.123 E5.83347
G1 X11.076 Y29.275 E5.89087
G1 X9.418 Y30.269 E5.94828
G1 X7.670 Y31.096 E6.00568
G1 X5.850 Y31.747 E6.06308
G1 X3.975 Y32.217 E6.12048
G1 X2.062 Y32.500 E6.17789
G1 X0.000 Y32.595 E6.23918
G1 X-2.062 Y32.500 E6.30048
G1 X-3.975 Y32.217 E6.35789
G1 X-5.850 Y31.747 E6.41529
G1 X-7.670 Y31.096 E6.47269
G1 X-9.418 Y30.269 E6.53009
G1 X-11.076 Y29.275 E6.58749
G1 X-12.629 Y28.123 E6.64490
G1 X-14.062 Y26.825 E6.70230
G1 X-15.360 Y25.393 E6.75970
G1 X-16.512 Y23.840 E6.81710
G1 X-17.506 Y22.182 E6.87450
G1 X-18.332 Y20.434 E6.93191
G1 X-18.983 Y18.614 E6.98931
G1 X-19.453 Y16.738 E7.04671
G1 X-19.737 Y14.826 E7.10411
G1 X-19.832 Y12.887 E7.16175
G1 X-19.737 Y10.948 E7.21938
G1 X-19.453 Y9.036 E7.27678
G1 X-18.983 Y7.161 E7.33418
G1 X-18.332 Y5.340 E7.39159
G1 X-17.506 Y3.593 E7.44899
G1 X-16.512 Y1.934 E7.50639
G1 X-15.360 Y0.382 E7.56379
G1 X-14.062 Y-1.051 E7.62119
G1 X-12.629 Y-2.349 E7.67860
G1 X-11.076 Y-3.501 E7.73600
G1 X-9.418 Y-4.495 E7.79340
G1 X-7.670 Y-5.321 E7.85080
G1 X-5.850 Y-5.973 E7.90820
G1 X-3.975 Y-6.442 E7.96561
G1 X-2.033 Y-6.728 E8.02388
G1 X0.000 Y-6.821 E8.08430
G1 X2.010 Y-6.729 E8.14404
G1 X2.266 Y-7.011 F5400.000
G1 E7.44404 F600.00000
G92 E0
G1 Z0.400 F5400.000
G1 X2.142 Y-7.954 F5400.000
G1 X-2.195 Y-7.951 F5400.000
G1 X-6.244 Y-7.554 F5400.000
G1 X-9.549 Y-6.905 F5400.000
G1 X-12.433 Y-5.780 F5400.000
G1 X-12.955 Y-3.842 F5400.000
G1 X-13.980 Y-3.515 F5400.000
G1 Z0.200 F5400.000
G1 E0.70000 F600.00000
G1 F900
G1 X-13.940 Y-3.113 E0.71199
G1 X-13.980 Y-2.711 E0.72398
G1 X-14.097 Y-2.325 E0.73597
G1 X-14.287 Y-1.969 E0.74796
G1 X-14.544 Y-1.656 E0.75994
G1 X-14.856 Y-1.400 E0.77193
G1 X-15.212 Y-1.210 E0.78392
G1 X-15.598 Y-1.093 E0.79591
G1 X-16.000 Y-1.053 E0.80790
G1 X-16.402 Y-1.093 E0.81989
G1 X-16.788 Y-1.210 E0.83188
G1 X-17.144 Y-1.400 E0.84387
G1 X-17.456 Y-1.656 E0.85586
G1 X-17.713 Y-1.969 E0.86785
G1 X-17.903 Y-2.325 E0.87983
G1 X-18.020 Y-2.711 E0.89182
G1 X-18.060 Y-3.113 E0.90381
G1 X-18.020 Y-3.515 E0.91580
G1 X-17.903 Y-3.901 E0.92779
G1 X-17.713 Y-4.257 E0.93978
G1 X-17.456 Y-4.569 E0.95177
G1 X-17.144 Y-4.826 E0.96376
G1 X-16.788 Y-5.016 E0.97575
G1 X-16.402 Y-5.133 E0.98773
G1 X-16.000 Y-5.173 E0.99972
G1 X-15.598 Y-5.133 E1.01171
G1 X-15.212 Y-5.016 E1.02370
G1 X-14.856 Y-4.826 E1.03569
G1 X-14.544 Y-4.569 E1.04768
G1 X-14.287 Y-4.257 E1.05967
G1 X-14.097 Y-3.901 E1.07166
G1 X-13.995 Y-3.565 E1.08209
G1 X-14.332 Y-3.445 F5400.000
G1 F900
G1 X-14.299 Y-3.113 E1.09199
G1 X-14.332 Y-2.781 E1.10189
G1 X-14.429 Y-2.462 E1.11179
G1 X-14.586 Y-2.168 E1.12169
G1 X-14.797 Y-1.910 E1.13159
G1 X-15.055 Y-1.699 E1.14149
G1 X-15.349 Y-1.541 E1.15139
G1 X-15.668 Y-1.445 E1.16129
G1 X-16.000 Y-1.412 E1.17119
G1 X-16.332 Y-1.445 E1.18109
G1 X-16.651 Y-1.541 E1.19099
G1 X-16.945 Y-1.699 E1.20089
G1 X-17.203 Y-1.910 E1.21079
G1 X-17.414 Y-2.168 E1.22069
G1 X-17.571 Y-2.462 E1.23059
G1 X-17.668 Y-2.781 E1.24050
G1 X-17.701 Y-3.113 E1.25040
G1 X-17.668 Y-3.445 E1.26030
G1 X-17.571 Y-3.764 E1.27020
G1 X-17.414 Y-4.058 E1.28010
G1 X-17.203 Y-4.316 E1.29000
G1 X-16.945 Y-4.527 E1.29990
G1 X-16.651 Y-4.684 E1.30980
G1 X-16.332 Y-4.781 E1.31970
G1 X-16.000 Y-4.814 E1.32960
G1 X-15.668 Y-4.781 E1.33950
G1 X-15.349 Y-4.684 E1.34940
G1 X-15.055 Y-4.527 E1.35930
G1 X-14.797 Y-4.316 E1.36920
G1 X-14.586 Y-4.058 E1.37910
G1 X-14.429 Y-3.764 E1.38900
G1 X-14.347 Y-3.495 E1.39734
G1 X-14.016 Y-3.338 F5400.000
G1 E0.69734 F600.00000
G92 E0
G1 Z0.400 F5400.000
G1 X-12.955 Y-3.842 F5400.000
G1 X-12.433 Y-5.780 F5400.000
G1 X-14.173 Y-6.240 F5400.000
G1 X-16.492 Y-6.218 F5400.000
G1 X-17.946 Y-5.754 F5400.000
G1 X-18.395 Y-5.508 F5400.000
G1 X-18.641 Y-5.059 F5400.000
G1 X-19.105 Y-3.604 F5400.000
G1 X-19.216 Y-2.313 F5400.000
G1 X-19.029 Y-0.779 F5400.000
G1 X-18.675 Y0.430 F5400.000
G1 X-19.552 Y2.659 F5400.000
G1 X-20.352 Y6.679 F5400.000
G1 X-20.767 Y10.824 F5400.000
G1 X-20.769 Y14.905 F5400.000
G1 X-20.371 Y18.970 F5400.000
G1 X-19.479 Y23.406 F5400.000
G1 X-18.675 Y25.345 F5400.000
G1 X-16.718 Y25.868 F5400.000
G1 X-15.508 Y26.400 F5400.000
G1 X-15.581 Y26.782 F5400.000
G1 X-16.000 Y26.827 F5400.000
G1 Z0.200 F5400.000
G1 E0.70000 F600.00000
G1 F900
G1 X-15.598 Y26.867 E0.71199
G1 X-15.212 Y26.984 E0.72398
G1 X-14.856 Y27.174 E0.73597
G1 X-14.544 Y27.431 E0.74796
G1 X-14.287 Y27.743 E0.75994
G1 X-14.097 Y28.099 E0.77193
G1 X-13.980 Y28.485 E0.78392
G1 X-13.940 Y28.887 E0.79591
G1 X-13.980 Y29.289 E0.80790
G1 X-14.097 Y29.675 E0.81989
G1 X-14.287 Y30.031 E0.83188
G1 X-14.544 Y30.344 E0.84387
G1 X-14.856 Y30.600 E0.85586
G1 X-15.212 Y30.790 E0.86785
G1 X-15.598 Y30.907 E0.87983
G1 X-16.000 Y30.947 E0.89182
G1 X-16.402 Y30.907 E0.90381
G1 X-16.788 Y30.790 E0.91580
G1 X-17.144 Y30.600 E0.92779
G1 X-17.456 Y30.344 E0.93978
G1 X-17.713 Y30.031 E0.95177
G1 X-17.903 Y29.675 E0.96376
G1 X-18.020 Y29.289 E0.97575
G1 X-18.060 Y28.887 E0.98773
G1 X-18.020 Y28.485 E0.99972
G1 X-17.903 Y28.099 E1.01171
G1 X-17.713 Y27.743 E1.02370
G1 X-17.456 Y27.431 E1.03569
G1 X-17.144 Y27.174 E1.04768
G1 X-16.788 Y26.984 E1.05967
G1 X-16.402 Y26.867 E1.07166
G1 X-16.052 Y26.832 E1.08209
G1 X-16.000 Y27.186 F5400.000
G1 F900
G1 X-15.668 Y27.219 E1.09199
G1 X-15.349 Y27.316 E1.10189
G1 X-15.055 Y27.473 E1.11179
G1 X-14.797 Y27.684 E1.12169
G1 X-14.586 Y27.942 E1.13159
G1 X-14.429 Y28.236 E1.14149
G1 X-14.332 Y28.555 E1.15139
G1 X-14.299 Y28.887 E1.16129
G1 X-14.332 Y29.219 E1.17119
G1 X-14.429 Y29.538 E1.18109
G1 X-14.586 Y29.832 E1.19099
G1 X-14.797 Y30.090 E1.20089
G1 X-15.055 Y30.301 E1.21079
G1 X-15.349 Y30.459 E1.22069
G1 X-15.668 Y30.555 E1.23060
G1 X-16.000 Y30.588 E1.24050
G1 X-16.332 Y30.555 E1.25040
G1 X-16.651 Y30.459 E1.26030
G1 X-16.945 Y30.301 E1.27020
G1 X-17.203 Y30.090 E1.28010
G1 X-17.414 Y29.832 E1.29000
G1 X-17.571 Y29.538 E1.29990
G1 X-17.668 Y29.219 E1.30980
G1 X-17.701 Y28.887 E1.31970
G1 X-17.668 Y28.555 E1.32960
G1 X-17.571 Y28.236 E1.33950
G1 X-17.414 Y27.942 E1.34940
G1 X-17.203 Y27.684 E1.35930
G1 X-16.945 Y27.473 E1.36920
G1 X-16.651 Y27.316 E1.37910
G1 X-16.332 Y27.219 E1.38900
G1 X-16.052 Y27.191 E1.39734
G1 X-15.833 Y26.897 F5400.000
G1 E0.69734 F600.00000
G92 E0
G1 Z0.400 F5400.000
G1 X-15.581 Y26.782 F5400.000
G1 X-15.508 Y26.400 F5400.000
G1 X-16.718 Y25.868 F5400.000
G1 X-18.675 Y25.345 F5400.000
G1 X-19.127 Y27.060 F5400.000
G1 X-19.105 Y29.379 F5400.000
G1 X-18.641 Y30.833 F5400.000
G1 X-18.395 Y31.282 F5400.000
G1 X-17.946 Y31.528 F5400.000
G1 X-16.492 Y31.993 F5400.000
G1 X-15.200 Y32.103 F5400.000
G1 X-13.666 Y31.917 F5400.000
G1 X-12.433 Y31.554 F5400.000
G1 X-10.376 Y32.375 F5400.000
G1 X-6.356 Y33.175 F5400.000
G1 X-2.199 Y33.591 F5400.000
G1 X2.141 Y33.594 F5400.000
G1 X6.219 Y33.195 F5400.000
G1 X10.680 Y32.299 F5400.000
G1 X12.433 Y31.554 F5400.000
G1 X12.955 Y29.617 F5400.000
G1 X13.513 Y28.396 F5400.000
G1 X13.895 Y28.468 F5400.000
G1 X13.940 Y28.887 F5400.000
G1 Z0.200 F5400.000
G1 E0.70000 F600.00000
G1 F900
G1 X13.980 Y28.485 E0.71199
G1 X14.097 Y28.099 E0.72398
G1 X14.287 Y27.743 E0.73597
G1 X14.544 Y27.431 E0.74796
G1 X14.856 Y27.174 E0.75994
G1 X15.212 Y26.984 E0.77193
G1 X15.598 Y26.867 E0.78392
G1 X16.000 Y26.827 E0.79591
G1 X16.402 Y26.867 E0.80790
G1 X16.788 Y26.984 E0.81989
G1 X17.144 Y27.174 E0.83188
G1 X17.456 Y27.431 E0.84387
G1 X17.713 Y27.743 E0.85586
G1 X17.903 Y28.099 E0.86785
G1 X18.020 Y28.485 E0.87983
G1 X18.060 Y28.887 E0.89182
G1 X18.020 Y29.289 E0.90381
G1 X17.903 Y29.675 E0.91580
G1 X17.713 Y30.031 E0.92779
G1 X17.456 Y30.344 E0.93978
G1 X17.144 Y30.600 E0.95177
G1 X16.788 Y30.790 E0.96376
G1 X16.402 Y30.907 E0.97575
G1 X16.000 Y30.947 E0.98774
G1 X15.598 Y30.907 E0.99972
G1 X15.212 Y30.790 E1.01171
G1 X14.856 Y30.600 E1.02370
G1 X14.544 Y30.344 E1.03569
G1 X14.287 Y30.031 E1.04768
G1 X14.097 Y29.675 E1.05967
G1 X13.980 Y29.289 E1.07166
G1 X13.945 Y28.939 E1.08209
G1 X14.299 Y28.887 F5400.000
G1 F900
G1 X14.332 Y28.555 E1.09199
G1 X14.429 Y28.236 E1.10189
G1 X14.586 Y27.942 E1.11179
G1 X14.797 Y27.684 E1.12169
G1 X15.055 Y27.473 E1.13159
G1 X15.349 Y27.316 E1.14149
G1 X15.668 Y27.219 E1.15139
G1 X16.000 Y27.186 E1.16129
G1 X16.332 Y27.219 E1.17119
G1 X16.651 Y27.316 E1.18109
G1 X16.945 Y27.473 E1.19099
G1 X17.203 Y27.684 E1.20089
G1 X17.414 Y27.942 E1.21079
G1 X17.571 Y28.236 E1.22069
G1 X17.668 Y28.555 E1.23060
G1 X17.701 Y28.887 E1.24050
G1 X17.668 Y29.219 E1.25040
G1 X17.571 Y29.538 E1.26030
G1 X17.414 Y29.832 E1.27020
G1 X17.203 Y30.090 E1.28010
G1 X16.945 Y30.301 E1.29000
G1 X16.651 Y30.459 E1.29990
G1 X16.332 Y30.555 E1.30980
G1 X16.000 Y30.588 E1.31970
G1 X15.668 Y30.555 E1.32960
G1 X15.349 Y30.459 E1.33950
G1 X15.055 Y30.301 E1.34940
G1 X14.797 Y30.090 E1.35930
G1 X14.586 Y29.832 E1.36920
G1 X14.429 Y29.538 E1.37910
G1 X14.332 Y29.219 E1.38900
G1 X14.304 Y28.939 E1.39735
G1 X14.010 Y28.720 F5400.000
G1 E0.69735 F600.00000
G92 E0
G1 Z0.400 F5400.000
G1 X13.895 Y28.468 F5400.000
G1 X13.513 Y28.396 F5400.000
G1 X12.955 Y29.617 F5400.000
G1 X12.433 Y31.554 F5400.000
G1 X14.173 Y32.014 F5400.000
G1 X16.492 Y31.993 F5400.000
G1 X17.946 Y31.528 F5400.000
G1 X18.395 Y31.282 F5400.000
G1 X18.641 Y30.833 F5400.000
G1 X19.105 Y29.379 F5400.000
G1 X19.216 Y28.087 F5400.000
G1 X19.029 Y26.553 F5400.000
G1 X18.675 Y25.345 F5400.000
G1 X19.552 Y23.115 F5400.000
G1 X20.352 Y19.095 F5400.000
G1 X20.767 Y14.950 F5400.000
G1 X20.769 Y10.869 F5400.000
G1 X20.371 Y6.804 F5400.000
G1 X19.479 Y2.369 F5400.000
G1 X18.675 Y0.430 F5400.000
G1 X16.718 Y-0.094 F5400.000
G1 X15.508 Y-0.625 F5400.000
G1 X15.581 Y-1.008 F5400.000
G1 X16.000 Y-1.053 F5400.000
G1 Z0.200 F5400.000
G1 E0.70000 F600.00000
G1 F900
G1 X15.598 Y-1.093 E0.71199
G1 X15.212 Y-1.210 E0.72398
G1 X14.856 Y-1.400 E0.73597
G1 X14.544 Y-1.656 E0.74796
G1 X14.287 Y-1.969 E0.75994
G1 X14.097 Y-2.325 E0.77193
G1 X13.980 Y-2.711 E0.78392
G1 X13.940 Y-3.113 E0.79591
G1 X13.980 Y-3.515 E0.80790
G1 X14.097 Y-3.901 E0.81989
G1 X14.287 Y-4.257 E0.83188
G1 X14.544 Y-4.569 E0.84387
G1 X14.856 Y-4.826 E0.85586
G1 X15.212 Y-5.016 E0.86785
G1 X15.598 Y-5.133 E0.87983
G1 X16.000 Y-5.173 E0.89182
G1 X16.402 Y-5.133 E0.90381
G1 X16.788 Y-5.016 E0.91580
G1 X17.144 Y-4.826 E0.92779
G1 X17.456 Y-4.569 E0.93978
G1 X17.713 Y-4.257 E0.95177
G1 X17.903 Y-3.901 E0.96376
G1 X18.020 Y-3.515 E0.97575
G1 X18.060 Y-3.113 E0.98773
G1 X18.020 Y-2.711 E0.99972
G1 X17.903 Y-2.325 E1.01171
G1 X17.713 Y-1.969 E1.02370
G1 X17.456 Y-1.656 E1.03569
G1 X17.144 Y-1.400 E1.04768
G1 X16.788 Y-1.210 E1.05967
G1 X16.402 Y-1.093 E1.07166
G1 X16.052 Y-1.058 E1.08209
G1 X16.000 Y-1.412 F5400.000
G1 F900
G1 X15.668 Y-1.445 E1.09199
