; generated by Slic3r 1.3.0-dev on 2017-06-27 at 16:49:06

; external perimeters extrusion width = 0.35mm (1.47mm^3/s)
; perimeters extrusion width = 0.52mm (2.89mm^3/s)
; infill extrusion width = 0.52mm (5.77mm^3/s)
; solid infill extrusion width = 0.52mm (5.77mm^3/s)
; top infill extrusion width = 0.52mm (4.81mm^3/s)
; support material extrusion width = 0.35mm (3.68mm^3/s)

M107
G28
G92 X0 Y0 Z0 E0
G1 F5000 Y30 X30
G1 X220
G1 F100 E20 ;extrude 20

G28
G92 X0 Y0 Z0
G1 F4000 X101 Y127
G92 X0 Y0 Z0 E0
; Filament gcode

G21 ; set units to millimeters
G90 ; use absolute coordinates
M82 ; use absolute distances for extrusion
G92 E0
G1 E-0.70000 F600.00000
G92 E0
G1 Z0.200 F5400.000
G1 Z0.400 F5400.000
G1 X-1.428 Y-24.910 F5400.000
G1 Z0.200 F5400.000
G1 E0.70000 F600.00000
G1 F1800
G1 X12.141 Y-24.910 E1.10288
G1 X14.031 Y-24.514 E1.16023
G1 X16.182 Y-22.623 E1.24525
G1 X24.041 Y-9.540 E1.69840
G1 X24.602 Y-8.136 E1.74332
G1 X26.602 Y0.864 E2.01706
G1 X26.714 Y1.887 E2.04760
G1 X26.714 Y23.887 E2.70081
G1 X26.602 Y24.910 E2.73136
G1 X24.602 Y33.910 E3.00510
G1 X23.805 Y35.670 E3.06245
G1 X22.370 Y36.962 E3.11981
G1 X21.023 Y37.489 E3.16276
G1 X12.023 Y39.489 E3.43650
G1 X11.000 Y39.601 E3.46705
G1 X-11.000 Y39.601 E4.12025
G1 X-12.023 Y39.489 E4.15080
G1 X-21.023 Y37.489 E4.42454
G1 X-22.782 Y36.693 E4.48189
G1 X-24.075 Y35.257 E4.53925
G1 X-24.602 Y33.910 E4.58220
G1 X-26.602 Y24.910 E4.85594
G1 X-26.714 Y23.887 E4.88649
G1 X-26.714 Y1.887 E5.53970
G1 X-26.602 Y0.864 E5.57024
G1 X-24.602 Y-8.136 E5.84398
G1 X-24.041 Y-9.540 E5.88890
G1 X-16.182 Y-22.623 E6.34205
G1 X-14.869 Y-24.040 E6.39940
G1 X-12.141 Y-24.910 E6.48442
G1 X-1.481 Y-24.910 E6.80093
G1 X-1.428 Y-24.553 F5400.000
G1 F1800
G1 X12.141 Y-24.553 E7.20381
G1 X13.954 Y-24.157 E7.25892
G1 X15.876 Y-22.439 E7.33545
G1 X23.735 Y-9.357 E7.78859
G1 X24.253 Y-8.058 E7.83011
G1 X26.253 Y0.942 E8.10385
G1 X26.357 Y1.887 E8.13208
G1 X26.357 Y23.887 E8.78529
G1 X26.253 Y24.832 E8.81352
G1 X24.253 Y33.832 E9.08726
G1 X23.474 Y35.517 E9.14238
G1 X22.064 Y36.724 E9.19749
G1 X20.945 Y37.140 E9.23293
G1 X11.945 Y39.140 E9.50667
G1 X11.000 Y39.244 E9.53490
G1 X-11.000 Y39.244 E10.18811
G1 X-11.945 Y39.140 E10.21634
G1 X-20.945 Y37.140 E10.49008
G1 X-22.630 Y36.361 E10.54520
G1 X-23.837 Y34.951 E10.60031
G1 X-24.253 Y33.832 E10.63575
G1 X-26.253 Y24.832 E10.90949
G1 X-26.357 Y23.887 E10.93773
G1 X-26.357 Y1.887 E11.59094
G1 X-26.253 Y0.942 E11.61917
G1 X-24.253 Y-8.058 E11.89291
G1 X-23.735 Y-9.357 E11.93442
G1 X-15.876 Y-22.439 E12.38757
G1 X-14.603 Y-23.790 E12.44268
G1 X-12.141 Y-24.553 E12.51921
G1 X-1.481 Y-24.553 E12.83571
G1 E12.13571 F600.00000
G92 E0
G1 Z0.400 F5400.000
G1 X-5.954 Y-6.315 F5400.000
G1 Z0.200 F5400.000
G1 E0.70000 F600.00000
G1 F900
G1 X-4.044 Y-6.793 E0.75846
G1 X-2.067 Y-7.083 E0.81779
G1 X0.000 Y-7.178 E0.87923
G1 X2.097 Y-7.082 E0.94154
G1 X4.045 Y-6.793 E1.00001
G1 X5.954 Y-6.315 E1.05846
G1 X7.807 Y-5.652 E1.11690
G1 X9.587 Y-4.810 E1.17534
G1 X11.275 Y-3.798 E1.23379
G1 X12.856 Y-2.626 E1.29223
G1 X14.314 Y-1.304 E1.35067
G1 X15.636 Y0.155 E1.40912
G1 X16.809 Y1.736 E1.46756
G1 X17.821 Y3.424 E1.52600
G1 X18.662 Y5.203 E1.58445
G1 X19.326 Y7.057 E1.64289
G1 X19.804 Y8.966 E1.70133
G1 X20.093 Y10.913 E1.75978
G1 X20.189 Y12.887 E1.81845
G1 X20.093 Y14.861 E1.87713
G1 X19.804 Y16.808 E1.93557
G1 X19.326 Y18.717 E1.99402
G1 X18.662 Y20.571 E2.05246
G1 X17.821 Y22.350 E2.11090
G1 X16.809 Y24.038 E2.16935
G1 X15.636 Y25.619 E2.22779
G1 X14.314 Y27.078 E2.28624
G1 X12.856 Y28.400 E2.34468
G1 X11.275 Y29.572 E2.40312
G1 X9.587 Y30.584 E2.46157
G1 X7.807 Y31.426 E2.52001
G1 X5.954 Y32.089 E2.57845
G1 X4.045 Y32.567 E2.63690
G1 X2.097 Y32.856 E2.69537
G1 X0.000 Y32.953 E2.75768
G1 X-2.097 Y32.856 E2.82000
G1 X-4.045 Y32.567 E2.87847
G1 X-5.954 Y32.089 E2.93691
G1 X-7.807 Y31.426 E2.99536
G1 X-9.587 Y30.584 E3.05380
G1 X-11.275 Y29.572 E3.11224
G1 X-12.856 Y28.400 E3.17069
G1 X-14.314 Y27.078 E3.22913
G1 X-15.636 Y25.619 E3.28757
G1 X-16.809 Y24.038 E3.34602
G1 X-17.821 Y22.350 E3.40446
G1 X-18.662 Y20.571 E3.46291
G1 X-19.326 Y18.717 E3.52135
G1 X-19.804 Y16.808 E3.57979
G1 X-20.093 Y14.861 E3.63824
G1 X-20.189 Y12.887 E3.69691
G1 X-20.093 Y10.913 E3.75559
G1 X-19.804 Y8.966 E3.81403
G1 X-19.326 Y7.057 E3.87248
G1 X-18.662 Y5.203 E3.93092
G1 X-17.821 Y3.424 E3.98936
G1 X-16.809 Y1.736 E4.04781
G1 X-15.636 Y0.155 E4.10625
G1 X-14.314 Y-1.304 E4.16469
G1 X-12.856 Y-2.626 E4.22314
G1 X-11.275 Y-3.798 E4.28158
G1 X-9.587 Y-4.810 E4.34002
G1 X-7.807 Y-5.652 E4.39847
G1 X-6.003 Y-6.297 E4.45535
G1 X-5.850 Y-5.973 F5400.000
G1 F720
G1 X-3.975 Y-6.442 E4.51276
G1 X-2.033 Y-6.728 E4.57103
G1 X0.000 Y-6.821 E4.63145
G1 X2.062 Y-6.726 E4.69274
G1 X3.975 Y-6.442 E4.75016
G1 X5.850 Y-5.973 E4.80756
G1 X7.670 Y-5.321 E4.86496
G1 X9.418 Y-4.495 E4.92236
G1 X11.076 Y-3.501 E4.97976
G1 X12.629 Y-2.349 E5.03716
G1 X14.062 Y-1.051 E5.09457
G1 X15.360 Y0.382 E5.15197
G1 X16.512 Y1.934 E5.20937
G1 X17.506 Y3.593 E5.26677
G1 X18.332 Y5.340 E5.32417
G1 X18.983 Y7.161 E5.38158
G1 X19.453 Y9.036 E5.43898
G1 X19.737 Y10.948 E5.49638
G1 X19.832 Y12.887 E5.55401
G1 X19.737 Y14.826 E5.61165
G1 X19.453 Y16.738 E5.66905
G1 X18.983 Y18.614 E5.72645
G1 X18.332 Y20.434 E5.78385
G1 X17.506 Y22.182 E5.84126
G1 X16.512 Y23.840 E5.89866
G1 X15.360 Y25.393 E5.95606
G1 X14.062 Y26.825 E6.01346
G1 X12.629 Y28.123 E6.07086
G1 X11.076 Y29.275 E6.12827
G1 X9.418 Y30.269 E6.18567
G1 X7.670 Y31.096 E6.24307
G1 X5.850 Y31.747 E6.30047
G1 X3.975 Y32.217 E6.35787
G1 X2.062 Y32.500 E6.41528
G1 X0.000 Y32.595 E6.47658
G1 X-2.062 Y32.500 E6.53787
G1 X-3.975 Y32.217 E6.59528
G1 X-5.850 Y31.747 E6.65268
G1 X-7.670 Y31.096 E6.71008
G1 X-9.418 Y30.269 E6.76748
G1 X-11.076 Y29.275 E6.82489
G1 X-12.629 Y28.123 E6.88229
G1 X-14.062 Y26.825 E6.93969
G1 X-15.360 Y25.393 E6.99709
G1 X-16.512 Y23.840 E7.05449
G1 X-17.506 Y22.182 E7.11190
G1 X-18.332 Y20.434 E7.16930
G1 X-18.983 Y18.614 E7.22670
G1 X-19.453 Y16.738 E7.28410
G1 X-19.737 Y14.826 E7.34150
G1 X-19.832 Y12.887 E7.39914
G1 X-19.737 Y10.948 E7.45677
G1 X-19.453 Y9.036 E7.51417
G1 X-18.983 Y7.161 E7.57158
G1 X-18.332 Y5.340 E7.62898
G1 X-17.506 Y3.593 E7.68638
G1 X-16.512 Y1.934 E7.74378
G1 X-15.360 Y0.382 E7.80118
G1 X-14.062 Y-1.051 E7.85859
G1 X-12.629 Y-2.349 E7.91599
G1 X-11.076 Y-3.501 E7.97339
G1 X-9.418 Y-4.495 E8.03079
G1 X-7.670 Y-5.321 E8.08819
G1 X-5.900 Y-5.955 E8.14404
G1 X-5.771 Y-6.314 F5400.000
G1 E7.44404 F600.00000
G92 E0
G1 Z0.400 F5400.000
G1 X-13.980 Y-3.515 F5400.000
G1 Z0.200 F5400.000
G1 E0.70000 F600.00000
G1 F900
G1 X-13.940 Y-3.113 E0.71199
G1 X-13.980 Y-2.711 E0.72398
G1 X-14.097 Y-2.325 E0.73597
G1 X-14.287 Y-1.969 E0.74796
G1 X-14.544 Y-1.656 E0.75994
G1 X-14.856 Y-1.400 E0.77193
G1 X-15.212 Y-1.210 E0.78392
G1 X-15.598 Y-1.093 E0.79591
G1 X-16.000 Y-1.053 E0.80790
G1 X-16.402 Y-1.093 E0.81989
G1 X-16.788 Y-1.210 E0.83188
G1 X-17.144 Y-1.400 E0.84387
G1 X-17.456 Y-1.656 E0.85586
G1 X-17.713 Y-1.969 E0.86785
G1 X-17.903 Y-2.325 E0.87983
G1 X-18.020 Y-2.711 E0.89182
G1 X-18.060 Y-3.113 E0.90381
G1 X-18.020 Y-3.515 E0.91580
G1 X-17.903 Y-3.901 E0.92779
G1 X-17.713 Y-4.257 E0.93978
G1 X-17.456 Y-4.569 E0.95177
G1 X-17.144 Y-4.826 E0.96376
G1 X-16.788 Y-5.016 E0.97575
G1 X-16.402 Y-5.133 E0.98773
G1 X-16.000 Y-5.173 E0.99972
G1 X-15.598 Y-5.133 E1.01171
G1 X-15.212 Y-5.016 E1.02370
G1 X-14.856 Y-4.826 E1.03569
G1 X-14.544 Y-4.569 E1.04768
G1 X-14.287 Y-4.257 E1.05967
G1 X-14.097 Y-3.901 E1.07166
G1 X-13.995 Y-3.565 E1.08209
G1 X-14.332 Y-3.445 F5400.000
G1 F900
G1 X-14.299 Y-3.113 E1.09199
G1 X-14.332 Y-2.781 E1.10189
G1 X-14.429 Y-2.462 E1.11179
G1 X-14.586 Y-2.168 E1.12169
G1 X-14.797 Y-1.910 E1.13159
G1 X-15.055 Y-1.699 E1.14149
G1 X-15.349 Y-1.541 E1.15139
G1 X-15.668 Y-1.445 E1.16129
G1 X-16.000 Y-1.412 E1.17119
G1 X-16.332 Y-1.445 E1.18109
G1 X-16.651 Y-1.541 E1.19099
G1 X-16.945 Y-1.699 E1.20089
G1 X-17.203 Y-1.910 E1.21079
G1 X-17.414 Y-2.168 E1.22069
G1 X-17.571 Y-2.462 E1.23059
G1 X-17.668 Y-2.781 E1.24050
G1 X-17.701 Y-3.113 E1.25040
G1 X-17.668 Y-3.445 E1.26030
G1 X-17.571 Y-3.764 E1.27020
G1 X-17.414 Y-4.058 E1.28010
G1 X-17.203 Y-4.316 E1.29000
G1 X-16.945 Y-4.527 E1.29990
G1 X-16.651 Y-4.684 E1.30980
G1 X-16.332 Y-4.781 E1.31970
G1 X-16.000 Y-4.814 E1.32960
G1 X-15.668 Y-4.781 E1.33950
G1 X-15.349 Y-4.684 E1.34940
G1 X-15.055 Y-4.527 E1.35930
G1 X-14.797 Y-4.316 E1.36920
G1 X-14.586 Y-4.058 E1.37910
G1 X-14.429 Y-3.764 E1.38900
G1 X-14.347 Y-3.495 E1.39734
G1 X-14.016 Y-3.338 F5400.000
G1 E0.69734 F600.00000
G92 E0
G1 Z0.400 F5400.000
G1 X-12.955 Y-3.842 F5400.000
G1 X-12.433 Y-5.780 F5400.000
G1 X-14.173 Y-6.240 F5400.000
G1 X-16.492 Y-6.218 F5400.000
G1 X-17.946 Y-5.754 F5400.000
G1 X-18.395 Y-5.508 F5400.000
G1 X-18.641 Y-5.059 F5400.000
G1 X-19.105 Y-3.604 F5400.000
G1 X-19.216 Y-2.313 F5400.000
G1 X-19.029 Y-0.779 F5400.000
G1 X-18.675 Y0.430 F5400.000
G1 X-19.552 Y2.659 F5400.000
G1 X-20.352 Y6.679 F5400.000
G1 X-20.767 Y10.824 F5400.000
G1 X-20.769 Y14.905 F5400.000
G1 X-20.371 Y18.970 F5400.000
G1 X-19.479 Y23.406 F5400.000
G1 X-18.675 Y25.345 F5400.000
G1 X-16.718 Y25.868 F5400.000
G1 X-15.508 Y26.400 F5400.000
G1 X-15.581 Y26.782 F5400.000
G1 X-16.000 Y26.827 F5400.000
G1 Z0.200 F5400.000
G1 E0.70000 F600.00000
G1 F900
G1 X-15.598 Y26.867 E0.71199
G1 X-15.212 Y26.984 E0.72398
G1 X-14.856 Y27.174 E0.73597
G1 X-14.544 Y27.431 E0.74796
G1 X-14.287 Y27.743 E0.75994
G1 X-14.097 Y28.099 E0.77193
G1 X-13.980 Y28.485 E0.78392
G1 X-13.940 Y28.887 E0.79591
G1 X-13.980 Y29.289 E0.80790
G1 X-14.097 Y29.675 E0.81989
G1 X-14.287 Y30.031 E0.83188
G1 X-14.544 Y30.344 E0.84387
G1 X-14.856 Y30.600 E0.85586
G1 X-15.212 Y30.790 E0.86785
G1 X-15.598 Y30.907 E0.87983
G1 X-16.000 Y30.947 E0.89182
G1 X-16.402 Y30.907 E0.90381
G1 X-16.788 Y30.790 E0.91580
G1 X-17.144 Y30.600 E0.92779
G1 X-17.456 Y30.344 E0.93978
G1 X-17.713 Y30.031 E0.95177
G1 X-17.903 Y29.675 E0.96376
G1 X-18.020 Y29.289 E0.97575
G1 X-18.060 Y28.887 E0.98773
G1 X-18.020 Y28.485 E0.99972
G1 X-17.903 Y28.099 E1.01171
G1 X-17.713 Y27.743 E1.02370
G1 X-17.456 Y27.431 E1.03569
G1 X-17.144 Y27.174 E1.04768
G1 X-16.788 Y26.984 E1.05967
G1 X-16.402 Y26.867 E1.07166
G1 X-16.052 Y26.832 E1.08209
G1 X-16.000 Y27.186 F5400.000
G1 F900
G1 X-15.668 Y27.219 E1.09199
G1 X-15.349 Y27.316 E1.10189
G1 X-15.055 Y27.473 E1.11179
G1 X-14.797 Y27.684 E1.12169
G1 X-14.586 Y27.942 E1.13159
G1 X-14.429 Y28.236 E1.14149
G1 X-14.332 Y28.555 E1.15139
G1 X-14.299 Y28.887 E1.16129
G1 X-14.332 Y29.219 E1.17119
G1 X-14.429 Y29.538 E1.18109
G1 X-14.586 Y29.832 E1.19099
G1 X-14.797 Y30.090 E1.20089
G1 X-15.055 Y30.301 E1.21079
G1 X-15.349 Y30.459 E1.22069
G1 X-15.668 Y30.555 E1.23060
G1 X-16.000 Y30.588 E1.24050
G1 X-16.332 Y30.555 E1.25040
G1 X-16.651 Y30.459 E1.26030
G1 X-16.945 Y30.301 E1.27020
G1 X-17.203 Y30.090 E1.28010
G1 X-17.414 Y29.832 E1.29000
G1 X-17.571 Y29.538 E1.29990
G1 X-17.668 Y29.219 E1.30980
G1 X-17.701 Y28.887 E1.31970
G1 X-17.668 Y28.555 E1.32960
G1 X-17.571 Y28.236 E1.33950
G1 X-17.414 Y27.942 E1.34940
G1 X-17.203 Y27.684 E1.35930
G1 X-16.945 Y27.473 E1.36920
G1 X-16.651 Y27.316 E1.37910
G1 X-16.332 Y27.219 E1.38900
G1 X-16.052 Y27.191 E1.39734
G1 X-15.833 Y26.897 F5400.000
G1 E0.69734 F600.00000
G92 E0
G1 Z0.400 F5400.000
G1 X-15.581 Y26.782 F5400.000
G1 X-15.508 Y26.400 F5400.000
G1 X-16.718 Y25.868 F5400.000
G1 X-18.675 Y25.345 F5400.000
G1 X-19.127 Y27.060 F5400.000
G1 X-19.105 Y29.379 F5400.000
G1 X-18.641 Y30.833 F5400.000
G1 X-18.395 Y31.282 F5400.000
G1 X-17.946 Y31.528 F5400.000
G1 X-16.492 Y31.993 F5400.000
G1 X-15.200 Y32.103 F5400.000
G1 X-13.666 Y31.917 F5400.000
G1 X-12.433 Y31.554 F5400.000
G1 X-10.376 Y32.375 F5400.000
G1 X-6.356 Y33.175 F5400.000
G1 X-2.199 Y33.591 F5400.000
G1 X2.141 Y33.594 F5400.000
G1 X6.219 Y33.195 F5400.000
G1 X10.680 Y32.299 F5400.000
G1 X12.433 Y31.554 F5400.000
G1 X12.955 Y29.617 F5400.000
G1 X13.513 Y28.396 F5400.000
G1 X13.895 Y28.468 F5400.000
G1 X13.940 Y28.887 F5400.000
G1 Z0.200 F5400.000
G1 E0.70000 F600.00000
G1 F900
G1 X13.980 Y28.485 E0.71199
G1 X14.097 Y28.099 E0.72398
G1 X14.287 Y27.743 E0.73597
G1 X14.544 Y27.431 E0.74796
G1 X14.856 Y27.174 E0.75994
G1 X15.212 Y26.984 E0.77193
G1 X15.598 Y26.867 E0.78392
G1 X16.000 Y26.827 E0.79591
G1 X16.402 Y26.867 E0.80790
G1 X16.788 Y26.984 E0.81989
G1 X17.144 Y27.174 E0.83188
G1 X17.456 Y27.431 E0.84387
G1 X17.713 Y27.743 E0.85586
G1 X17.903 Y28.099 E0.86785
G1 X18.020 Y28.485 E0.87983
G1 X18.060 Y28.887 E0.89182
G1 X18.020 Y29.289 E0.90381
G1 X17.903 Y29.675 E0.91580
G1 X17.713 Y30.031 E0.92779
G1 X17.456 Y30.344 E0.93978
G1 X17.144 Y30.600 E0.95177
G1 X16.788 Y30.790 E0.96376
G1 X16.402 Y30.907 E0.97575
G1 X16.000 Y30.947 E0.98774
G1 X15.598 Y30.907 E0.99972
G1 X15.212 Y30.790 E1.01171
G1 X14.856 Y30.600 E1.02370
G1 X14.544 Y30.344 E1.03569
G1 X14.287 Y30.031 E1.04768
G1 X14.097 Y29.675 E1.05967
G1 X13.980 Y29.289 E1.07166
G1 X13.945 Y28.939 E1.08209
G1 X14.299 Y28.887 F5400.000
G1 F900
G1 X14.332 Y28.555 E1.09199
G1 X14.429 Y28.236 E1.10189
G1 X14.586 Y27.942 E1.11179
G1 X14.797 Y27.684 E1.12169
G1 X15.055 Y27.473 E1.13159
G1 X15.349 Y27.316 E1.14149
G1 X15.668 Y27.219 E1.15139
G1 X16.000 Y27.186 E1.16129
G1 X16.332 Y27.219 E1.17119
G1 X16.651 Y27.316 E1.18109
G1 X16.945 Y27.473 E1.19099
G1 X17.203 Y27.684 E1.20089
G1 X17.414 Y27.942 E1.21079
G1 X17.571 Y28.236 E1.22069
G1 X17.668 Y28.555 E1.23060
G1 X17.701 Y28.887 E1.24050
G1 X17.668 Y29.219 E1.25040
G1 X17.571 Y29.538 E1.26030
G1 X17.414 Y29.832 E1.27020
G1 X17.203 Y30.090 E1.28010
G1 X16.945 Y30.301 E1.29000
G1 X16.651 Y30.459 E1.29990
G1 X16.332 Y30.555 E1.30980
G1 X16.000 Y30.588 E1.31970
G1 X15.668 Y30.555 E1.32960
G1 X15.349 Y30.459 E1.33950
G1 X15.055 Y30.301 E1.34940
G1 X14.797 Y30.090 E1.35930
G1 X14.586 Y29.832 E1.36920
G1 X14.429 Y29.538 E1.37910
G1 X14.332 Y29.219 E1.38900
G1 X14.304 Y28.939 E1.39735
G1 X14.010 Y28.720 F5400.000
G1 E0.69735 F600.00000
G92 E0
G1 Z0.400 F5400.000
G1 X13.895 Y28.468 F5400.000
G1 X13.513 Y28.396 F5400.000
G1 X12.955 Y29.617 F5400.000
G1 X12.433 Y31.554 F5400.000
G1 X14.173 Y32.014 F5400.000
G1 X16.492 Y31.993 F5400.000
G1 X17.946 Y31.528 F5400.000
G1 X18.395 Y31.282 F5400.000
G1 X18.641 Y30.833 F5400.000
G1 X19.105 Y29.379 F5400.000
G1 X19.216 Y28.087 F5400.000
G1 X19.029 Y26.553 F5400.000
G1 X18.675 Y25.345 F5400.000
G1 X19.552 Y23.115 F5400.000
G1 X20.352 Y19.095 F5400.000
G1 X20.767 Y14.950 F5400.000
G1 X20.769 Y10.869 F5400.000
G1 X20.371 Y6.804 F5400.000
G1 X19.479 Y2.369 F5400.000
G1 X18.675 Y0.430 F5400.000
G1 X16.718 Y-0.094 F5400.000
G1 X15.508 Y-0.625 F5400.000
G1 X15.581 Y-1.008 F5400.000
G1 X16.000 Y-1.053 F5400.000
G1 Z0.200 F5400.000
G1 E0.70000 F600.00000
G1 F900
G1 X15.598 Y-1.093 E0.71199
G1 X15.212 Y-1.210 E0.72398
G1 X14.856 Y-1.400 E0.73597
G1 X14.544 Y-1.656 E0.74796
G1 X14.287 Y-1.969 E0.75994
G1 X14.097 Y-2.325 E0.77193
G1 X13.980 Y-2.711 E0.78392
G1 X13.940 Y-3.113 E0.79591
G1 X13.980 Y-3.515 E0.80790
G1 X14.097 Y-3.901 E0.81989
G1 X14.287 Y-4.257 E0.83188
G1 X14.544 Y-4.569 E0.84387
G1 X14.856 Y-4.826 E0.85586
G1 X15.212 Y-5.016 E0.86785
G1 X15.598 Y-5.133 E0.87983
G1 X16.000 Y-5.173 E0.89182
G1 X16.402 Y-5.133 E0.90381
G1 X16.788 Y-5.016 E0.91580
G1 X17.144 Y-4.826 E0.92779
G1 X17.456 Y-4.569 E0.93978
G1 X17.713 Y-4.257 E0.95177
G1 X17.903 Y-3.901 E0.96376
G1 X18.020 Y-3.515 E0.97575
G1 X18.060 Y-3.113 E0.98773
G1 X18.020 Y-2.711 E0.99972
G1 X17.903 Y-2.325 E1.01171
G1 X17.713 Y-1.969 E1.02370
G1 X17.456 Y-1.656 E1.03569
G1 X17.144 Y-1.400 E1.04768
G1 X16.788 Y-1.210 E1.05967
G1 X16.402 Y-1.093 E1.07166
G1 X16.052 Y-1.058 E1.08209
G1 X16.000 Y-1.412 F5400.000
G1 F900
G1 X15.668 Y-1.445 E1.09199
G1 X15.349 Y-1.541 E1.10189
G1 X15.055 Y-1.699 E1.11179
G1 X14.797 Y-1.910 E1.12169
G1 X14.586 Y-2.168 E1.13159
G1 X14.429 Y-2.462 E1.14149
G1 X14.332 Y-2.781 E1.15139
G1 X14.299 Y-3.113 E1.16129
G1 X14.332 Y-3.445 E1.17119
G1 X14.429 Y-3.764 E1.18109
G1 X14.586 Y-4.058 E1.19099
G1 X14.797 Y-4.316 E1.20089
G1 X15.055 Y-4.527 E1.21079
G1 X15.349 Y-4.684 E1.22069
G1 X15.668 Y-4.781 E1.23059
G1 X16.000 Y-4.814 E1.24050
G1 X16.332 Y-4.781 E1.25040
