; generated by Slic3r 0.9.11-dev on 2013-09-21 at 17:04:16

; layer_height = .3
; perimeters = 1
; top_solid_layers = 2
; bottom_solid_layers = 2
; fill_density = 0.10
; perimeter_speed = 60
; infill_speed = 85
; travel_speed = 300
; nozzle_diameter = 0.35
; filament_diameter = 1.75
; extrusion_multiplier = 1
; perimeters extrusion width = 0.35mm
; infill extrusion width = 0.37mm
; solid infill extrusion width = 0.37mm
; top infill extrusion width = 0.37mm

G21 ; set units to millimeters
M107
G28
G92 X0 Y0 Z0 E0
G1 F5000 Y30 X30
G1 X220
G1 F100 E10
G28
G92 X0 Y0 Z0
G1 F4000 X101 Y127
G92 X0 Y0 Z0 E0
M106 S255
G90 ; use absolute coordinates
G92 E0
M82 ; use absolute distances for extrusion
G1 F600.000 E-0.70000
G1 Z0.400 F18000.000
G92 E0
G1 X-0.242 Y6.430 F18000.000
;AAA selfz = 0.4, lifted = .2
G1 Z0.200 F18000.000
G1 E0.70000 F600.000
G1 X-3.472 Y5.430 E0.79840 F2509.644
G1 X-3.572 Y5.390 E0.80154
G1 X-3.912 Y5.150 E0.81365
G1 X-3.992 Y5.070 E0.81694
G1 X-6.002 Y2.350 E0.91537
G1 X-6.052 Y2.260 E0.91837
G1 X-6.192 Y1.870 E0.93043
G1 X-6.212 Y1.750 E0.93397
G1 X-6.242 Y-1.680 E1.03379
G1 X-6.112 Y-2.130 E1.04742
G1 X-6.062 Y-2.230 E1.05068
G1 X-4.112 Y-4.980 E1.14879
G1 X-4.032 Y-5.060 E1.15208
G1 X-3.692 Y-5.310 E1.16436
G1 X-3.592 Y-5.360 E1.16762
G1 X-0.342 Y-6.460 E1.26747
G1 X0.188 Y-6.460 E1.28289
G1 X3.458 Y-5.440 E1.38258
G1 X3.558 Y-5.400 E1.38572
G1 X3.898 Y-5.160 E1.39783
G1 X3.978 Y-5.080 E1.40112
G1 X5.998 Y-2.360 E1.49972
G1 X6.198 Y-1.820 E1.51648
G1 X6.238 Y1.670 E1.61806
G1 X6.048 Y2.220 E1.63499
G1 X4.098 Y4.970 E1.73310
G1 X3.688 Y5.300 E1.74842
G1 X3.588 Y5.350 E1.75167
G1 X0.328 Y6.450 E1.85180
G1 X-0.193 Y6.450 E1.86697
G1 X-0.586 Y7.423 F18000.000
G1 X-3.834 Y6.416 E1.96593 F2509.644
G1 X-4.105 Y6.296 E1.97455
G1 X-4.539 Y5.993 E1.98996
G1 X-4.823 Y5.712 E2.00157
G1 X-6.855 Y2.962 E2.10109
G1 X-7.034 Y2.632 E2.11202
G1 X-7.201 Y2.161 E2.12655
G1 X-7.256 Y1.865 E2.13532
G1 X-7.292 Y-1.710 E2.23938
G1 X-7.254 Y-1.970 E2.24702
G1 X-7.107 Y-2.468 E2.26214
G1 X-6.967 Y-2.764 E2.27166
G1 X-4.963 Y-5.595 E2.37258
G1 X-4.733 Y-5.847 E2.38253
G1 X-4.262 Y-6.192 E2.39953
G1 X-3.963 Y-6.342 E2.40926
G1 X-0.678 Y-7.457 E2.51022
G1 X-0.483 Y-7.502 E2.51603
G1 X-0.178 Y-7.524 E2.52493
G1 X0.079 Y-7.634 E2.53308
G1 X0.359 Y-7.523 E2.54184
G1 X0.726 Y-7.510 E2.55252
G1 X0.871 Y-7.364 E2.55852
G1 X0.944 Y-7.320 E2.56100
G1 X3.781 Y-6.439 E2.64745
G1 X3.981 Y-6.362 E2.65370
G1 X4.134 Y-6.278 E2.65877
G1 X4.525 Y-6.003 E2.67269
G1 X4.808 Y-5.724 E2.68424
G1 X6.863 Y-2.956 E2.78456
G1 X6.994 Y-2.723 E2.79236
G1 X7.195 Y-2.156 E2.80986
G1 X7.248 Y-1.878 E2.81808
G1 X7.288 Y1.719 E2.92279
G1 X7.250 Y1.955 E2.92975
G1 X7.084 Y2.464 E2.94533
G1 X6.918 Y2.808 E2.95644
G1 X4.917 Y5.628 E3.05706
G1 X4.692 Y5.855 E3.06637
G1 X4.309 Y6.147 E3.08039
G1 X4.127 Y6.260 E3.08663
G1 X3.943 Y6.338 E3.09245
G1 X0.584 Y7.470 E3.19559
G1 X0.387 Y7.500 E3.20141
G1 X-0.250 Y7.500 E3.21994
G1 X-0.537 Y7.443 E3.22846
G1 X-0.413 Y7.115 F18000.000
G1 X-3.724 Y6.083 E3.32938 F2509.644
G1 X-3.928 Y5.993 E3.33590
G1 X-4.331 Y5.711 E3.35019
G1 X-4.545 Y5.499 E3.35896
G1 X-6.578 Y2.747 E3.45854
G1 X-6.701 Y2.523 E3.46596
G1 X-6.857 Y2.088 E3.47943
G1 X-6.912 Y1.773 E3.48872
G1 X-6.942 Y-1.702 E3.58985
G1 X-6.909 Y-1.909 E3.59598
G1 X-6.774 Y-2.357 E3.60958
G1 X-6.648 Y-2.614 E3.61791
G1 X-4.679 Y-5.390 E3.71696
G1 X-4.514 Y-5.573 E3.72414
G1 X-4.071 Y-5.898 E3.74013
G1 X-3.828 Y-6.019 E3.74802
G1 X-0.563 Y-7.125 E3.84835
G1 X-0.383 Y-7.160 E3.85367
G1 X-0.176 Y-7.160 E3.85972
G1 X0.084 Y-7.256 E3.86777
G1 X0.291 Y-7.173 E3.87428
G1 X0.581 Y-7.160 E3.88270
G1 X0.685 Y-7.056 E3.88700
G1 X0.758 Y-7.012 E3.88948
G1 X3.710 Y-6.093 E3.97945
G1 X3.915 Y-6.003 E3.98597
G1 X4.317 Y-5.721 E4.00026
G1 X4.531 Y-5.510 E4.00899
G1 X6.574 Y-2.758 E4.10875
G1 X6.672 Y-2.586 E4.11450
G1 X6.864 Y-2.041 E4.13132
G1 X6.898 Y-1.862 E4.13664
G1 X6.938 Y1.705 E4.24045
G1 X6.913 Y1.858 E4.24496
G1 X6.752 Y2.353 E4.26012
G1 X6.629 Y2.611 E4.26844
G1 X4.645 Y5.407 E4.36821
G1 X4.467 Y5.588 E4.37559
G1 X4.101 Y5.865 E4.38894
G1 X3.817 Y6.012 E4.39824
G1 X0.502 Y7.130 E4.50008
G1 X0.370 Y7.150 E4.50395
G1 X-0.233 Y7.150 E4.52151
G1 X-0.363 Y7.130 E4.52532
G1 X-0.283 Y6.789 F18000.000
G1 X-3.597 Y5.757 E4.62634 F2509.644
G1 X-3.761 Y5.685 E4.63156
G1 X-4.129 Y5.425 E4.64466
G1 X-4.267 Y5.286 E4.65038
G1 X-6.289 Y2.550 E4.74940
G1 X-6.377 Y2.390 E4.75468
G1 X-6.525 Y1.977 E4.76746
G1 X-6.562 Y1.763 E4.77377
G1 X-6.592 Y-1.693 E4.87436
G1 X-6.442 Y-2.246 E4.89104
G1 X-6.356 Y-2.420 E4.89668
G1 X-4.395 Y-5.186 E4.99535
G1 X-4.295 Y-5.300 E4.99978
G1 X-3.881 Y-5.605 E5.01475
G1 X-3.709 Y-5.690 E5.02031
G1 X-0.449 Y-6.794 E5.12051
G1 X-0.104 Y-6.810 E5.13054
G1 X0.088 Y-6.877 E5.13647
G1 X0.290 Y-6.810 E5.14264
G1 X0.436 Y-6.810 E5.14689
G1 X0.572 Y-6.703 E5.15193
G1 X3.583 Y-5.767 E5.24371
G1 X3.747 Y-5.695 E5.24893
G1 X4.115 Y-5.435 E5.26203
G1 X4.253 Y-5.296 E5.26773
G1 X6.286 Y-2.560 E5.36692
G1 X6.375 Y-2.386 E5.37260
G1 X6.532 Y-1.927 E5.38675
G1 X6.548 Y-1.845 E5.38917
G1 X6.588 Y1.691 E5.49209
G1 X6.419 Y2.245 E5.50894
G1 X6.340 Y2.414 E5.51438
G1 X4.377 Y5.182 E5.61311
G1 X4.241 Y5.320 E5.61875
G1 X3.894 Y5.583 E5.63144
G1 X3.703 Y5.681 E5.63767
G1 X0.435 Y6.784 E5.73806
G1 X0.353 Y6.800 E5.74049
G1 X-0.231 Y6.799 E5.75749
G1 F600.000 E5.05749
G1 Z0.400 F18000.000
G92 E0
G1 X0.137 Y5.118 F18000.000
G1 X1.366 Y-3.816 F18000.000
;AAA selfz = 0.4, lifted = .2
G1 Z0.200 F18000.000
G1 E0.70000 F600.000
G1 X1.051 Y-3.915 E0.70961 F2509.644
G1 X0.913 Y-4.141 E0.71730
G1 X0.982 Y-4.524 E0.72863
G1 X0.966 Y-4.840 E0.73785
G1 X0.869 Y-5.209 E0.74896
G1 X0.744 Y-5.480 E0.75764
G1 X1.044 Y-5.823 E0.77090
G1 X2.460 Y-5.383 E0.81407
G1 X2.512 Y-4.930 E0.82736
G1 X2.253 Y-4.777 E0.83612
G1 X1.975 Y-4.542 E0.84671
G1 X1.770 Y-4.278 E0.85645
G1 X1.607 Y-3.924 E0.86779
G1 X1.414 Y-3.838 E0.87395
G1 F600.000 E0.17395
G1 Z0.400 F18000.000
G92 E0
G1 X1.835 Y-2.962 F18000.000
G1 X-1.006 Y-4.119 F18000.000
;AAA selfz = 0.4, lifted = .2
G1 Z0.200 F18000.000
G1 E0.70000 F600.000
G1 X-1.138 Y-3.890 E0.70769 F2509.644
G1 X-1.451 Y-3.785 E0.71730
G1 X-1.695 Y-3.887 E0.72499
G1 X-1.865 Y-4.237 E0.73632
G1 X-2.063 Y-4.484 E0.74554
G1 X-2.359 Y-4.725 E0.75665
G1 X-2.628 Y-4.876 E0.76562
G1 X-2.587 Y-5.330 E0.77889
G1 X-1.170 Y-5.808 E0.82239
G1 X-0.862 Y-5.471 E0.83566
G1 X-0.985 Y-5.189 E0.84464
G1 X-1.075 Y-4.817 E0.85575
G1 X-1.083 Y-4.501 E0.86497
G1 X-1.016 Y-4.171 E0.87477
G1 F600.000 E0.17477
G1 Z0.400 F18000.000
G92 E0
G1 X-0.341 Y-3.447 F18000.000
G1 X3.169 Y-2.814 F18000.000
;AAA selfz = 0.4, lifted = .2
G1 Z0.200 F18000.000
G1 E0.70000 F600.000
G1 X3.499 Y-3.139 E0.71349 F2509.644
G1 X3.629 Y-3.352 E0.72075
G1 X3.765 Y-3.704 E0.73172
G1 X3.824 Y-4.001 E0.74053
G1 X4.269 Y-4.102 E0.75381
G1 X5.155 Y-2.908 E0.79707
G1 X4.930 Y-2.512 E0.81034
G1 X4.630 Y-2.540 E0.81911
G1 X4.249 Y-2.511 E0.83022
G1 X3.946 Y-2.421 E0.83944
G1 X3.607 Y-2.230 E0.85077
G1 X3.348 Y-2.285 E0.85846
G1 X3.149 Y-2.553 E0.86818
G1 X3.165 Y-2.762 E0.87428
G1 F600.000 E0.17428
G1 Z0.400 F18000.000
G92 E0
G1 X2.243 Y-2.639 F18000.000
G1 X-3.205 Y-2.481 F18000.000
;AAA selfz = 0.4, lifted = .2
G1 Z0.200 F18000.000
G1 E0.70000 F600.000
G1 X-3.401 Y-2.206 E0.70983 F2509.644
G1 X-3.656 Y-2.144 E0.71746
G1 X-4.067 Y-2.358 E0.73095
G1 X-4.310 Y-2.416 E0.73821
G1 X-4.686 Y-2.436 E0.74918
G1 X-5.002 Y-2.399 E0.75844
G1 X-5.236 Y-2.790 E0.77171
G1 X-4.363 Y-4.021 E0.81562
G1 X-3.916 Y-3.930 E0.82889
G1 X-3.847 Y-3.619 E0.83817
G1 X-3.710 Y-3.283 E0.84871
G1 X-3.569 Y-3.060 E0.85640
G1 X-3.231 Y-2.742 E0.86989
G1 X-3.210 Y-2.534 E0.87599
G1 F600.000 E0.17599
G1 Z0.400 F18000.000
G92 E0
G1 X-2.250 Y-2.661 F18000.000
G1 X4.048 Y-0.214 F18000.000
;AAA selfz = 0.4, lifted = .2
G1 Z0.200 F18000.000
G1 E0.70000 F600.000
G1 X4.218 Y-0.414 E0.70763 F2509.644
G1 X4.676 Y-0.482 E0.72112
G1 X4.920 Y-0.586 E0.72881
G1 X5.223 Y-0.784 E0.73935
G1 X5.440 Y-0.985 E0.74797
G1 X5.859 Y-0.805 E0.76124
G1 X5.877 Y0.674 E0.80429
G1 X5.462 Y0.863 E0.81757
G1 X5.239 Y0.667 E0.82622
G1 X4.914 Y0.467 E0.83733
G1 X4.615 Y0.361 E0.84654
G1 X4.228 Y0.316 E0.85788
G1 X4.052 Y0.120 E0.86557
G1 X4.048 Y-0.162 E0.87376
G1 F600.000 E0.17376
G1 Z0.400 F18000.000
G92 E0
G1 X3.365 Y-0.906 F18000.000
G1 X-4.052 Y-0.120 F18000.000
;AAA selfz = 0.4, lifted = .2
G1 Z0.200 F18000.000
G1 E0.70000 F600.000
G1 X-4.048 Y0.214 E0.70972 F2509.644
G1 X-4.218 Y0.414 E0.71735
G1 X-4.676 Y0.482 E0.73084
G1 X-4.906 Y0.579 E0.73810
G1 X-5.223 Y0.784 E0.74907
G1 X-5.451 Y0.994 E0.75810
G1 X-5.870 Y0.814 E0.77139
G1 X-5.883 Y-0.681 E0.81489
G1 X-5.469 Y-0.869 E0.82815
G1 X-5.239 Y-0.667 E0.83706
G1 X-4.930 Y-0.475 E0.84765
G1 X-4.615 Y-0.361 E0.85739
G1 X-4.228 Y-0.316 E0.86872
G1 X-4.087 Y-0.159 E0.87488
G1 F600.000 E0.17488
G1 Z0.400 F18000.000
G92 E0
G1 X-3.383 Y-0.741 F18000.000
G1 X3.207 Y2.478 F18000.000
;AAA selfz = 0.4, lifted = .2
G1 Z0.200 F18000.000
G1 E0.70000 F600.000
G1 X3.401 Y2.206 E0.70972 F2509.644
G1 X3.656 Y2.144 E0.71735
G1 X4.067 Y2.358 E0.73084
G1 X4.310 Y2.416 E0.73810
G1 X4.686 Y2.436 E0.74907
G1 X4.979 Y2.401 E0.75767
G1 X5.213 Y2.793 E0.77094
G1 X4.358 Y3.999 E0.81395
G1 X3.911 Y3.907 E0.82723
G1 X3.847 Y3.619 E0.83584
G1 X3.709 Y3.282 E0.84643
G1 X3.521 Y3.005 E0.85617
G1 X3.235 Y2.741 E0.86750
G1 X3.213 Y2.531 E0.87366
G1 F600.000 E0.17366
G1 Z0.400 F18000.000
G92 E0
G1 X2.302 Y2.588 F18000.000
G1 X-3.149 Y2.553 F18000.000
;AAA selfz = 0.4, lifted = .2
G1 Z0.200 F18000.000
G1 E0.70000 F600.000
G1 X-3.169 Y2.814 E0.70763 F2509.644
G1 X-3.499 Y3.139 E0.72112
G1 X-3.636 Y3.366 E0.72881
G1 X-3.765 Y3.704 E0.73935
G1 X-3.824 Y4.004 E0.74826
G1 X-4.270 Y4.105 E0.76155
G1 X-5.155 Y2.908 E0.80487
G1 X-4.930 Y2.512 E0.81812
G1 X-4.630 Y2.540 E0.82687
G1 X-4.249 Y2.511 E0.83799
G1 X-3.946 Y2.421 E0.84720
G1 X-3.607 Y2.230 E0.85853
G1 X-3.348 Y2.285 E0.86622
G1 X-3.180 Y2.510 E0.87441
G1 F600.000 E0.17441
G1 Z0.400 F18000.000
G92 E0
G1 X-2.190 Y2.711 F18000.000
G1 X1.002 Y4.118 F18000.000
;AAA selfz = 0.4, lifted = .2
G1 Z0.200 F18000.000
G1 E0.70000 F600.000
G1 X1.135 Y3.891 E0.70763 F2509.644
G1 X1.455 Y3.783 E0.71746
G1 X1.697 Y3.883 E0.72509
G1 X1.904 Y4.298 E0.73858
G1 X2.067 Y4.487 E0.74584
G1 X2.359 Y4.725 E0.75681
G1 X2.614 Y4.868 E0.76532
G1 X2.573 Y5.322 E0.77860
G1 X1.177 Y5.792 E0.82146
G1 X0.869 Y5.456 E0.83472
G1 X0.985 Y5.189 E0.84320
G1 X1.074 Y4.822 E0.85417
G1 X1.089 Y4.573 E0.86143
G1 X1.012 Y4.169 E0.87339
G1 X-0.913 Y4.141 F18000.000
G1 X-0.982 Y4.524 E0.88472 F2509.644
G1 X-0.966 Y4.840 E0.89394
G1 X-0.869 Y5.209 E0.90505
G1 X-0.748 Y5.471 E0.91344
G1 X-1.047 Y5.814 E0.92669
G1 X-2.453 Y5.379 E0.96950
G1 X-2.505 Y4.925 E0.98279
G1 X-2.253 Y4.777 E0.99130
G1 X-1.962 Y4.529 E1.00242
G1 X-1.770 Y4.278 E1.01163
G1 X-1.607 Y3.924 E1.02296
G1 X-1.366 Y3.816 E1.03065
G1 X-1.051 Y3.915 E1.04026
G1 X-0.941 Y4.096 E1.04643
G1 X-0.633 Y4.565 F18000.000
G1 X-0.484 Y3.725 E1.07126 F2258.680
G1 X-1.724 Y3.338 E1.10905
G1 X-2.103 Y4.152 E1.13520
G1 X-2.219 Y4.290 E1.14044
G1 X-2.461 Y4.495 E1.14967
G1 X-2.855 Y4.725 E1.16294
G1 X-3.340 Y4.905 E1.17799
G1 X-3.527 Y4.772 E1.18468
G1 X-3.517 Y4.255 E1.19974
G1 X-3.430 Y3.808 E1.21300
G1 X-3.317 Y3.511 E1.22223
G1 X-3.196 Y3.321 E1.22879
G1 X-2.581 Y2.729 E1.25362
G1 X-3.356 Y1.687 E1.29141
G1 X-4.100 Y2.106 E1.31624
G1 X-4.317 Y2.166 E1.32280
G1 X-4.633 Y2.190 E1.33203
G1 X-5.087 Y2.144 E1.34530
G1 X-5.585 Y2.006 E1.36035
G1 X-5.659 Y1.788 E1.36704
G1 X-5.346 Y1.375 E1.38209
G1 X-5.013 Y1.065 E1.39536
G1 X-4.747 Y0.891 E1.40459
G1 X-4.582 Y0.820 E1.40983
G1 X-3.692 Y0.691 E1.43599
G1 X-3.707 Y-0.608 E1.47378
G1 X-4.555 Y-0.706 E1.49861
G1 X-4.766 Y-0.785 E1.50516
G1 X-5.035 Y-0.952 E1.51440
G1 X-5.376 Y-1.255 E1.52766
G1 X-5.697 Y-1.660 E1.54271
G1 X-5.629 Y-1.880 E1.54941
G1 X-5.134 Y-2.030 E1.56446
G1 X-4.681 Y-2.085 E1.57772
G1 X-4.364 Y-2.069 E1.58696
G1 X-4.189 Y-2.030 E1.59219
G1 X-3.393 Y-1.612 E1.61835
G1 X-2.642 Y-2.671 E1.65614
G1 X-3.269 Y-3.249 E1.68097
G1 X-3.394 Y-3.436 E1.68753
G1 X-3.514 Y-3.730 E1.69676
G1 X-3.611 Y-4.175 E1.71003
G1 X-3.633 Y-4.692 E1.72508
G1 X-3.449 Y-4.829 E1.73177
G1 X-2.960 Y-4.660 E1.74682
G1 X-2.561 Y-4.438 E1.76009
G1 X-2.315 Y-4.239 E1.76932
G1 X-2.196 Y-4.104 E1.77456
G1 X-1.798 Y-3.298 E1.80071
G1 X-0.568 Y-3.713 E1.83850
G1 X-0.739 Y-4.596 E1.86466
G1 X-0.726 Y-4.775 E1.86989
G1 X-0.651 Y-5.083 E1.87913
G1 X-0.468 Y-5.500 E1.89239
G1 X-0.182 Y-5.931 E1.90744
G1 X0.049 Y-5.934 E1.91414
G1 X0.344 Y-5.510 E1.92919
G1 X0.537 Y-5.096 E1.94246
G1 X0.619 Y-4.790 E1.95169
G1 X0.633 Y-4.565 E1.95824
G1 X0.484 Y-3.725 E1.98308
G1 X1.724 Y-3.338 E2.02087
G1 X2.079 Y-4.113 E2.04570
G1 X2.219 Y-4.290 E2.05225
G1 X2.461 Y-4.495 E2.06149
G1 X2.855 Y-4.725 E2.07475
G1 X3.340 Y-4.905 E2.08980
G1 X3.527 Y-4.772 E2.09650
G1 X3.517 Y-4.255 E2.11155
G1 X3.430 Y-3.808 E2.12481
G1 X3.317 Y-3.511 E2.13405
G1 X3.225 Y-3.356 E2.13928
G1 X2.581 Y-2.729 E2.16544
G1 X3.356 Y-1.687 E2.20323
G1 X4.100 Y-2.106 E2.22806
G1 X4.317 Y-2.166 E2.23462
G1 X4.633 Y-2.190 E2.24385
G1 X5.087 Y-2.144 E2.25712
G1 X5.585 Y-2.006 E2.27217
G1 X5.659 Y-1.788 E2.27886
G1 X5.346 Y-1.375 E2.29391
G1 X5.013 Y-1.065 E2.30718
G1 X4.747 Y-0.891 E2.31641
G1 X4.582 Y-0.820 E2.32165
G1 X3.692 Y-0.691 E2.34780
G1 X3.707 Y0.608 E2.38559
G1 X4.555 Y0.706 E2.41042
G1 X4.766 Y0.785 E2.41698
G1 X5.035 Y0.952 E2.42621
G1 X5.376 Y1.255 E2.43948
G1 X5.697 Y1.660 E2.45453
G1 X5.629 Y1.880 E2.46122
G1 X5.134 Y2.030 E2.47628
G1 X4.681 Y2.085 E2.48954
G1 X4.364 Y2.069 E2.49877
G1 X4.189 Y2.030 E2.50401
G1 X3.393 Y1.612 E2.53017
G1 X2.642 Y2.671 E2.56796
G1 X3.299 Y3.283 E2.59411
G1 X3.394 Y3.436 E2.59935
G1 X3.514 Y3.730 E2.60858
G1 X3.611 Y4.175 E2.62185
G1 X3.633 Y4.692 E2.63690
G1 X3.449 Y4.829 E2.64359
G1 X2.960 Y4.660 E2.65864
G1 X2.561 Y4.438 E2.67191
G1 X2.315 Y4.239 E2.68114
G1 X2.171 Y4.066 E2.68770
G1 X1.798 Y3.298 E2.71253
G1 X0.568 Y3.713 E2.75032
G1 X0.736 Y4.550 E2.77515
G1 X0.726 Y4.775 E2.78171
G1 X0.651 Y5.083 E2.79094
G1 X0.468 Y5.500 E2.80421
G1 X0.181 Y5.931 E2.81926
G1 X-0.049 Y5.934 E2.82595
G1 X-0.344 Y5.510 E2.84100
G1 X-0.537 Y5.096 E2.85427
G1 X-0.619 Y4.790 E2.86350
G1 X-0.636 Y4.618 E2.86854
G1 F600.000 E2.16854
G1 Z0.400 F18000.000
G92 E0
G1 X3.214 Y-4.529 F18000.000
;AAA selfz = 0.4, lifted = .2
G1 Z0.200 F18000.000
G1 E0.70000 F600.000
G1 X3.092 Y-3.904 E0.71853 F2509.644
G1 X3.000 Y-3.664 E0.72602
G1 X2.938 Y-3.558 E0.72958
G1 X2.117 Y-2.767 E0.76276
G1 X3.259 Y-1.231 E0.81849
G1 X4.253 Y-1.790 E0.85167
G1 X4.372 Y-1.820 E0.85523
G1 X4.629 Y-1.838 E0.86272
G1 X5.262 Y-1.775 E0.88125
G1 X4.796 Y-1.341 E0.89978
G1 X4.581 Y-1.201 E0.90727
G1 X4.468 Y-1.152 E0.91083
G1 X3.339 Y-0.995 E0.94401
G1 X3.360 Y0.920 E0.99974
G1 X4.493 Y1.052 E1.03292
G1 X4.606 Y1.098 E1.03648
G1 X4.825 Y1.233 E1.04397
G1 X5.301 Y1.657 E1.06250
G1 X4.669 Y1.734 E1.08103
G1 X4.412 Y1.721 E1.08852
G1 X4.292 Y1.694 E1.09208
G1 X3.286 Y1.158 E1.12527
G1 X2.178 Y2.719 E1.18099
G1 X3.017 Y3.492 E1.21417
G1 X3.081 Y3.596 E1.21774
G1 X3.179 Y3.834 E1.22522
G1 X3.314 Y4.456 E1.24375
G1 X2.758 Y4.147 E1.26228
G1 X2.557 Y3.985 E1.26977
G1 X2.476 Y3.894 E1.27333
G1 X1.978 Y2.868 E1.30652
G1 X0.164 Y3.480 E1.36224
G1 X0.388 Y4.598 E1.39542
G1 X0.379 Y4.720 E1.39899
G1 X0.318 Y4.970 E1.40648
G1 X0.062 Y5.553 E1.42500
G1 X-0.207 Y4.976 E1.44353
G1 X-0.274 Y4.728 E1.45102
G1 X-0.285 Y4.606 E1.45458
G1 X-0.086 Y3.483 E1.48777
G1 X-1.913 Y2.912 E1.54349
G1 X-2.389 Y3.948 E1.57667
G1 X-2.467 Y4.042 E1.58024
G1 X-2.664 Y4.208 E1.58773
G1 X-3.214 Y4.529 E1.60626
G1 X-3.092 Y3.904 E1.62478
G1 X-3.000 Y3.664 E1.63227
G1 X-2.938 Y3.558 E1.63584
G1 X-2.117 Y2.767 E1.66902
G1 X-3.259 Y1.231 E1.72474
G1 X-4.253 Y1.790 E1.75793
G1 X-4.372 Y1.820 E1.76149
G1 X-4.629 Y1.838 E1.76898
G1 X-5.262 Y1.775 E1.78751
G1 X-4.796 Y1.341 E1.80604
G1 X-4.581 Y1.201 E1.81352
G1 X-4.468 Y1.152 E1.81709
G1 X-3.339 Y0.995 E1.85027
G1 X-3.360 Y-0.920 E1.90599
G1 X-4.493 Y-1.052 E1.93918
G1 X-4.606 Y-1.098 E1.94274
G1 X-4.825 Y-1.233 E1.95023
G1 X-5.301 Y-1.657 E1.96876
G1 X-4.669 Y-1.734 E1.98729
G1 X-4.412 Y-1.721 E1.99477
G1 X-4.292 Y-1.694 E1.99834
