; generated by Slic3r 0.9.11-dev on 2013-09-21 at 15:21:55

; layer_height = 0.2
; perimeters = 3
; top_solid_layers = 3
; bottom_solid_layers = 0
; fill_density = 0.12
; perimeter_speed = 60
; infill_speed = 85
; travel_speed = 300
; nozzle_diameter = 0.35
; filament_diameter = 1.75
; extrusion_multiplier = 1
; perimeters extrusion width = 0.35mm
; infill extrusion width = 0.52mm
; solid infill extrusion width = 0.52mm
; top infill extrusion width = 0.52mm

G21 ; set units to millimeters
M107
G28
G92 X0 Y0 Z0 E0
G1 F5000 Y30 X30
G1 X220
G1 F100 E10
G28
G92 X0 Y0 Z0
G1 F4000 X101 Y127
G92 X0 Y0 Z0 E0
M106 S255
G90 ; use absolute coordinates
G92 E0
M82 ; use absolute distances for extrusion
G1 F600.000 E-0.70000
G1 Z0.400 F18000.000
G92 E0
G1 X0.448 Y-1.590 F18000.000
;AAA selfz = 0.4, lifted = .2
G1 Z0.200 F18000.000
G1 E0.70000 F600.000
G1 X0.198 Y-1.800 E0.70950 F600.000
G1 X0.228 Y-2.120 E0.71886
G1 X0.518 Y-2.280 E0.72849
G1 X0.568 Y-2.280 E0.72995
G1 X0.648 Y-2.260 E0.73235
G1 X0.898 Y-2.020 E0.74244
G1 X0.828 Y-1.680 E0.75254
G1 X0.500 Y-1.580 E0.76253
G1 X0.730 Y-0.553 F18000.000
G1 X0.474 Y-0.528 E0.77004 F600.000
G1 X0.366 Y-0.536 E0.77317
G1 X0.167 Y-0.575 E0.77909
G1 X-0.076 Y-0.677 E0.78675
G1 X-0.591 Y-1.092 E0.80601
G1 X-0.717 Y-1.263 E0.81219
G1 X-0.830 Y-1.539 E0.82087
G1 X-0.861 Y-1.749 E0.82705
G1 X-0.803 Y-2.368 E0.84512
G1 X-0.732 Y-2.570 E0.85135
G1 X-0.568 Y-2.821 E0.86010
G1 X-0.344 Y-3.042 E0.86925
G1 X0.301 Y-3.429 E0.89115
G1 X0.719 Y-3.330 E0.90364
G1 X1.106 Y-3.330 E0.91489
G1 X1.651 Y-2.784 E0.93735
G1 X1.674 Y-2.730 E0.93905
G1 X1.738 Y-2.669 E0.94162
G1 X1.855 Y-2.481 E0.94808
G1 X1.947 Y-2.183 E0.95716
G1 X1.958 Y-1.961 E0.96361
G1 X1.823 Y-1.305 E0.98310
G1 X1.716 Y-1.095 E0.98997
G1 X1.492 Y-0.849 E0.99965
G1 X1.292 Y-0.723 E1.00652
G1 X0.781 Y-0.568 E1.02207
G1 X0.650 Y-0.894 F18000.000
G1 X0.478 Y-0.878 E1.02708 F600.000
G1 X0.257 Y-0.914 E1.03360
G1 X0.040 Y-1.019 E1.04060
G1 X-0.334 Y-1.333 E1.05481
G1 X-0.409 Y-1.435 E1.05852
G1 X-0.490 Y-1.633 E1.06473
G1 X-0.509 Y-1.759 E1.06844
G1 X-0.459 Y-2.292 E1.08403
G1 X-0.416 Y-2.414 E1.08777
G1 X-0.298 Y-2.594 E1.09403
G1 X-0.204 Y-2.681 E1.09777
G1 X-0.099 Y-2.739 E1.10128
G1 X-0.039 Y-2.816 E1.10412
G1 X0.357 Y-3.054 E1.11757
G1 X0.676 Y-2.980 E1.12709
G1 X0.961 Y-2.980 E1.13538
G1 X1.298 Y-2.642 E1.14927
G1 X1.324 Y-2.581 E1.15120
G1 X1.464 Y-2.448 E1.15682
G1 X1.533 Y-2.334 E1.16070
G1 X1.600 Y-2.121 E1.16719
G1 X1.606 Y-1.988 E1.17107
G1 X1.490 Y-1.422 E1.18788
G1 X1.425 Y-1.296 E1.19201
G1 X1.265 Y-1.120 E1.19894
G1 X1.145 Y-1.045 E1.20306
G1 X0.700 Y-0.910 E1.21660
G1 X0.569 Y-1.236 F18000.000
G1 X0.461 Y-1.230 E1.21973 F600.000
G1 X0.347 Y-1.253 E1.22312
G1 X0.248 Y-1.301 E1.22631
G1 X-0.076 Y-1.573 E1.23864
G1 X-0.156 Y-1.769 E1.24479
G1 X-0.100 Y-2.258 E1.25911
G1 X0.002 Y-2.395 E1.26410
G1 X0.204 Y-2.506 E1.27080
G1 X0.272 Y-2.595 E1.27406
G1 X0.413 Y-2.680 E1.27884
G1 X0.633 Y-2.630 E1.28540
G1 X0.816 Y-2.630 E1.29072
G1 X0.945 Y-2.501 E1.29604
G1 X0.974 Y-2.432 E1.29821
G1 X1.189 Y-2.226 E1.30688
G1 X1.252 Y-2.060 E1.31205
G1 X1.135 Y-1.497 E1.32878
G1 X0.998 Y-1.366 E1.33429
G1 X0.619 Y-1.251 E1.34583
M106 S255
G1 F600.000 E0.64583
G1 Z0.600 F18000.000
G92 E0
G1 Z0.800 F18000.000
G1 Z1.000 F18000.000
G1 Z1.200 F18000.000
G1 Z1.400 F18000.000
G1 Z1.600 F18000.000
G1 Z1.800 F18000.000
G1 Z2.000 F18000.000
G1 Z2.200 F18000.000
G1 Z2.400 F18000.000
G1 Z2.600 F18000.000
G1 Z2.800 F18000.000
G1 Z3.000 F18000.000
G1 Z3.200 F18000.000
G1 Z3.400 F18000.000
G1 Z3.600 F18000.000
G1 Z3.800 F18000.000
G1 Z4.000 F18000.000
G1 Z4.200 F18000.000
G1 Z4.400 F18000.000
G1 Z4.600 F18000.000
G1 Z4.800 F18000.000
G1 Z5.000 F18000.000
G1 Z5.200 F18000.000
G1 Z5.400 F18000.000
G1 Z5.600 F18000.000
G1 Z5.800 F18000.000
G1 Z6.000 F18000.000
G1 Z6.200 F18000.000
G1 Z6.400 F18000.000
G1 Z6.600 F18000.000
G1 Z6.800 F18000.000
G1 Z7.000 F18000.000
G1 Z7.200 F18000.000
G1 Z7.400 F18000.000
G1 Z7.600 F18000.000
G1 Z7.800 F18000.000
G1 Z8.000 F18000.000
G1 Z8.200 F18000.000
G1 Z8.400 F18000.000
G1 Z8.600 F18000.000
G1 Z8.800 F18000.000
G1 Z9.000 F18000.000
G1 Z9.200 F18000.000
G1 Z9.400 F18000.000
G1 Z9.600 F18000.000
G1 Z9.800 F18000.000
G1 Z10.000 F18000.000
M107
M104 S0 ; turn off temperature
M140 S0 ; turn of HBP
M84     ; disable motors
; filament used = -0.1mm (-0.0cm3)
