; generated by Slic3r 0.9.11-dev on 2013-09-20 at 22:18:25

; layer_height = 0.3
; perimeters = 2
; top_solid_layers = 0
; bottom_solid_layers = 2
; fill_density = .12
; perimeter_speed = 60
; infill_speed = 80
; travel_speed = 300
; nozzle_diameter = 0.35
; filament_diameter = 1.75
; extrusion_multiplier = 1
; perimeters extrusion width = 0.35mm
; infill extrusion width = 0.37mm
; solid infill extrusion width = 0.37mm
; top infill extrusion width = 0.37mm

G21 ; set units to millimeters
M107
G28
G92 X0 Y0 Z0 E0
G1 F5000 Y30 X30
G1 X220
G1 F100 E10
G28
G92 X0 Y0 Z0
G1 F4000 X101 Y127
G92 X0 Y0 Z0 E0
M106 S255
G90 ; use absolute coordinates
G92 E0
M82 ; use absolute distances for extrusion
G1 F600.000 E-0.70000
G1 Z0.400 F18000.000
G92 E0
G1 X1.212 Y12.392 F18000.000
;AAA selfz = 0.4, lifted = .2
G1 Z0.200 F18000.000
G1 E0.70000 F600.000
G1 X0.012 Y12.452 E0.73497 F2880.000
G1 X-1.248 Y12.392 E0.77168
G1 X-2.428 Y12.222 E0.80637
G1 X-3.658 Y11.912 E0.84329
G1 X-4.818 Y11.502 E0.87909
G1 X-5.898 Y10.982 E0.91398
G1 X-6.948 Y10.352 E0.94962
G1 X-7.938 Y9.622 E0.98541
G1 X-8.848 Y8.802 E1.02106
G1 X-9.697 Y7.862 E1.05794
G1 X-10.407 Y6.902 E1.09269
G1 X-11.067 Y5.812 E1.12978
G1 X-11.578 Y4.732 E1.16454
G1 X-11.988 Y3.582 E1.20007
G1 X-12.297 Y2.352 E1.23698
G1 X-12.477 Y1.172 E1.27172
G1 X-12.537 Y-0.058 E1.30756
G1 X-12.477 Y-1.318 E1.34427
G1 X-12.297 Y-2.498 E1.37901
G1 X-11.988 Y-3.728 E1.41593
G1 X-11.578 Y-4.888 E1.45173
G1 X-11.067 Y-5.968 E1.48649
G1 X-10.407 Y-7.048 E1.52333
G1 X-9.697 Y-8.008 E1.55807
G1 X-8.878 Y-8.918 E1.59372
G1 X-7.938 Y-9.768 E1.63061
G1 X-6.978 Y-10.478 E1.66536
G1 X-5.898 Y-11.138 E1.70219
G1 X-4.818 Y-11.648 E1.73695
G1 X-3.658 Y-12.058 E1.77276
G1 X-2.428 Y-12.368 E1.80967
G1 X-1.197 Y-12.548 E1.84585
G1 X-0.027 Y-12.598 E1.87993
G1 X1.242 Y-12.548 E1.91692
G1 X2.422 Y-12.368 E1.95166
G1 X3.652 Y-12.058 E1.98857
G1 X4.803 Y-11.648 E2.02410
G1 X5.882 Y-11.138 E2.05886
G1 X6.972 Y-10.478 E2.09595
G1 X7.963 Y-9.748 E2.13174
G1 X8.842 Y-8.948 E2.16636
G1 X9.672 Y-8.038 E2.20220
G1 X10.402 Y-7.048 E2.23800
G1 X11.053 Y-5.968 E2.27468
G1 X11.562 Y-4.888 E2.30944
G1 X11.982 Y-3.728 E2.34534
G1 X12.292 Y-2.498 E2.38226
G1 X12.463 Y-1.318 E2.41696
G1 X12.522 Y-0.098 E2.45250
G1 X12.463 Y1.172 E2.48951
G1 X12.292 Y2.352 E2.52420
G1 X11.982 Y3.582 E2.56112
G1 X11.562 Y4.732 E2.59675
G1 X11.053 Y5.812 E2.63151
G1 X10.422 Y6.872 E2.66739
G1 X9.672 Y7.892 E2.70424
G1 X8.862 Y8.782 E2.73926
G1 X7.963 Y9.602 E2.77469
G1 X6.943 Y10.352 E2.81154
G1 X5.882 Y10.982 E2.84743
G1 X4.803 Y11.502 E2.88231
G1 X3.652 Y11.912 E2.91784
G1 X2.422 Y12.222 E2.95476
G1 X1.265 Y12.389 E2.98880
G1 X1.371 Y13.434 F18000.000
G1 X0.020 Y13.502 E3.02815 F2880.000
G1 X-1.344 Y13.438 E3.06790
G1 X-2.643 Y13.250 E3.10608
G1 X-3.946 Y12.921 E3.14521
G1 X-5.230 Y12.468 E3.18483
G1 X-6.399 Y11.905 E3.22260
G1 X-7.566 Y11.201 E3.26225
G1 X-8.606 Y10.432 E3.29988
G1 X-9.584 Y9.550 E3.33822
G1 X-10.508 Y8.530 E3.37827
G1 X-11.277 Y7.491 E3.41590
G1 X-11.993 Y6.309 E3.45610
G1 X-12.545 Y5.140 E3.49374
G1 X-12.997 Y3.872 E3.53291
G1 X-13.324 Y2.573 E3.57191
G1 X-13.526 Y1.228 E3.61147
G1 X-13.588 Y-0.106 E3.65033
G1 X-13.523 Y-1.421 E3.68864
G1 X-13.324 Y-2.719 E3.72686
G1 X-12.989 Y-4.045 E3.76667
G1 X-12.545 Y-5.296 E3.80530
G1 X-11.993 Y-6.465 E3.84294
G1 X-11.277 Y-7.637 E3.88289
G1 X-10.478 Y-8.711 E3.92184
G1 X-9.584 Y-9.696 E3.96057
G1 X-8.606 Y-10.579 E3.99892
G1 X-7.566 Y-11.348 E4.03655
G1 X-6.366 Y-12.078 E4.07743
G1 X-5.225 Y-12.616 E4.11413
G1 X-3.926 Y-13.073 E4.15421
G1 X-2.606 Y-13.403 E4.19381
G1 X-1.328 Y-13.590 E4.23142
G1 X-0.603 Y-13.624 E4.25253
G1 X-0.493 Y-13.670 E4.25600
G1 X0.575 Y-13.648 E4.28709
G1 X0.633 Y-13.623 E4.28893
G1 X1.378 Y-13.590 E4.31063
G1 X2.643 Y-13.395 E4.34789
G1 X3.992 Y-13.052 E4.38838
G1 X5.210 Y-12.616 E4.42605
G1 X6.380 Y-12.063 E4.46369
G1 X7.561 Y-11.348 E4.50389
G1 X8.652 Y-10.540 E4.54338
G1 X9.610 Y-9.665 E4.58114
G1 X10.486 Y-8.703 E4.61902
G1 X11.272 Y-7.637 E4.65756
G1 X11.978 Y-6.465 E4.69736
G1 X12.530 Y-5.296 E4.73500
G1 X12.991 Y-4.020 E4.77449
G1 X13.321 Y-2.713 E4.81370
G1 X13.511 Y-1.371 E4.85315
G1 X13.572 Y-0.050 E4.89163
G1 X13.508 Y1.269 E4.93007
G1 X13.321 Y2.567 E4.96825
G1 X12.991 Y3.875 E5.00749
G1 X12.530 Y5.140 E5.04668
G1 X11.978 Y6.309 E5.08432
G1 X11.301 Y7.448 E5.12286
G1 X10.486 Y8.556 E5.16291
G1 X9.610 Y9.519 E5.20079
G1 X8.627 Y10.415 E5.23951
G1 X7.518 Y11.230 E5.27954
G1 X6.384 Y11.905 E5.31794
G1 X5.215 Y12.468 E5.35570
G1 X3.971 Y12.912 E5.39415
G1 X2.638 Y13.250 E5.43418
G1 X1.423 Y13.427 E5.46992
G1 X1.327 Y13.087 F18000.000
G1 X0.018 Y13.152 E5.50806 F2880.000
G1 X-1.313 Y13.089 E5.54684
G1 X-2.570 Y12.908 E5.58379
G1 X-3.849 Y12.585 E5.62220
G1 X-5.093 Y12.145 E5.66060
G1 X-6.231 Y11.597 E5.69734
G1 X-7.370 Y10.911 E5.73605
G1 X-8.382 Y10.163 E5.77267
G1 X-9.338 Y9.301 E5.81014
G1 X-10.238 Y8.306 E5.84918
G1 X-10.987 Y7.295 E5.88581
G1 X-11.685 Y6.142 E5.92501
G1 X-12.222 Y5.005 E5.96163
G1 X-12.654 Y3.795 E5.99901
G1 X-12.982 Y2.498 E6.03795
G1 X-13.174 Y1.241 E6.07494
G1 X-13.238 Y-0.053 E6.11265
G1 X-13.174 Y-1.388 E6.15154
G1 X-12.982 Y-2.644 E6.18853
G1 X-12.655 Y-3.940 E6.22743
G1 X-12.222 Y-5.161 E6.26512
G1 X-11.685 Y-6.299 E6.30175
G1 X-10.987 Y-7.441 E6.34070
G1 X-10.238 Y-8.453 E6.37733
G1 X-9.377 Y-9.409 E6.41480
G1 X-8.382 Y-10.309 E6.45383
G1 X-7.370 Y-11.058 E6.49046
G1 X-6.228 Y-11.755 E6.52941
G1 X-5.090 Y-12.293 E6.56604
G1 X-3.849 Y-12.731 E6.60434
G1 X-2.571 Y-13.054 E6.64271
G1 X-1.264 Y-13.245 E6.68114
G1 X-0.460 Y-13.280 E6.70456
G1 X-0.377 Y-13.315 E6.70720
G1 X0.438 Y-13.298 E6.73090
G1 X0.482 Y-13.279 E6.73231
G1 X1.312 Y-13.245 E6.75648
G1 X2.568 Y-13.053 E6.79347
G1 X3.866 Y-12.725 E6.83241
G1 X5.075 Y-12.293 E6.86979
G1 X6.213 Y-11.755 E6.90642
G1 X7.365 Y-11.058 E6.94562
G1 X8.406 Y-10.290 E6.98326
G1 X9.334 Y-9.447 E7.01974
G1 X10.214 Y-8.482 E7.05775
G1 X10.982 Y-7.441 E7.09540
G1 X11.670 Y-6.299 E7.13420
G1 X12.207 Y-5.161 E7.17082
G1 X12.655 Y-3.922 E7.20916
G1 X12.978 Y-2.640 E7.24763
G1 X13.160 Y-1.384 E7.28457
G1 X13.222 Y-0.104 E7.32187
G1 X13.160 Y1.238 E7.36095
G1 X12.978 Y2.494 E7.39790
G1 X12.655 Y3.776 E7.43638
G1 X12.207 Y5.005 E7.47443
G1 X11.670 Y6.142 E7.51105
G1 X11.008 Y7.255 E7.54873
G1 X10.214 Y8.336 E7.58775
G1 X9.334 Y9.301 E7.62576
G1 X8.406 Y10.144 E7.66224
G1 X7.326 Y10.938 E7.70126
G1 X6.216 Y11.597 E7.73883
G1 X5.078 Y12.145 E7.77558
G1 X3.866 Y12.579 E7.81306
G1 X2.565 Y12.908 E7.85212
G1 X1.379 Y13.079 E7.88699
G1 X1.283 Y12.740 F18000.000
G1 X0.016 Y12.802 E7.92392 F2880.000
G1 X-1.282 Y12.740 E7.96172
G1 X-2.497 Y12.565 E7.99744
G1 X-3.764 Y12.245 E8.03550
G1 X-4.957 Y11.823 E8.07231
G1 X-6.063 Y11.290 E8.10804
G1 X-7.139 Y10.645 E8.14455
G1 X-8.159 Y9.893 E8.18142
G1 X-9.093 Y9.052 E8.21800
G1 X-9.969 Y8.083 E8.25603
G1 X-10.697 Y7.099 E8.29165
G1 X-11.377 Y5.976 E8.32986
G1 X-11.899 Y4.869 E8.36547
G1 X-12.321 Y3.689 E8.40193
G1 X-12.640 Y2.423 E8.43994
G1 X-12.826 Y1.208 E8.47570
G1 X-12.887 Y-0.055 E8.51251
G1 X-12.826 Y-1.354 E8.55037
G1 X-12.640 Y-2.569 E8.58614
G1 X-12.321 Y-3.835 E8.62413
G1 X-11.899 Y-5.026 E8.66089
G1 X-11.377 Y-6.132 E8.69649
G1 X-10.697 Y-7.245 E8.73445
G1 X-9.969 Y-8.229 E8.77007
G1 X-9.127 Y-9.163 E8.80666
G1 X-8.159 Y-10.040 E8.84469
G1 X-7.174 Y-10.768 E8.88031
G1 X-6.061 Y-11.448 E8.91827
G1 X-4.955 Y-11.970 E8.95388
G1 X-3.752 Y-12.395 E8.99100
G1 X-2.497 Y-12.711 E9.02867
G1 X-1.232 Y-12.897 E9.06587
G1 X-0.317 Y-12.936 E9.09253
G1 X-0.260 Y-12.959 E9.09432
G1 X1.279 Y-12.896 E9.13915
G1 X2.494 Y-12.711 E9.17492
G1 X3.760 Y-12.391 E9.21293
G1 X4.940 Y-11.970 E9.24939
G1 X6.046 Y-11.448 E9.28500
G1 X7.169 Y-10.768 E9.32320
G1 X8.186 Y-10.018 E9.35996
G1 X9.112 Y-9.173 E9.39644
G1 X9.942 Y-8.261 E9.43233
G1 X10.692 Y-7.245 E9.46909
G1 X11.362 Y-6.132 E9.50690
G1 X11.884 Y-5.026 E9.54250
G1 X12.319 Y-3.824 E9.57970
G1 X12.636 Y-2.567 E9.61741
G1 X12.811 Y-1.353 E9.65313
G1 X12.873 Y-0.101 E9.68958
G1 X12.811 Y1.206 E9.72768
G1 X12.636 Y2.421 E9.76340
G1 X12.319 Y3.678 E9.80112
G1 X11.884 Y4.869 E9.83803
G1 X11.362 Y5.976 E9.87364
G1 X10.716 Y7.063 E9.91045
G1 X9.942 Y8.115 E9.94845
G1 X9.112 Y9.027 E9.98434
G1 X8.186 Y9.872 E10.02083
G1 X7.134 Y10.645 E10.05882
G1 X6.048 Y11.290 E10.09558
G1 X4.942 Y11.823 E10.13131
G1 X3.760 Y12.245 E10.16783
G1 X2.492 Y12.565 E10.20590
G1 X1.335 Y12.732 E10.23991
G1 X1.177 Y11.876 F18000.000
G1 X0.000 Y11.934 E10.27419 F2880.000
G1 X-1.177 Y11.876 E10.30847
G1 X-2.342 Y11.703 E10.34275
G1 X-3.484 Y11.417 E10.37704
G1 X-4.593 Y11.020 E10.41132
G1 X-5.658 Y10.516 E10.44560
G1 X-6.669 Y9.911 E10.47988
G1 X-7.615 Y9.209 E10.51416
G1 X-8.488 Y8.418 E10.54844
G1 X-9.279 Y7.545 E10.58272
G1 X-9.980 Y6.599 E10.61700
G1 X-10.586 Y5.589 E10.65128
G1 X-11.090 Y4.524 E10.68557
G1 X-11.486 Y3.415 E10.71985
G1 X-11.773 Y2.272 E10.75413
G1 X-11.945 Y1.107 E10.78841
G1 X-12.003 Y-0.069 E10.82269
G1 X-11.945 Y-1.246 E10.85697
G1 X-11.773 Y-2.411 E10.89125
G1 X-11.486 Y-3.554 E10.92553
G1 X-11.090 Y-4.663 E10.95981
G1 X-10.586 Y-5.728 E10.99409
G1 X-9.980 Y-6.738 E11.02837
G1 X-9.279 Y-7.684 E11.06266
G1 X-8.488 Y-8.557 E11.09694
G1 X-7.615 Y-9.348 E11.13122
G1 X-6.669 Y-10.050 E11.16550
G1 X-5.658 Y-10.655 E11.19978
G1 X-4.593 Y-11.159 E11.23406
G1 X-3.484 Y-11.556 E11.26834
G1 X-2.342 Y-11.842 E11.30262
G1 X-1.177 Y-12.015 E11.33690
G1 X0.000 Y-12.073 E11.37119
G1 X1.177 Y-12.015 E11.40547
G1 X2.342 Y-11.842 E11.43975
G1 X3.484 Y-11.556 E11.47403
G1 X4.593 Y-11.159 E11.50831
G1 X5.658 Y-10.655 E11.54259
G1 X6.669 Y-10.050 E11.57687
G1 X7.615 Y-9.348 E11.61115
G1 X8.488 Y-8.557 E11.64543
G1 X9.279 Y-7.684 E11.67971
G1 X9.980 Y-6.738 E11.71400
G1 X10.586 Y-5.728 E11.74828
G1 X11.090 Y-4.663 E11.78256
G1 X11.486 Y-3.554 E11.81684
G1 X11.773 Y-2.411 E11.85112
G1 X11.945 Y-1.246 E11.88540
G1 X12.003 Y-0.069 E11.91968
G1 X11.945 Y1.107 E11.95396
G1 X11.773 Y2.272 E11.98824
G1 X11.486 Y3.415 E12.02252
G1 X11.090 Y4.524 E12.05681
G1 X10.586 Y5.589 E12.09109
G1 X9.980 Y6.599 E12.12537
G1 X9.279 Y7.545 E12.15965
G1 X8.488 Y8.418 E12.19393
G1 X7.615 Y9.209 E12.22821
G1 X6.669 Y9.911 E12.26249
G1 X5.658 Y10.516 E12.29677
G1 X4.593 Y11.020 E12.33105
G1 X3.484 Y11.417 E12.36533
G1 X2.342 Y11.703 E12.39962
G1 X1.228 Y11.868 E12.43237
G1 X0.977 Y11.588 F18000.000
G1 F600.000 E11.73237
G1 Z0.400 F18000.000
G92 E0
G1 X11.151 Y-3.452 F18000.000
;AAA selfz = 0.4, lifted = .2
G1 Z0.200 F18000.000
G1 E0.70000 F600.000
G1 X11.429 Y-2.343 E0.73328 F2880.000
G1 X11.597 Y-1.212 E0.76656
G1 X11.653 Y-0.069 E0.79984
G1 X11.597 Y1.073 E0.83312
G1 X11.429 Y2.204 E0.86640
G1 X11.151 Y3.313 E0.89968
G1 X10.766 Y4.390 E0.93296
G1 X10.277 Y5.424 E0.96624
G1 X9.689 Y6.405 E0.99952
G1 X9.008 Y7.323 E1.03280
G1 X8.240 Y8.170 E1.06608
G1 X7.392 Y8.938 E1.09936
G1 X6.474 Y9.620 E1.13264
G1 X5.493 Y10.207 E1.16592
G1 X4.459 Y10.696 E1.19920
G1 X3.383 Y11.082 E1.23248
G1 X2.273 Y11.360 E1.26576
G1 X1.142 Y11.527 E1.29904
G1 X0.000 Y11.583 E1.33232
G1 X-1.142 Y11.527 E1.36560
G1 X-2.273 Y11.360 E1.39888
G1 X-3.383 Y11.082 E1.43216
G1 X-4.459 Y10.696 E1.46545
G1 X-5.493 Y10.207 E1.49873
G1 X-6.474 Y9.620 E1.53201
G1 X-7.392 Y8.938 E1.56529
G1 X-8.240 Y8.170 E1.59857
G1 X-9.008 Y7.323 E1.63185
G1 X-9.689 Y6.405 E1.66513
G1 X-10.277 Y5.424 E1.69841
G1 X-10.766 Y4.390 E1.73169
G1 X-11.151 Y3.313 E1.76497
G1 X-11.429 Y2.204 E1.79825
G1 X-11.597 Y1.073 E1.83153
G1 X-11.653 Y-0.069 E1.86481
G1 X-11.597 Y-1.212 E1.89809
G1 X-11.429 Y-2.343 E1.93137
G1 X-11.151 Y-3.452 E1.96465
G1 X-10.766 Y-4.529 E1.99793
G1 X-10.277 Y-5.562 E2.03121
G1 X-9.689 Y-6.543 E2.06449
G1 X-9.008 Y-7.462 E2.09777
G1 X-8.240 Y-8.309 E2.13105
G1 X-7.392 Y-9.077 E2.16433
G1 X-6.474 Y-9.758 E2.19761
G1 X-5.493 Y-10.346 E2.23089
G1 X-4.459 Y-10.835 E2.26417
G1 X-3.383 Y-11.220 E2.29745
G1 X-2.273 Y-11.498 E2.33073
G1 X-1.142 Y-11.666 E2.36401
G1 X0.000 Y-11.722 E2.39729
G1 X1.142 Y-11.666 E2.43057
G1 X2.273 Y-11.498 E2.46385
G1 X3.383 Y-11.220 E2.49713
G1 X4.459 Y-10.835 E2.53041
G1 X5.493 Y-10.346 E2.56369
G1 X6.474 Y-9.758 E2.59697
G1 X7.392 Y-9.077 E2.63025
G1 X8.240 Y-8.309 E2.66353
G1 X9.008 Y-7.462 E2.69681
G1 X9.689 Y-6.543 E2.73009
G1 X10.277 Y-5.562 E2.76337
G1 X10.766 Y-4.529 E2.79665
G1 X11.133 Y-3.501 E2.82841
G1 X10.744 Y-3.882 F18000.000
G1 X3.812 Y-10.813 E3.12804 F3840.000
G1 X3.047 Y-11.058 E3.15259
G1 X10.989 Y-3.117 E3.49589
G1 X11.163 Y-2.423 E3.51775
G1 X2.354 Y-11.232 E3.89856
G1 X1.728 Y-11.338 E3.91795
G1 X11.269 Y-1.797 E4.33037
G1 X11.359 Y-1.187 E4.34922
G1 X1.118 Y-11.428 E4.79192
G1 X0.571 Y-11.455 E4.80865
G1 X11.386 Y-0.640 E5.27615
G1 X11.413 Y-0.094 E5.29289
G1 X0.024 Y-11.482 E5.78519
G1 X-0.473 Y-11.460 E5.80042
G1 X11.391 Y0.404 E6.31328
G1 X11.366 Y0.900 E6.32844
G1 X-0.969 Y-11.436 E6.86166
G1 X-1.433 Y-11.380 E6.87594
G1 X11.312 Y1.365 E7.42688
G1 X11.245 Y1.818 E7.44087
G1 X-1.887 Y-11.314 E8.00851
G1 X-2.331 Y-11.238 E8.02229
G1 X11.169 Y2.262 E8.60584
G1 X11.065 Y2.677 E8.61894
G1 X-2.747 Y-11.134 E9.21595
G1 X-3.162 Y-11.030 E9.22905
G1 X10.960 Y3.093 E9.83954
G1 X10.835 Y3.488 E9.85219
G1 X-3.557 Y-10.905 E10.47434
G1 X-3.940 Y-10.768 E10.48677
G1 X10.698 Y3.871 E11.11954
G1 X10.561 Y4.254 E11.13197
G1 X-4.323 Y-10.631 E11.77538
G1 X-4.679 Y-10.467 E11.78737
G1 X10.398 Y4.610 E12.43912
G1 X10.231 Y4.963 E12.45105
G1 X-5.032 Y-10.300 E13.11084
G1 X-5.385 Y-10.133 E13.12277
G1 X10.064 Y5.315 E13.79056
G1 X9.869 Y5.641 E13.80215
G1 X-5.710 Y-9.938 E14.47557
G1 X-6.035 Y-9.743 E14.48716
G1 X9.674 Y5.966 E15.16622
G1 X9.478 Y6.289 E15.17778
G1 X-6.358 Y-9.547 E15.86234
G1 X-6.657 Y-9.326 E15.87370
G1 X9.256 Y6.588 E16.56159
G1 X9.035 Y6.886 E16.57295
G1 X-6.955 Y-9.104 E17.26417
G1 X-7.253 Y-8.882 E17.27552
G1 X8.812 Y7.183 E17.96997
G1 X8.565 Y7.456 E17.98122
G1 X-7.525 Y-8.635 E18.67678
G1 X-7.798 Y-8.387 E18.68803
G1 X8.318 Y7.729 E19.38468
G1 X8.058 Y7.989 E19.39592
G1 X-8.058 Y-8.127 E20.09257
G1 X-8.318 Y-7.867 E20.10380
G1 X7.798 Y8.249 E20.80045
G1 X7.526 Y8.496 E20.81170
G1 X-8.565 Y-7.595 E21.50726
G1 X-8.812 Y-7.322 E21.51851
G1 X7.253 Y8.743 E22.21297
G1 X6.955 Y8.966 E22.22432
G1 X-9.035 Y-7.025 E22.91554
G1 X-9.256 Y-6.726 E22.92690
G1 X6.657 Y9.187 E23.61479
G1 X6.359 Y9.408 E23.62615
G1 X-9.478 Y-6.428 E24.31070
G1 X-9.674 Y-6.104 E24.32227
G1 X6.035 Y9.605 E25.00133
G1 X5.710 Y9.799 E25.01291
G1 X-9.869 Y-5.779 E25.68634
G1 X-10.064 Y-5.454 E25.69793
G1 X5.385 Y9.994 E26.36572
G1 X5.032 Y10.162 E26.37765
G1 X-10.231 Y-5.102 E27.03744
G1 X-10.398 Y-4.749 E27.04937
G1 X4.679 Y10.329 E27.70112
G1 X4.323 Y10.492 E27.71311
G1 X-10.561 Y-4.392 E28.35652
G1 X-10.698 Y-4.009 E28.36895
G1 X3.940 Y10.629 E29.00172
G1 X3.557 Y10.766 E29.01415
G1 X-10.835 Y-3.626 E29.63630
G1 X-10.960 Y-3.232 E29.64896
G1 X3.162 Y10.891 E30.25944
G1 X2.747 Y10.995 E30.27254
G1 X-11.065 Y-2.816 E30.86956
G1 X-11.169 Y-2.400 E30.88265
G1 X2.331 Y11.099 E31.46621
G1 X1.887 Y11.176 E31.47996
G1 X-11.245 Y-1.957 E32.04764
G1 X-11.312 Y-1.504 E32.06163
G1 X1.435 Y11.243 E32.61265
G1 X0.969 Y11.297 E32.62698
G1 X-11.366 Y-1.038 E33.16020
G1 X-11.391 Y-0.543 E33.17536
G1 X0.474 Y11.321 E33.68823
G1 X-0.024 Y11.344 E33.70346
G1 X-11.413 Y-0.045 E34.19576
G1 X-11.386 Y0.502 E34.21249
G1 X-0.571 Y11.317 E34.68000
G1 X-1.118 Y11.290 E34.69673
G1 X-11.359 Y1.048 E35.13943
G1 X-11.269 Y1.659 E35.15829
G1 X-1.728 Y11.199 E35.57070
G1 X-2.354 Y11.094 E35.59010
G1 X-11.163 Y2.284 E35.97090
G1 X-10.989 Y2.978 E35.99276
G1 X-3.047 Y10.920 E36.33607
G1 X-3.812 Y10.675 E36.36062
G1 X-10.744 Y3.743 E36.66026
G1 X-10.399 Y4.608 F18000.000
G1 X-4.677 Y10.330 E36.90759 F3840.000
G1 X-5.753 Y9.774 F18000.000
G1 X-9.843 Y5.684 E37.08438 F3840.000
G1 F600.000 E36.38438
G1 Z0.400 F18000.000
G92 E0
G1 X-8.322 Y7.724 F18000.000
;AAA selfz = 0.4, lifted = .2
G1 Z0.200 F18000.000
G1 E0.70000 F600.000
G1 X-7.794 Y8.253 E0.72285 F3840.000
G1 F600.000 E0.02285
G1 Z0.400 F18000.000
G92 E0
G1 X10.399 Y-4.747 F18000.000
;AAA selfz = 0.4, lifted = .2
G1 Z0.200 F18000.000
G1 E0.70000 F600.000
G1 X4.677 Y-10.468 E0.94733 F3840.000
G1 X5.753 Y-9.912 F18000.000
G1 X9.843 Y-5.823 E1.12411 F3840.000
