; generated by Slic3r 0.9.11-dev on 2013-10-06 at 11:22:51

; layer_height = .3
; perimeters = 1
; top_solid_layers = 2
; bottom_solid_layers = 2
; fill_density = 0.11
; perimeter_speed = 60
; infill_speed = 85
; travel_speed = 300
; nozzle_diameter = 0.35
; filament_diameter = 1.75
; extrusion_multiplier = 1
; perimeters extrusion width = 0.35mm
; infill extrusion width = 0.37mm
; solid infill extrusion width = 0.37mm
; top infill extrusion width = 0.37mm

G21 ; set units to millimeters
M107
G28
G92 X0 Y0 Z0 E0
G1 F5000 Y30 X30
G1 X220
G1 F100 E10
G28
G92 X0 Y0 Z0
G1 F4000 X101 Y127
G92 X0 Y0 Z0 E0
M106 S255
G90 ; use absolute coordinates
G92 E0
M82 ; use absolute distances for extrusion
G1 F600.000 E-0.70000
G1 Z0.400 F18000.000
G92 E0
G1 X36.518 Y28.609 F18000.000
;AAA selfz = 0.4, lifted = .2
G1 Z0.200 F18000.000
G1 E0.70000 F600.000
G1 X-36.522 Y28.609 E2.82566 F2880.000
G1 X-39.322 Y28.469 E2.90724
G1 X-42.072 Y28.059 E2.98816
G1 X-44.832 Y27.369 E3.07096
G1 X-47.472 Y26.419 E3.15261
G1 X-49.972 Y25.239 E3.23306
G1 X-52.412 Y23.769 E3.31597
G1 X-54.642 Y22.119 E3.39670
G1 X-56.722 Y20.239 E3.47829
G1 X-58.632 Y18.129 E3.56112
G1 X-60.282 Y15.909 E3.64162
G1 X-61.752 Y13.469 E3.72452
G1 X-62.932 Y10.959 E3.80524
G1 X-63.882 Y8.319 E3.88689
G1 X-64.572 Y5.559 E3.96969
G1 X-64.982 Y2.819 E4.05032
G1 X-65.112 Y0.019 E4.13189
G1 X-64.982 Y-2.821 E4.21463
G1 X-64.572 Y-5.571 E4.29555
G1 X-63.882 Y-8.331 E4.37834
G1 X-62.932 Y-10.971 E4.46000
G1 X-61.752 Y-13.471 E4.54045
G1 X-60.282 Y-15.911 E4.62335
G1 X-58.632 Y-18.141 E4.70408
G1 X-56.752 Y-20.221 E4.78568
G1 X-54.642 Y-22.131 E4.86851
G1 X-52.412 Y-23.781 E4.94924
G1 X-49.972 Y-25.251 E5.03214
G1 X-47.472 Y-26.431 E5.11260
G1 X-44.832 Y-27.381 E5.19425
G1 X-42.072 Y-28.071 E5.27705
G1 X-39.322 Y-28.481 E5.35796
G1 X-36.522 Y-28.611 E5.43954
G1 X36.518 Y-28.611 E7.56519
G1 X39.318 Y-28.481 E7.64677
G1 X42.058 Y-28.071 E7.72740
G1 X44.818 Y-27.381 E7.81019
G1 X47.458 Y-26.431 E7.89185
G1 X49.968 Y-25.251 E7.97256
G1 X52.408 Y-23.781 E8.05546
G1 X54.628 Y-22.131 E8.13596
G1 X56.708 Y-20.251 E8.21756
G1 X58.618 Y-18.141 E8.30039
G1 X60.268 Y-15.911 E8.38112
G1 X61.738 Y-13.471 E8.46402
G1 X62.928 Y-10.971 E8.54460
G1 X63.868 Y-8.331 E8.62616
G1 X64.558 Y-5.571 E8.70895
G1 X64.968 Y-2.821 E8.78987
G1 X65.108 Y0.019 E8.87262
G1 X64.968 Y2.819 E8.95421
G1 X64.558 Y5.559 E9.03484
G1 X63.868 Y8.319 E9.11763
G1 X62.928 Y10.959 E9.19919
G1 X61.738 Y13.469 E9.28003
G1 X60.268 Y15.909 E9.36293
G1 X58.618 Y18.129 E9.44343
G1 X56.738 Y20.209 E9.52503
G1 X54.628 Y22.119 E9.60785
G1 X52.408 Y23.769 E9.68835
G1 X49.968 Y25.239 E9.77125
G1 X47.458 Y26.419 E9.85197
G1 X44.818 Y27.369 E9.93363
G1 X42.058 Y28.059 E10.01642
G1 X39.318 Y28.469 E10.09705
G1 X36.571 Y28.606 E10.17711
G1 X36.564 Y29.658 F18000.000
G1 X-36.556 Y29.658 E12.30508 F2880.000
G1 X-39.422 Y29.514 E12.38859
G1 X-42.290 Y29.086 E12.47299
G1 X-45.123 Y28.378 E12.55796
G1 X-47.879 Y27.386 E12.64322
G1 X-50.469 Y26.164 E12.72656
G1 X-53.000 Y24.638 E12.81258
G1 X-55.310 Y22.929 E12.89619
G1 X-57.500 Y20.946 E12.98218
G1 X-59.441 Y18.798 E13.06643
G1 X-61.151 Y16.498 E13.14985
G1 X-62.677 Y13.965 E13.23591
G1 X-63.900 Y11.365 E13.31951
G1 X-64.891 Y8.610 E13.40474
G1 X-65.599 Y5.778 E13.48969
G1 X-66.027 Y2.919 E13.57381
G1 X-66.162 Y-0.028 E13.65968
G1 X-66.027 Y-2.921 E13.74397
G1 X-65.599 Y-5.790 E13.82837
G1 X-64.891 Y-8.622 E13.91334
G1 X-63.899 Y-11.379 E13.99860
G1 X-62.655 Y-14.008 E14.08324
G1 X-61.151 Y-16.500 E14.16795
G1 X-59.462 Y-18.784 E14.25062
G1 X-57.500 Y-20.958 E14.33586
G1 X-55.285 Y-22.962 E14.42279
G1 X-53.000 Y-24.651 E14.50546
G1 X-50.508 Y-26.154 E14.59017
G1 X-47.879 Y-27.399 E14.67481
G1 X-45.101 Y-28.396 E14.76071
G1 X-42.290 Y-29.099 E14.84504
G1 X-39.454 Y-29.523 E14.92850
G1 X-36.529 Y-29.661 E15.01372
G1 X35.934 Y-29.661 E17.12259
G1 X36.000 Y-29.687 E17.12464
G1 X36.547 Y-29.661 E17.14058
G1 X37.086 Y-29.661 E17.15628
G1 X37.151 Y-29.633 E17.15833
G1 X39.419 Y-29.527 E17.22440
G1 X42.277 Y-29.099 E17.30851
G1 X45.109 Y-28.390 E17.39347
G1 X47.865 Y-27.399 E17.47870
G1 X50.464 Y-26.177 E17.56230
G1 X52.997 Y-24.651 E17.64836
G1 X55.298 Y-22.941 E17.73178
G1 X57.418 Y-21.025 E17.81493
G1 X59.449 Y-18.784 E17.90296
G1 X61.138 Y-16.500 E17.98563
G1 X62.662 Y-13.970 E18.07158
G1 X63.895 Y-11.381 E18.15504
G1 X64.869 Y-8.649 E18.23944
G1 X65.586 Y-5.790 E18.32524
G1 X66.010 Y-2.954 E18.40870
G1 X66.157 Y0.064 E18.49662
G1 X66.014 Y2.919 E18.57983
G1 X65.586 Y5.778 E18.66393
G1 X64.878 Y8.608 E18.74886
G1 X63.919 Y11.308 E18.83224
G1 X62.641 Y14.006 E18.91910
G1 X61.138 Y16.498 E19.00380
G1 X59.428 Y18.798 E19.08722
G1 X57.486 Y20.946 E19.17147
G1 X55.298 Y22.928 E19.25741
G1 X52.997 Y24.638 E19.34083
G1 X50.504 Y26.142 E19.42556
G1 X47.807 Y27.409 E19.51228
G1 X45.109 Y28.378 E19.59571
G1 X42.277 Y29.086 E19.68067
G1 X39.419 Y29.514 E19.76478
G1 X36.616 Y29.655 E19.84645
G1 X36.548 Y29.308 F18000.000
G1 X-36.545 Y29.308 E21.97365 F2880.000
G1 X-39.390 Y29.166 E22.05654
G1 X-42.216 Y28.744 E22.13971
G1 X-45.025 Y28.042 E22.22397
G1 X-47.744 Y27.064 E22.30808
G1 X-50.302 Y25.856 E22.39040
G1 X-52.804 Y24.348 E22.47542
G1 X-55.086 Y22.660 E22.55803
G1 X-57.251 Y20.700 E22.64300
G1 X-59.172 Y18.574 E22.72639
G1 X-60.861 Y16.302 E22.80879
G1 X-62.369 Y13.799 E22.89384
G1 X-63.577 Y11.231 E22.97643
G1 X-64.555 Y8.512 E23.06051
G1 X-65.257 Y5.703 E23.14476
G1 X-65.679 Y2.887 E23.22765
G1 X-65.812 Y-0.026 E23.31252
G1 X-65.679 Y-2.889 E23.39592
G1 X-65.257 Y-5.716 E23.47909
G1 X-64.555 Y-8.525 E23.56335
G1 X-63.577 Y-11.244 E23.64746
G1 X-62.353 Y-13.830 E23.73071
G1 X-60.861 Y-16.304 E23.81479
G1 X-59.185 Y-18.571 E23.89684
G1 X-57.251 Y-20.712 E23.98082
G1 X-55.071 Y-22.684 E24.06636
G1 X-52.804 Y-24.361 E24.14841
G1 X-50.330 Y-25.853 E24.23250
G1 X-47.744 Y-27.076 E24.31575
G1 X-45.012 Y-28.058 E24.40024
G1 X-42.216 Y-28.756 E24.48411
G1 X-39.409 Y-29.176 E24.56672
G1 X-36.527 Y-29.311 E24.65069
G1 X36.070 Y-29.311 E26.76343
G1 X36.120 Y-29.331 E26.76500
G1 X36.950 Y-29.311 E26.78916
G1 X36.999 Y-29.289 E26.79073
G1 X39.386 Y-29.178 E26.86028
G1 X42.203 Y-28.756 E26.94316
G1 X45.012 Y-28.054 E27.02742
G1 X47.730 Y-27.076 E27.11150
G1 X50.298 Y-25.869 E27.19408
G1 X52.801 Y-24.361 E27.27913
G1 X55.074 Y-22.672 E27.36153
G1 X57.182 Y-20.767 E27.44421
G1 X59.171 Y-18.571 E27.53046
G1 X60.848 Y-16.304 E27.61251
G1 X62.355 Y-13.803 E27.69749
G1 X63.573 Y-11.245 E27.77993
G1 X64.535 Y-8.544 E27.86338
G1 X65.243 Y-5.716 E27.94824
G1 X65.663 Y-2.909 E28.03084
G1 X65.808 Y0.049 E28.11700
G1 X65.665 Y2.887 E28.19971
G1 X65.243 Y5.703 E28.28259
G1 X64.541 Y8.511 E28.36682
G1 X63.588 Y11.193 E28.44964
G1 X62.340 Y13.828 E28.53450
G1 X60.848 Y16.302 E28.61858
G1 X59.159 Y18.574 E28.70098
G1 X57.237 Y20.700 E28.78437
G1 X55.074 Y22.659 E28.86932
G1 X52.801 Y24.348 E28.95172
G1 X50.298 Y25.856 E29.03677
G1 X47.730 Y27.064 E29.11935
G1 X45.045 Y28.031 E29.20241
G1 X42.181 Y28.748 E29.28835
G1 X39.386 Y29.166 E29.37057
G1 X36.601 Y29.305 E29.45175
G1 X36.533 Y28.958 F18000.000
G1 X-36.534 Y28.959 E31.57817 F2880.000
G1 X-39.357 Y28.817 E31.66044
G1 X-42.142 Y28.402 E31.74239
G1 X-44.927 Y27.705 E31.82594
G1 X-47.609 Y26.741 E31.90889
G1 X-50.136 Y25.548 E31.99019
G1 X-52.609 Y24.058 E32.07421
G1 X-54.863 Y22.390 E32.15582
G1 X-57.002 Y20.454 E32.23979
G1 X-58.903 Y18.350 E32.32231
G1 X-60.571 Y16.106 E32.40370
G1 X-62.061 Y13.632 E32.48774
G1 X-63.254 Y11.096 E32.56930
G1 X-64.218 Y8.414 E32.65224
G1 X-64.915 Y5.629 E32.73579
G1 X-65.330 Y2.854 E32.81744
G1 X-65.462 Y-0.024 E32.90131
G1 X-65.330 Y-2.857 E32.98383
G1 X-64.915 Y-5.642 E33.06577
G1 X-64.218 Y-8.427 E33.14932
G1 X-63.254 Y-11.109 E33.23227
G1 X-62.052 Y-13.652 E33.31413
G1 X-60.571 Y-16.108 E33.39759
G1 X-58.907 Y-18.357 E33.47902
G1 X-57.002 Y-20.466 E33.56174
G1 X-54.858 Y-22.407 E33.64589
G1 X-52.609 Y-24.071 E33.72732
G1 X-50.152 Y-25.551 E33.81078
G1 X-47.609 Y-26.753 E33.89264
G1 X-44.923 Y-27.719 E33.97572
G1 X-42.142 Y-28.414 E34.05914
G1 X-39.364 Y-28.829 E34.14089
G1 X-36.525 Y-28.961 E34.22360
G1 X36.205 Y-28.961 E36.34023
G1 X36.240 Y-28.975 E36.34132
G1 X36.813 Y-28.961 E36.35802
G1 X36.848 Y-28.946 E36.35910
G1 X39.354 Y-28.830 E36.43212
G1 X42.129 Y-28.414 E36.51378
G1 X44.914 Y-27.718 E36.59732
G1 X47.595 Y-26.753 E36.68026
G1 X50.132 Y-25.561 E36.76183
G1 X52.605 Y-24.071 E36.84587
G1 X54.850 Y-22.402 E36.92725
G1 X56.945 Y-20.509 E37.00945
G1 X58.894 Y-18.357 E37.09393
G1 X60.558 Y-16.108 E37.17535
G1 X62.047 Y-13.636 E37.25935
G1 X63.250 Y-11.110 E37.34078
G1 X64.201 Y-8.439 E37.42329
G1 X64.901 Y-5.642 E37.50720
G1 X65.316 Y-2.863 E37.58895
G1 X65.458 Y0.033 E37.67335
G1 X65.317 Y2.854 E37.75556
G1 X64.901 Y5.629 E37.83721
G1 X64.205 Y8.414 E37.92075
G1 X63.258 Y11.077 E38.00301
G1 X62.038 Y13.649 E38.08586
G1 X60.558 Y16.106 E38.16933
G1 X58.889 Y18.350 E38.25071
G1 X56.988 Y20.454 E38.33324
G1 X54.850 Y22.390 E38.41718
G1 X52.605 Y24.058 E38.49857
G1 X50.132 Y25.548 E38.58261
G1 X47.595 Y26.741 E38.66418
G1 X44.931 Y27.700 E38.74660
G1 X42.121 Y28.403 E38.83088
G1 X39.354 Y28.817 E38.91232
G1 X36.585 Y28.956 E38.99300
G1 F600.000 E38.29300
G1 Z0.400 F18000.000
G92 E0
G1 X-8.535 Y11.583 F18000.000
G1 X29.905 Y28.259 F18000.000
;AAA selfz = 0.4, lifted = .2
G1 Z0.200 F18000.000
G1 E0.70000 F600.000
G1 X-29.905 Y28.259 E2.44062 F2880.000
G1 X-29.981 Y27.644 E2.45863
G1 X-28.242 Y27.208 E2.51080
G1 X-25.615 Y26.268 E2.59201
G1 X-23.092 Y25.074 E2.67321
G1 X-20.706 Y23.645 E2.75417
G1 X-18.465 Y21.982 E2.83538
G1 X-16.397 Y20.109 E2.91659
G1 X-14.517 Y18.035 E2.99805
G1 X-12.855 Y15.794 E3.07925
G1 X-11.421 Y13.400 E3.16046
G1 X-10.232 Y10.885 E3.24142
G1 X-9.291 Y8.258 E3.32263
G1 X-8.611 Y5.543 E3.40408
G1 X-8.202 Y2.783 E3.48529
G1 X-8.065 Y-0.004 E3.56650
G1 X-8.203 Y-2.791 E3.64771
G1 X-8.613 Y-5.551 E3.72891
G1 X-9.291 Y-8.258 E3.81012
G1 X-10.228 Y-10.877 E3.89108
G1 X-11.421 Y-13.400 E3.97229
G1 X-12.855 Y-15.794 E4.05349
G1 X-14.517 Y-18.035 E4.13470
G1 X-16.397 Y-20.109 E4.21616
G1 X-18.465 Y-21.982 E4.29737
G1 X-20.706 Y-23.645 E4.37858
G1 X-23.092 Y-25.074 E4.45953
G1 X-25.615 Y-26.268 E4.54074
G1 X-28.242 Y-27.208 E4.62195
G1 X-29.991 Y-27.647 E4.67443
G1 X-29.915 Y-28.261 E4.69244
G1 X29.915 Y-28.261 E6.43366
G1 X29.991 Y-27.647 E6.45167
G1 X28.242 Y-27.208 E6.50415
G1 X25.615 Y-26.268 E6.58535
G1 X23.092 Y-25.074 E6.66656
G1 X20.706 Y-23.645 E6.74752
G1 X18.465 Y-21.982 E6.82873
G1 X16.397 Y-20.109 E6.90994
G1 X14.517 Y-18.035 E6.99139
G1 X12.855 Y-15.794 E7.07260
G1 X11.421 Y-13.400 E7.15381
G1 X10.228 Y-10.877 E7.23502
G1 X9.291 Y-8.258 E7.31598
G1 X8.611 Y-5.543 E7.39743
G1 X8.202 Y-2.783 E7.47864
G1 X8.065 Y0.004 E7.55985
G1 X8.203 Y2.791 E7.64105
G1 X8.613 Y5.551 E7.72226
G1 X9.291 Y8.258 E7.80347
G1 X10.228 Y10.877 E7.88443
G1 X11.421 Y13.400 E7.96564
G1 X12.855 Y15.794 E8.04684
G1 X14.517 Y18.035 E8.12805
G1 X16.397 Y20.109 E8.20951
G1 X18.465 Y21.982 E8.29072
G1 X20.706 Y23.645 E8.37193
G1 X23.092 Y25.074 E8.45288
G1 X25.615 Y26.268 E8.53409
G1 X28.242 Y27.208 E8.61530
G1 X29.981 Y27.644 E8.66747
G1 X29.911 Y28.207 E8.68395
G1 F600.000 E7.98395
G1 Z0.400 F18000.000
G92 E0
G1 X-8.535 Y11.583 F18000.000
G1 X27.438 Y27.909 F18000.000
;AAA selfz = 0.4, lifted = .2
G1 Z0.200 F18000.000
G1 E0.70000 F600.000
G1 X-27.438 Y27.909 E2.29702 F2880.000
G1 X-27.538 Y27.328 E2.31416
G1 X-25.473 Y26.588 E2.37802
G1 X-22.920 Y25.379 E2.46022
G1 X-20.497 Y23.926 E2.54243
G1 X-18.249 Y22.258 E2.62389
G1 X-16.137 Y20.344 E2.70685
G1 X-14.258 Y18.270 E2.78830
G1 X-12.574 Y16.002 E2.87051
G1 X-11.109 Y13.557 E2.95347
G1 X-9.911 Y11.027 E3.03493
G1 X-8.959 Y8.368 E3.11713
G1 X-8.266 Y5.603 E3.20009
G1 X-7.853 Y2.809 E3.28230
G1 X-7.715 Y-0.013 E3.36450
G1 X-7.853 Y-2.809 E3.44596
G1 X-8.266 Y-5.603 E3.52817
G1 X-8.959 Y-8.368 E3.61112
G1 X-9.902 Y-11.003 E3.69258
G1 X-11.109 Y-13.557 E3.77479
G1 X-12.574 Y-16.002 E3.85775
G1 X-14.241 Y-18.250 E3.93921
G1 X-16.137 Y-20.344 E4.02141
G1 X-18.249 Y-22.258 E4.10437
G1 X-20.519 Y-23.940 E4.18658
G1 X-22.920 Y-25.379 E4.26804
G1 X-25.473 Y-26.588 E4.35024
G1 X-27.546 Y-27.331 E4.41432
G1 X-27.445 Y-27.911 E4.43147
G1 X27.445 Y-27.911 E6.02890
G1 X27.546 Y-27.331 E6.04604
G1 X25.473 Y-26.588 E6.11012
G1 X22.920 Y-25.379 E6.19233
G1 X20.497 Y-23.926 E6.27454
G1 X18.249 Y-22.258 E6.35600
G1 X16.137 Y-20.344 E6.43895
G1 X14.241 Y-18.250 E6.52116
G1 X12.574 Y-16.002 E6.60262
G1 X11.121 Y-13.580 E6.68483
G1 X9.912 Y-11.027 E6.76703
G1 X8.952 Y-8.343 E6.84999
G1 X8.266 Y-5.603 E6.93220
G1 X7.856 Y-2.834 E7.01366
G1 X7.715 Y0.013 E7.09661
G1 X7.853 Y2.809 E7.17807
G1 X8.266 Y5.603 E7.26028
G1 X8.959 Y8.368 E7.34323
G1 X9.911 Y11.027 E7.42544
G1 X11.109 Y13.557 E7.50690
G1 X12.574 Y16.002 E7.58986
G1 X14.241 Y18.250 E7.67131
G1 X16.137 Y20.344 E7.75352
G1 X18.249 Y22.258 E7.83648
G1 X20.497 Y23.926 E7.91794
G1 X22.920 Y25.379 E8.00014
G1 X25.473 Y26.588 E8.08235
G1 X27.538 Y27.328 E8.14621
G1 X27.447 Y27.857 E8.16182
G1 F600.000 E7.46182
G1 Z0.400 F18000.000
G92 E0
G1 X-8.535 Y11.583 F18000.000
G1 X25.428 Y27.559 F18000.000
;AAA selfz = 0.4, lifted = .2
G1 Z0.200 F18000.000
G1 E0.70000 F600.000
G1 X-25.428 Y27.559 E2.18002 F2880.000
G1 X-25.550 Y27.012 E2.19632
G1 X-22.747 Y25.684 E2.28660
G1 X-20.296 Y24.212 E2.36981
G1 X-18.001 Y22.507 E2.45301
G1 X-15.884 Y20.586 E2.53622
G1 X-13.993 Y18.499 E2.61818
G1 X-12.264 Y16.168 E2.70264
G1 X-10.816 Y13.752 E2.78459
G1 X-9.591 Y11.169 E2.86780
G1 X-8.614 Y8.437 E2.95225
G1 X-7.929 Y5.705 E3.03421
G1 X-7.508 Y2.877 E3.11742
G1 X-7.365 Y-0.022 E3.20188
G1 X-7.508 Y-2.877 E3.28508
G1 X-7.921 Y-5.663 E3.36704
G1 X-8.614 Y-8.437 E3.45025
G1 X-9.591 Y-11.169 E3.53470
G1 X-10.796 Y-13.715 E3.61666
G1 X-12.264 Y-16.168 E3.69986
G1 X-13.993 Y-18.499 E3.78432
G1 X-15.884 Y-20.586 E3.86628
G1 X-18.001 Y-22.507 E3.94949
G1 X-20.296 Y-24.212 E4.03269
G1 X-22.747 Y-25.684 E4.11590
G1 X-25.556 Y-27.015 E4.20635
G1 X-25.433 Y-27.561 E4.22266
G1 X25.433 Y-27.561 E5.70299
G1 X25.556 Y-27.015 E5.71930
G1 X22.747 Y-25.684 E5.80975
G1 X20.296 Y-24.212 E5.89296
G1 X18.001 Y-22.507 E5.97616
G1 X15.914 Y-20.616 E6.05812
G1 X13.993 Y-18.499 E6.14133
G1 X12.264 Y-16.168 E6.22578
G1 X10.796 Y-13.715 E6.30899
G1 X9.591 Y-11.169 E6.39095
G1 X8.614 Y-8.437 E6.47540
G1 X7.921 Y-5.663 E6.55861
G1 X7.508 Y-2.877 E6.64057
G1 X7.365 Y0.022 E6.72502
G1 X7.508 Y2.877 E6.80823
G1 X7.921 Y5.663 E6.89019
G1 X8.627 Y8.478 E6.97464
G1 X9.591 Y11.169 E7.05785
G1 X10.796 Y13.715 E7.13981
G1 X12.264 Y16.168 E7.22301
G1 X13.993 Y18.499 E7.30747
G1 X15.884 Y20.586 E7.38943
G1 X18.001 Y22.507 E7.47264
G1 X20.296 Y24.212 E7.55584
G1 X22.747 Y25.684 E7.63905
G1 X25.550 Y27.012 E7.72933
G1 X25.439 Y27.507 E7.74410
G1 X25.753 Y25.946 F18000.000
G1 X23.261 Y24.768 E7.82431 F2592.000
G1 X20.897 Y23.351 E7.90452
G1 X18.684 Y21.709 E7.98473
G1 X16.641 Y19.858 E8.06493
G1 X14.737 Y17.757 E8.14746
G1 X13.149 Y15.603 E8.22536
G1 X11.732 Y13.239 E8.30557
G1 X10.553 Y10.747 E8.38578
G1 X9.625 Y8.152 E8.46598
G1 X8.955 Y5.479 E8.54619
G1 X8.551 Y2.753 E8.62640
G1 X8.416 Y-0.000 E8.70661
G1 X8.551 Y-2.753 E8.78681
G1 X8.955 Y-5.479 E8.86702
G1 X9.625 Y-8.152 E8.94723
G1 X10.553 Y-10.747 E9.02743
G1 X11.732 Y-13.239 E9.10764
G1 X13.149 Y-15.603 E9.18785
G1 X14.791 Y-17.816 E9.26806
G1 X16.641 Y-19.858 E9.34826
G1 X18.684 Y-21.709 E9.42847
G1 X20.897 Y-23.351 E9.50868
G1 X23.261 Y-24.768 E9.58889
G1 X25.753 Y-25.946 E9.66910
G1 X28.348 Y-26.874 E9.74930
G1 X31.021 Y-27.544 E9.82951
G1 X33.747 Y-27.948 E9.90972
G1 X36.500 Y-28.084 E9.98993
G1 X39.253 Y-27.948 E10.07014
G1 X41.979 Y-27.544 E10.15035
G1 X44.652 Y-26.874 E10.23055
G1 X47.247 Y-25.946 E10.31076
G1 X49.739 Y-24.768 E10.39097
G1 X52.103 Y-23.351 E10.47118
G1 X54.316 Y-21.709 E10.55139
G1 X56.359 Y-19.858 E10.63159
G1 X58.209 Y-17.816 E10.71180
G1 X59.851 Y-15.603 E10.79201
G1 X61.268 Y-13.239 E10.87222
G1 X62.447 Y-10.747 E10.95242
G1 X63.375 Y-8.152 E11.03263
G1 X64.045 Y-5.479 E11.11284
G1 X64.449 Y-2.753 E11.19305
G1 X64.584 Y-0.000 E11.27325
G1 X64.449 Y2.753 E11.35346
G1 X64.045 Y5.479 E11.43367
G1 X63.375 Y8.152 E11.51387
