; generated by Slic3r 0.9.11-dev on 2013-09-21 at 00:22:08

; layer_height = 0.3
; perimeters = 2
; top_solid_layers = 0
; bottom_solid_layers = 2
; fill_density = .12
; perimeter_speed = 60
; infill_speed = 80
; travel_speed = 300
; nozzle_diameter = 0.35
; filament_diameter = 1.75
; extrusion_multiplier = 1
; perimeters extrusion width = 0.35mm
; infill extrusion width = 0.37mm
; solid infill extrusion width = 0.37mm
; top infill extrusion width = 0.37mm

G21 ; set units to millimeters
M107
G28
G92 X0 Y0 Z0 E0
G1 F5000 Y30 X30
G1 X220
G1 F100 E10
G28
G92 X0 Y0 Z0
G1 F4000 X101 Y127
G92 X0 Y0 Z0 E0
M106 S255
G90 ; use absolute coordinates
G92 E0
M82 ; use absolute distances for extrusion
G1 F600.000 E-0.70000
G1 Z0.400 F18000.000
G92 E0
G1 X-11.102 Y-25.090 F18000.000
;AAA selfz = 0.4, lifted = .2
G1 Z0.200 F18000.000
G1 E0.70000 F600.000
G1 X32.978 Y17.920 E2.49233 F2880.000
G1 X34.998 Y20.640 E2.59093
G1 X35.198 Y21.180 E2.60769
G1 X35.238 Y24.620 E2.70781
G1 X35.238 Y24.670 E2.70926
G1 X35.048 Y25.220 E2.72620
G1 X33.098 Y27.970 E2.82431
G1 X33.018 Y28.050 E2.82760
G1 X32.688 Y28.300 E2.83965
G1 X32.588 Y28.350 E2.84291
G1 X29.328 Y29.450 E2.94304
G1 X28.808 Y29.450 E2.95817
G1 X25.448 Y28.400 E3.06062
G1 X-28.962 Y-3.930 E4.90253
G1 X-29.392 Y-4.230 E4.91779
G1 X-31.522 Y-6.100 E5.00028
G1 X-31.872 Y-6.480 E5.01532
G1 X-33.482 Y-8.790 E5.09726
G1 X-33.762 Y-9.320 E5.11470
G1 X-34.752 Y-11.890 E5.19486
G1 X-34.902 Y-12.490 E5.21286
G1 X-35.242 Y-15.220 E5.29292
G1 X-35.242 Y-15.830 E5.31067
G1 X-34.922 Y-18.620 E5.39240
G1 X-34.782 Y-19.150 E5.40835
G1 X-33.822 Y-21.740 E5.48874
G1 X-33.542 Y-22.280 E5.50644
G1 X-31.982 Y-24.560 E5.58684
G1 X-31.582 Y-25.010 E5.60436
G1 X-29.492 Y-26.880 E5.68598
G1 X-29.062 Y-27.170 E5.70108
G1 X-26.582 Y-28.490 E5.78284
G1 X-26.032 Y-28.700 E5.79997
G1 X-23.352 Y-29.380 E5.88044
G1 X-22.792 Y-29.450 E5.89686
G1 X-19.952 Y-29.460 E5.97951
G1 X-19.432 Y-29.400 E5.99475
G1 X-16.662 Y-28.740 E6.07762
G1 X-16.172 Y-28.550 E6.09291
G1 X-13.652 Y-27.240 E6.17557
G1 X-13.222 Y-26.950 E6.19066
G1 X-11.141 Y-25.125 E6.27121
G1 X-10.413 Y-25.883 F18000.000
G1 X33.788 Y17.251 E8.06858 F2880.000
G1 X35.863 Y20.044 E8.16983
G1 X35.994 Y20.277 E8.17764
G1 X36.195 Y20.844 E8.19514
G1 X36.248 Y21.122 E8.20336
G1 X36.288 Y24.719 E8.30807
G1 X36.250 Y24.955 E8.31502
G1 X36.084 Y25.464 E8.33061
G1 X35.937 Y25.780 E8.34075
G1 X33.940 Y28.598 E8.44127
G1 X33.669 Y28.874 E8.45252
G1 X33.263 Y29.179 E8.46731
G1 X32.959 Y29.332 E8.47721
G1 X29.664 Y30.447 E8.57843
G1 X29.387 Y30.500 E8.58665
G1 X28.750 Y30.500 E8.60518
G1 X28.552 Y30.470 E8.61099
G1 X25.155 Y29.416 E8.71450
G1 X24.969 Y29.334 E8.72044
G1 X-29.518 Y-3.039 E10.56490
G1 X-30.087 Y-3.442 E10.58521
G1 X-32.232 Y-5.326 E10.66828
G1 X-32.689 Y-5.820 E10.68788
G1 X-34.411 Y-8.301 E10.77576
G1 X-34.729 Y-8.911 E10.79579
G1 X-35.738 Y-11.530 E10.87748
G1 X-35.942 Y-12.349 E10.90204
G1 X-36.286 Y-15.109 E10.98298
G1 X-36.292 Y-15.847 E11.00447
G1 X-35.943 Y-18.864 E11.09283
G1 X-35.774 Y-19.494 E11.11182
G1 X-34.792 Y-22.143 E11.19404
G1 X-34.420 Y-22.856 E11.21744
G1 X-32.832 Y-25.176 E11.29927
G1 X-32.288 Y-25.787 E11.32309
G1 X-30.103 Y-27.734 E11.40825
G1 X-29.574 Y-28.087 E11.42676
G1 X-26.926 Y-29.487 E11.51395
G1 X-26.301 Y-29.715 E11.53330
G1 X-23.478 Y-30.425 E11.61800
G1 X-22.810 Y-30.500 E11.63758
G1 X-20.499 Y-30.508 E11.70484
G1 X-20.365 Y-30.565 E11.70905
G1 X-19.901 Y-30.511 E11.72265
G1 X-19.414 Y-30.510 E11.73682
G1 X-19.303 Y-30.444 E11.74059
G1 X-16.393 Y-29.755 E11.82761
G1 X-15.718 Y-29.497 E11.84866
G1 X-13.139 Y-28.157 E11.93323
G1 X-12.610 Y-27.804 E11.95173
G1 X-10.452 Y-25.918 E12.03514
G1 X-10.645 Y-25.622 F18000.000
G1 X33.519 Y17.475 E13.83099 F2880.000
G1 X35.574 Y20.242 E13.93130
G1 X35.672 Y20.414 E13.93706
G1 X35.864 Y20.959 E13.95387
G1 X35.898 Y21.138 E13.95919
G1 X35.938 Y24.705 E14.06301
G1 X35.913 Y24.858 E14.06751
G1 X35.752 Y25.353 E14.08267
G1 X35.640 Y25.594 E14.09041
G1 X33.659 Y28.390 E14.19013
G1 X33.467 Y28.588 E14.19814
G1 X33.070 Y28.887 E14.21259
G1 X32.836 Y29.005 E14.22024
G1 X29.549 Y30.115 E14.32119
G1 X29.370 Y30.150 E14.32651
G1 X28.767 Y30.150 E14.34407
G1 X28.635 Y30.130 E14.34795
G1 X25.268 Y29.085 E14.45055
G1 X25.120 Y29.018 E14.45528
G1 X-29.333 Y-3.336 E16.29863
G1 X-29.856 Y-3.706 E16.31726
G1 X-31.996 Y-5.585 E16.40015
G1 X-32.417 Y-6.041 E16.41820
G1 X-34.101 Y-8.463 E16.50405
G1 X-34.406 Y-9.046 E16.52321
G1 X-35.410 Y-11.651 E16.60445
G1 X-35.595 Y-12.395 E16.62679
G1 X-35.938 Y-15.147 E16.70748
G1 X-35.942 Y-15.842 E16.72772
G1 X-35.603 Y-18.783 E16.81386
G1 X-35.443 Y-19.379 E16.83182
G1 X-34.474 Y-21.994 E16.91299
G1 X-34.128 Y-22.663 E16.93490
G1 X-32.548 Y-24.972 E17.01632
G1 X-32.053 Y-25.528 E17.03800
G1 X-29.901 Y-27.449 E17.12194
G1 X-29.403 Y-27.782 E17.13938
G1 X-26.798 Y-29.161 E17.22515
G1 X-26.212 Y-29.376 E17.24333
G1 X-23.420 Y-30.080 E17.32712
G1 X-22.820 Y-30.150 E17.34470
G1 X-20.376 Y-30.159 E17.41582
G1 X-20.261 Y-30.200 E17.41937
G1 X-19.922 Y-30.161 E17.42933
G1 X-19.559 Y-30.160 E17.43987
G1 X-19.451 Y-30.107 E17.44338
G1 X-19.276 Y-30.083 E17.44853
G1 X-16.484 Y-29.417 E17.53205
G1 X-15.870 Y-29.182 E17.55118
G1 X-13.311 Y-27.852 E17.63512
G1 X-12.813 Y-27.519 E17.65256
G1 X-10.685 Y-25.657 E17.73486
G1 X-10.878 Y-25.360 F18000.000
G1 X33.249 Y17.699 E19.52917 F2880.000
G1 X35.286 Y20.440 E19.62855
G1 X35.375 Y20.614 E19.63423
G1 X35.532 Y21.073 E19.64838
G1 X35.548 Y21.155 E19.65080
G1 X35.588 Y24.691 E19.75372
G1 X35.420 Y25.242 E19.77049
G1 X35.343 Y25.409 E19.77582
G1 X33.377 Y28.182 E19.87474
G1 X33.241 Y28.320 E19.88038
G1 X32.878 Y28.594 E19.89362
G1 X32.712 Y28.677 E19.89902
G1 X29.353 Y29.800 E20.00210
G1 X28.717 Y29.789 E20.02061
G1 X25.380 Y28.753 E20.12230
G1 X25.285 Y28.709 E20.12536
G1 X-29.149 Y-3.634 E21.96807
G1 X-29.625 Y-3.969 E21.98502
G1 X-31.761 Y-5.844 E22.06773
G1 X-32.145 Y-6.261 E22.08423
G1 X-33.791 Y-8.625 E22.16805
G1 X-34.083 Y-9.181 E22.18632
G1 X-35.081 Y-11.772 E22.26713
G1 X-35.249 Y-12.442 E22.28723
G1 X-35.590 Y-15.185 E22.36767
G1 X-35.592 Y-15.837 E22.38667
G1 X-35.262 Y-18.702 E22.47059
G1 X-35.113 Y-19.264 E22.48751
G1 X-34.148 Y-21.868 E22.56834
G1 X-33.836 Y-22.470 E22.58807
G1 X-32.264 Y-24.768 E22.66908
G1 X-31.818 Y-25.269 E22.68860
G1 X-29.698 Y-27.163 E22.77134
G1 X-29.231 Y-27.477 E22.78771
G1 X-26.671 Y-28.835 E22.87205
G1 X-26.123 Y-29.038 E22.88907
G1 X-23.351 Y-29.736 E22.97224
G1 X-22.805 Y-29.800 E22.98826
G1 X-20.254 Y-29.809 E23.06250
G1 X-20.172 Y-29.838 E23.06502
G1 X-19.922 Y-29.810 E23.07235
G1 X-19.689 Y-29.810 E23.07913
G1 X-19.612 Y-29.773 E23.08160
G1 X-19.355 Y-29.742 E23.08914
G1 X-16.575 Y-29.079 E23.17232
G1 X-16.023 Y-28.867 E23.18951
G1 X-13.483 Y-27.547 E23.27284
G1 X-13.016 Y-27.233 E23.28921
G1 X-10.918 Y-25.395 E23.37039
G1 F600.000 E22.67039
G1 Z0.400 F18000.000
G92 E0
G1 X-20.459 Y-28.732 F18000.000
;AAA selfz = 0.4, lifted = .2
G1 Z0.200 F18000.000
G1 E0.70000 F600.000
G1 X-20.614 Y-28.506 E0.70799 F2880.000
G1 X-20.928 Y-27.904 E0.72774
G1 X-21.112 Y-27.403 E0.74328
G1 X-21.599 Y-27.400 E0.75745
G1 X-21.788 Y-27.900 E0.77298
G1 X-22.102 Y-28.492 E0.79249
G1 X-22.265 Y-28.725 E0.80077
G1 X-22.070 Y-29.102 E0.81314
G1 X-20.656 Y-29.108 E0.85429
G1 X-20.483 Y-28.778 E0.86511
G1 X-19.091 Y-28.572 F18000.000
G1 X-18.813 Y-28.892 E0.87745 F2880.000
G1 X-17.437 Y-28.563 E0.91864
G1 X-17.334 Y-28.151 E0.93102
G1 X-17.548 Y-27.960 E0.93936
G1 X-17.990 Y-27.456 E0.95887
G1 X-18.289 Y-27.014 E0.97441
G1 X-18.762 Y-27.128 E0.98857
G1 X-18.826 Y-27.658 E1.00410
G1 X-18.989 Y-28.308 E1.02361
G1 X-19.072 Y-28.523 E1.03032
G1 F600.000 E0.33032
G1 Z0.400 F18000.000
G92 E0
G1 X-23.627 Y-28.560 F18000.000
;AAA selfz = 0.4, lifted = .2
G1 Z0.200 F18000.000
G1 E0.70000 F600.000
G1 X-23.730 Y-28.287 E0.70850 F2880.000
G1 X-23.887 Y-27.635 E0.72801
G1 X-23.946 Y-27.104 E0.74354
G1 X-24.418 Y-26.986 E0.75771
G1 X-24.721 Y-27.425 E0.77324
G1 X-25.168 Y-27.925 E0.79275
G1 X-25.386 Y-28.115 E0.80115
G1 X-25.288 Y-28.528 E0.81349
G1 X-23.910 Y-28.877 E0.85487
G1 X-23.662 Y-28.599 E0.86571
G1 F600.000 E0.16571
G1 Z0.400 F18000.000
G92 E0
G1 X-16.046 Y-27.662 F18000.000
;AAA selfz = 0.4, lifted = .2
G1 Z0.200 F18000.000
G1 E0.70000 F600.000
G1 X-15.699 Y-27.906 E0.71236 F2880.000
G1 X-14.448 Y-27.258 E0.75338
G1 X-14.447 Y-26.833 E0.76574
G1 X-14.695 Y-26.702 E0.77389
G1 X-15.245 Y-26.319 E0.79340
G1 X-15.641 Y-25.961 E0.80894
G1 X-16.073 Y-26.185 E0.82310
G1 X-16.008 Y-26.715 E0.83863
G1 X-16.010 Y-27.385 E0.85814
G1 X-16.040 Y-27.610 E0.86475
G1 F600.000 E0.16475
G1 Z0.400 F18000.000
G92 E0
G1 X-26.666 Y-27.621 F18000.000
;AAA selfz = 0.4, lifted = .2
G1 Z0.200 F18000.000
G1 E0.70000 F600.000
G1 X-26.700 Y-27.336 E0.70836 F2880.000
G1 X-26.697 Y-26.666 E0.72787
G1 X-26.627 Y-26.137 E0.74340
G1 X-27.057 Y-25.908 E0.75757
G1 X-27.456 Y-26.263 E0.77310
G1 X-28.009 Y-26.641 E0.79261
G1 X-28.263 Y-26.772 E0.80090
G1 X-28.266 Y-27.196 E0.81324
G1 X-27.016 Y-27.862 E0.85447
G1 X-26.709 Y-27.651 E0.86531
G1 F600.000 E0.16531
G1 Z0.400 F18000.000
G92 E0
G1 X-13.687 Y-24.625 F18000.000
;AAA selfz = 0.4, lifted = .2
G1 Z0.200 F18000.000
G1 E0.70000 F600.000
G1 X-13.497 Y-25.124 E0.71553 F2880.000
G1 X-13.340 Y-25.776 E0.73504
G1 X-13.308 Y-26.057 E0.74326
G1 X-12.912 Y-26.210 E0.75561
G1 X-11.848 Y-25.279 E0.79679
G1 X-11.950 Y-24.865 E0.80920
G1 X-12.225 Y-24.798 E0.81745
G1 X-12.851 Y-24.557 E0.83696
G1 X-13.321 Y-24.304 E0.85250
G1 X-13.648 Y-24.591 E0.86513
G1 F600.000 E0.16513
G1 Z0.400 F18000.000
G92 E0
G1 X-28.998 Y-24.555 F18000.000
;AAA selfz = 0.4, lifted = .2
G1 Z0.200 F18000.000
G1 E0.70000 F600.000
G1 X-29.361 Y-24.231 E0.71416 F2880.000
G1 X-29.833 Y-24.480 E0.72970
G1 X-30.461 Y-24.715 E0.74921
G1 X-30.746 Y-24.782 E0.75772
G1 X-30.850 Y-25.194 E0.77008
G1 X-29.789 Y-26.142 E0.81151
G1 X-29.392 Y-25.992 E0.82386
G1 X-29.356 Y-25.703 E0.83235
G1 X-29.192 Y-25.053 E0.85186
G1 X-29.017 Y-24.604 E0.86587
G1 F600.000 E0.16587
G1 Z0.400 F18000.000
G92 E0
G1 X-11.744 Y-22.540 F18000.000
;AAA selfz = 0.4, lifted = .2
G1 Z0.200 F18000.000
G1 E0.70000 F600.000
G1 X-11.441 Y-22.979 E0.71553 F2880.000
G1 X-11.131 Y-23.574 E0.73504
G1 X-10.966 Y-24.022 E0.74894
G1 X-10.595 Y-24.106 E0.76002
G1 X-9.250 Y-22.794 E0.81472
G1 X-9.428 Y-22.358 E0.82843
G1 X-10.284 Y-22.358 E0.85334
G1 X-10.949 Y-22.274 E0.87285
G1 X-11.466 Y-22.141 E0.88839
G1 X-11.714 Y-22.497 E0.90102
G1 X-11.039 Y-22.994 F18000.000
G1 X-10.811 Y-23.433 E0.91543 F2880.000
G1 X-10.463 Y-23.488 E0.92567
G1 X-10.099 Y-23.134 E0.94047
G1 X-10.239 Y-22.717 E0.95326
G1 X-10.797 Y-22.646 E0.96962
G1 X-11.009 Y-22.950 E0.98042
G1 F600.000 E0.28042
G1 Z0.400 F18000.000
G92 E0
G1 X-30.922 Y-22.453 F18000.000
;AAA selfz = 0.4, lifted = .2
G1 Z0.200 F18000.000
G1 E0.70000 F600.000
G1 X-31.197 Y-22.051 E0.71416 F2880.000
G1 X-31.715 Y-22.179 E0.72970
G1 X-32.381 Y-22.257 E0.74921
G1 X-32.678 Y-22.255 E0.75788
G1 X-32.879 Y-22.629 E0.77024
G1 X-32.071 Y-23.809 E0.81185
G1 X-31.650 Y-23.759 E0.82421
G1 X-31.544 Y-23.481 E0.83286
G1 X-31.230 Y-22.889 E0.85237
G1 X-30.952 Y-22.496 E0.86637
G1 F600.000 E0.16637
G1 Z0.400 F18000.000
G92 E0
G1 X-33.304 Y-21.043 F18000.000
;AAA selfz = 0.4, lifted = .2
G1 Z0.200 F18000.000
G1 E0.70000 F600.000
G1 X-33.137 Y-20.800 E0.70858 F2880.000
G1 X-32.690 Y-20.301 E0.72809
G1 X-32.287 Y-19.951 E0.74362
G1 X-32.457 Y-19.495 E0.75778
G1 X-32.991 Y-19.495 E0.77332
G1 X-33.656 Y-19.412 E0.79283
G1 X-33.937 Y-19.340 E0.80128
G1 X-34.221 Y-19.655 E0.81361
G1 X-33.727 Y-20.990 E0.85506
G1 X-33.356 Y-21.036 E0.86591
G1 F600.000 E0.16591
G1 Z0.400 F18000.000
G92 E0
G1 X-34.263 Y-18.012 F18000.000
;AAA selfz = 0.4, lifted = .2
G1 Z0.200 F18000.000
G1 E0.70000 F600.000
G1 X-34.042 Y-17.816 E0.70858 F2880.000
G1 X-33.488 Y-17.438 E0.72809
G1 X-33.013 Y-17.195 E0.74363
G1 X-33.069 Y-16.711 E0.75779
G1 X-33.588 Y-16.584 E0.77332
G1 X-34.214 Y-16.344 E0.79283
G1 X-34.469 Y-16.207 E0.80127
G1 X-34.820 Y-16.445 E0.81360
G1 X-34.660 Y-17.859 E0.85504
G1 X-34.312 Y-17.993 E0.86589
G1 F600.000 E0.16589
G1 Z0.400 F18000.000
G92 E0
G1 X-34.462 Y-14.836 F18000.000
;AAA selfz = 0.4, lifted = .2
G1 Z0.200 F18000.000
G1 E0.70000 F600.000
G1 X-34.206 Y-14.702 E0.70842 F2880.000
G1 X-33.578 Y-14.468 E0.72793
G1 X-33.059 Y-14.345 E0.74346
G1 X-32.998 Y-13.862 E0.75762
G1 X-33.471 Y-13.615 E0.77316
G1 X-34.021 Y-13.232 E0.79267
G1 X-34.237 Y-13.037 E0.80115
G1 X-34.636 Y-13.185 E0.81352
G1 X-34.811 Y-14.595 E0.85489
G1 X-34.505 Y-14.807 E0.86571
G1 F600.000 E0.16571
G1 Z0.400 F18000.000
G92 E0
G1 X-33.903 Y-11.709 F18000.000
;AAA selfz = 0.4, lifted = .2
G1 Z0.200 F18000.000
G1 E0.70000 F600.000
G1 X-33.621 Y-11.640 E0.70847 F2880.000
G1 X-32.955 Y-11.562 E0.72798
G1 X-32.421 Y-11.568 E0.74351
G1 X-32.246 Y-11.113 E0.75768
G1 X-32.646 Y-10.760 E0.77321
G1 X-33.089 Y-10.256 E0.79272
G1 X-33.251 Y-10.016 E0.80117
G1 X-33.673 Y-10.064 E0.81352
G1 X-34.184 Y-11.391 E0.85490
G1 X-33.938 Y-11.670 E0.86574
G1 F600.000 E0.16574
G1 Z0.400 F18000.000
G92 E0
G1 X-32.608 Y-8.806 F18000.000
;AAA selfz = 0.4, lifted = .2
G1 Z0.200 F18000.000
G1 E0.70000 F600.000
G1 X-32.319 Y-8.806 E0.70840 F2880.000
G1 X-31.654 Y-8.890 E0.72791
G1 X-31.137 Y-9.023 E0.74344
G1 X-30.859 Y-8.624 E0.75761
G1 X-31.162 Y-8.185 E0.77314
G1 X-31.471 Y-7.590 E0.79265
G1 X-31.572 Y-7.318 E0.80108
G1 X-31.993 Y-7.264 E0.81344
G1 X-32.805 Y-8.430 E0.85478
G1 X-32.632 Y-8.759 E0.86560
G1 F600.000 E0.16560
G1 Z0.400 F18000.000
G92 E0
G1 X-30.643 Y-6.301 F18000.000
;AAA selfz = 0.4, lifted = .2
G1 Z0.200 F18000.000
G1 E0.70000 F600.000
G1 X-30.377 Y-6.366 E0.70796 F2880.000
G1 X-29.752 Y-6.607 E0.72747
G1 X-29.282 Y-6.860 E0.74300
G1 X-28.916 Y-6.539 E0.75716
G1 X-29.106 Y-6.040 E0.77269
G1 X-29.263 Y-5.388 E0.79220
G1 X-29.294 Y-5.116 E0.80019
G1 X-29.690 Y-4.962 E0.81256
G1 X-30.744 Y-5.888 E0.85338
G1 X-30.655 Y-6.250 E0.86421
G1 F600.000 E0.16421
G1 Z0.400 F18000.000
G92 E0
G1 X-28.204 Y-4.306 F18000.000
;AAA selfz = 0.4, lifted = .2
G1 Z0.200 F18000.000
G1 E0.70000 F600.000
G1 X-27.908 Y-4.462 E0.70974 F2880.000
G1 X-27.358 Y-4.846 E0.72925
G1 X-26.962 Y-5.204 E0.74478
G1 X-26.530 Y-4.979 E0.75895
G1 X-26.595 Y-4.450 E0.77448
G1 X-26.592 Y-3.779 E0.79399
G1 X-26.537 Y-3.357 E0.80637
G1 X-26.903 Y-3.116 E0.81914
G1 X-28.215 Y-3.895 E0.86356
G1 X-28.206 Y-4.254 E0.87399
G1 F600.000 E0.17399
G1 Z0.400 F18000.000
G92 E0
G1 X32.169 Y20.186 F18000.000
;AAA selfz = 0.4, lifted = .2
G1 Z0.200 F18000.000
G1 E0.70000 F600.000
G1 X32.499 Y19.861 E0.71349 F2880.000
G1 X32.629 Y19.648 E0.72075
G1 X32.765 Y19.296 E0.73172
G1 X32.824 Y18.999 E0.74053
G1 X33.269 Y18.898 E0.75381
G1 X34.155 Y20.092 E0.79707
G1 X33.930 Y20.488 E0.81034
G1 X33.630 Y20.460 E0.81911
G1 X33.249 Y20.489 E0.83022
G1 X32.946 Y20.579 E0.83944
G1 X32.607 Y20.770 E0.85077
G1 X32.348 Y20.715 E0.85846
G1 X32.149 Y20.447 E0.86818
G1 X32.165 Y20.238 E0.87428
G1 F600.000 E0.17428
G1 Z0.400 F18000.000
G92 E0
G1 X33.218 Y22.586 F18000.000
;AAA selfz = 0.4, lifted = .2
G1 Z0.200 F18000.000
G1 E0.70000 F600.000
G1 X33.676 Y22.518 E0.71349 F2880.000
G1 X33.906 Y22.421 E0.72075
G1 X34.223 Y22.216 E0.73172
G1 X34.440 Y22.015 E0.74034
G1 X34.859 Y22.195 E0.75361
G1 X34.877 Y23.674 E0.79666
G1 X34.462 Y23.863 E0.80994
G1 X34.239 Y23.667 E0.81859
G1 X33.914 Y23.467 E0.82970
G1 X33.615 Y23.361 E0.83892
G1 X33.228 Y23.316 E0.85025
G1 X33.052 Y23.120 E0.85794
G1 X33.048 Y22.786 E0.86766
G1 X33.184 Y22.626 E0.87376
G1 F600.000 E0.17376
G1 Z0.400 F18000.000
G92 E0
G1 X32.656 Y25.144 F18000.000
;AAA selfz = 0.4, lifted = .2
G1 Z0.200 F18000.000
G1 E0.70000 F600.000
G1 X33.067 Y25.358 E0.71349 F2880.000
G1 X33.310 Y25.416 E0.72075
G1 X33.686 Y25.436 E0.73172
G1 X33.979 Y25.401 E0.74032
G1 X34.213 Y25.793 E0.75359
G1 X33.358 Y26.999 E0.79660
G1 X32.911 Y26.907 E0.80988
G1 X32.847 Y26.619 E0.81849
G1 X32.701 Y26.266 E0.82960
G1 X32.521 Y26.005 E0.83882
G1 X32.235 Y25.741 E0.85015
G1 X32.207 Y25.478 E0.85784
G1 X32.401 Y25.206 E0.86756
G1 X32.604 Y25.157 E0.87366
G1 F600.000 E0.17366
G1 Z0.400 F18000.000
G92 E0
G1 X30.366 Y19.184 F18000.000
