; generated by Slic3r 0.9.11-dev on 2013-09-21 at 15:39:34

; layer_height = .3
; perimeters = 1
; top_solid_layers = 2
; bottom_solid_layers = 2
; fill_density = 0.10
; perimeter_speed = 60
; infill_speed = 85
; travel_speed = 300
; nozzle_diameter = 0.35
; filament_diameter = 1.75
; extrusion_multiplier = 1
; perimeters extrusion width = 0.35mm
; infill extrusion width = 0.37mm
; solid infill extrusion width = 0.37mm
; top infill extrusion width = 0.37mm

G21 ; set units to millimeters
M107
G28
G92 X0 Y0 Z0 E0
G1 F5000 Y30 X30
G1 X220
G1 F100 E10
G28
G92 X0 Y0 Z0
G1 F4000 X101 Y127
G92 X0 Y0 Z0 E0
M106 S255
G90 ; use absolute coordinates
G92 E0
M82 ; use absolute distances for extrusion
G1 F600.000 E-0.70000
G1 Z0.400 F18000.000
G92 E0
G1 X-0.521 Y-22.086 F18000.000
;AAA selfz = 0.4, lifted = .2
G1 Z0.200 F18000.000
G1 E0.70000 F600.000
G1 X31.559 Y-21.676 E1.63369 F2880.000
G1 X35.739 Y-20.396 E1.76091
G1 X39.549 Y-18.356 E1.88669
G1 X42.869 Y-15.636 E2.01159
G1 X45.619 Y-12.276 E2.13796
G1 X47.659 Y-8.456 E2.26399
G1 X48.889 Y-4.386 E2.38773
G1 X49.319 Y-0.086 E2.51349
G1 X48.889 Y4.274 E2.64099
G1 X47.659 Y8.344 E2.76473
G1 X45.619 Y12.164 E2.89076
G1 X42.869 Y15.524 E3.01712
G1 X39.489 Y18.284 E3.14412
G1 X35.739 Y20.284 E3.26781
G1 X31.579 Y21.554 E3.39439
G1 X29.429 Y21.984 E3.45820
G1 X-31.561 Y22.084 E5.23317
G1 X-35.711 Y21.004 E5.35797
G1 X-39.571 Y19.104 E5.48318
G1 X-42.851 Y16.324 E5.60831
G1 X-46.191 Y12.214 E5.76243
G1 X-46.251 Y12.114 E5.76583
G1 X-47.651 Y8.364 E5.88232
G1 X-48.901 Y4.244 E6.00762
G1 X-49.321 Y-0.026 E6.13249
G1 X-48.911 Y-4.316 E6.25791
G1 X-47.631 Y-8.516 E6.38569
G1 X-45.591 Y-12.326 E6.51146
G1 X-42.871 Y-15.636 E6.63615
G1 X-39.501 Y-18.396 E6.76292
G1 X-35.751 Y-20.396 E6.88660
G1 X-31.571 Y-21.676 E7.01383
G1 X-0.573 Y-22.086 E7.91601
G1 X-0.515 Y-23.136 F18000.000
G1 X31.701 Y-22.718 E8.85365 F2880.000
G1 X31.895 Y-22.673 E8.85947
G1 X35.989 Y-21.419 E8.98407
G1 X36.211 Y-21.335 E8.99098
G1 X39.997 Y-19.315 E9.11585
G1 X40.144 Y-19.221 E9.12095
G1 X43.569 Y-16.421 E9.24968
G1 X46.489 Y-12.866 E9.38358
G1 X48.628 Y-8.863 E9.51566
G1 X49.921 Y-4.584 E9.64576
G1 X50.369 Y-0.101 E9.77687
G1 X49.921 Y4.472 E9.91060
G1 X48.628 Y8.751 E10.04069
G1 X46.489 Y12.754 E10.17278
G1 X43.655 Y16.224 E10.30317
G1 X40.144 Y19.109 E10.43541
G1 X39.997 Y19.203 E10.44051
G1 X36.177 Y21.238 E10.56645
G1 X31.867 Y22.564 E10.69770
G1 X29.647 Y23.012 E10.76359
G1 X29.467 Y23.034 E10.76889
G1 X-31.634 Y23.132 E12.54709
G1 X-31.867 Y23.092 E12.55396
G1 X-36.082 Y21.987 E12.68076
G1 X-40.073 Y20.027 E12.81018
G1 X-40.222 Y19.929 E12.81536
G1 X-43.606 Y17.054 E12.94458
G1 X-47.019 Y12.859 E13.10198
G1 X-47.225 Y12.507 E13.11383
G1 X-48.654 Y8.680 E13.23274
G1 X-49.935 Y4.437 E13.36173
G1 X-50.371 Y-0.101 E13.49439
G1 X-49.942 Y-4.517 E13.62352
G1 X-48.606 Y-8.907 E13.75706
G1 X-46.550 Y-12.773 E13.88450
G1 X-46.456 Y-12.921 E13.88960
G1 X-43.570 Y-16.421 E14.02162
G1 X-40.156 Y-19.221 E14.15012
G1 X-40.008 Y-19.315 E14.15522
G1 X-36.222 Y-21.335 E14.28010
G1 X-36.001 Y-21.419 E14.28700
G1 X-31.907 Y-22.673 E14.41161
G1 X-31.712 Y-22.718 E14.41742
G1 X-1.130 Y-23.129 E15.30751
G1 X-1.095 Y-23.143 E15.30861
G1 X-0.568 Y-23.137 E15.32397
G1 X-0.517 Y-22.786 F18000.000
G1 X31.651 Y-22.371 E16.26022 F2880.000
G1 X36.052 Y-21.022 E16.39420
G1 X39.947 Y-18.932 E16.52282
G1 X43.334 Y-16.162 E16.65018
G1 X46.200 Y-12.668 E16.78171
G1 X48.306 Y-8.726 E16.91177
G1 X49.577 Y-4.520 E17.03963
G1 X50.019 Y-0.097 E17.16900
G1 X49.577 Y4.408 E17.30074
G1 X48.306 Y8.613 E17.42859
G1 X46.200 Y12.555 E17.55865
G1 X43.395 Y15.988 E17.68768
G1 X39.947 Y18.820 E17.81754
G1 X36.033 Y20.920 E17.94680
G1 X31.772 Y22.227 E18.07650
G1 X29.456 Y22.684 E18.14520
G1 X-31.608 Y22.783 E19.92233
G1 X-31.781 Y22.753 E19.92744
G1 X-35.960 Y21.659 E20.05315
G1 X-39.907 Y19.718 E20.18116
G1 X-40.003 Y19.655 E20.18451
G1 X-43.353 Y16.813 E20.31236
G1 X-46.744 Y12.643 E20.46875
G1 X-46.900 Y12.378 E20.47772
G1 X-48.320 Y8.572 E20.59594
G1 X-49.578 Y4.422 E20.72214
G1 X-49.606 Y4.288 E20.72613
G1 X-50.021 Y-0.097 E20.85430
G1 X-49.598 Y-4.451 E20.98162
G1 X-48.281 Y-8.776 E21.11318
G1 X-46.167 Y-12.723 E21.24351
G1 X-43.335 Y-16.162 E21.37314
G1 X-39.958 Y-18.932 E21.50026
G1 X-36.064 Y-21.022 E21.62889
G1 X-31.662 Y-22.371 E21.76287
G1 X-0.570 Y-22.787 E22.66782
G1 X-0.520 Y-22.436 F18000.000
G1 X31.584 Y-22.026 E23.60220 F2880.000
G1 X35.867 Y-20.722 E23.73250
G1 X39.763 Y-18.633 E23.86114
G1 X43.135 Y-15.865 E23.98811
G1 X45.912 Y-12.469 E24.11577
G1 X47.984 Y-8.588 E24.24382
G1 X49.233 Y-4.456 E24.36943
G1 X49.669 Y-0.093 E24.49706
G1 X49.233 Y4.344 E24.62681
G1 X47.984 Y8.476 E24.75242
G1 X45.889 Y12.388 E24.88158
G1 X43.098 Y15.790 E25.00962
G1 X39.674 Y18.581 E25.13818
G1 X35.860 Y20.613 E25.26394
G1 X31.677 Y21.890 E25.39124
G1 X29.445 Y22.334 E25.45746
G1 X-31.582 Y22.434 E27.23353
G1 X-35.838 Y21.330 E27.36147
G1 X-39.741 Y19.410 E27.48807
G1 X-43.100 Y16.571 E27.61607
G1 X-46.468 Y12.427 E27.77146
G1 X-46.574 Y12.248 E27.77754
G1 X-47.987 Y8.464 E27.89507
G1 X-49.239 Y4.334 E28.02068
G1 X-49.671 Y-0.020 E28.14800
G1 X-49.254 Y-4.385 E28.27562
G1 X-47.957 Y-8.644 E28.40519
G1 X-45.878 Y-12.526 E28.53333
G1 X-43.100 Y-15.902 E28.66058
G1 X-39.760 Y-18.644 E28.78633
G1 X-35.906 Y-20.710 E28.91361
G1 X-31.612 Y-22.024 E29.04428
G1 X-0.572 Y-22.437 E29.94771
G1 X-0.580 Y-21.560 F18000.000
G1 X31.489 Y-21.145 E30.88108 F2592.000
G1 X35.517 Y-19.923 E31.00358
G1 X39.235 Y-17.935 E31.12629
G1 X42.495 Y-15.260 E31.24901
G1 X45.170 Y-12.001 E31.37172
G1 X47.158 Y-8.282 E31.49444
G1 X48.382 Y-4.247 E31.61715
G1 X48.795 Y-0.051 E31.73986
G1 X48.382 Y4.146 E31.86258
G1 X47.158 Y8.181 E31.98529
G1 X45.170 Y11.899 E32.10801
G1 X42.495 Y15.159 E32.23072
G1 X39.235 Y17.834 E32.35343
G1 X35.517 Y19.821 E32.47615
G1 X31.474 Y21.048 E32.59911
G1 X29.384 Y21.460 E32.66110
G1 X-0.518 Y21.460 E33.53133
G1 X-31.494 Y21.561 E34.43280
G1 X-35.523 Y20.510 E34.55398
G1 X-39.237 Y18.696 E34.67427
G1 X-42.494 Y15.937 E34.79848
G1 X-45.767 Y11.909 E34.94953
G1 X-47.154 Y8.192 E35.06500
G1 X-48.382 Y4.146 E35.18806
G1 X-48.795 Y-0.051 E35.31077
G1 X-48.382 Y-4.247 E35.43349
G1 X-47.158 Y-8.282 E35.55620
G1 X-45.170 Y-12.001 E35.67891
G1 X-42.495 Y-15.260 E35.80163
G1 X-39.235 Y-17.935 E35.92434
G1 X-35.517 Y-19.923 E36.04706
G1 X-31.489 Y-21.145 E36.16955
G1 X-0.633 Y-21.559 E37.06763
G1 F600.000 E36.36763
G1 Z0.400 F18000.000
G92 E0
G1 X-0.578 Y21.110 F18000.000
;AAA selfz = 0.4, lifted = .2
G1 Z0.200 F18000.000
G1 E0.70000 F600.000
G1 X-31.449 Y21.211 E1.59843 F2880.000
G1 X-35.401 Y20.180 E1.71727
G1 X-39.044 Y18.400 E1.83527
G1 X-42.243 Y15.691 E1.95727
G1 X-45.459 Y11.733 E2.10570
G1 X-46.822 Y8.080 E2.21918
G1 X-48.037 Y4.077 E2.34091
G1 X-48.443 Y-0.051 E2.46162
G1 X-48.037 Y-4.178 E2.58232
G1 X-46.833 Y-8.147 E2.70303
G1 X-44.878 Y-11.805 E2.82374
G1 X-42.246 Y-15.012 E2.94445
G1 X-39.040 Y-17.643 E3.06516
G1 X-35.382 Y-19.598 E3.18586
G1 X-31.435 Y-20.795 E3.30591
G1 X-0.518 Y-21.211 E4.20575
G1 X31.435 Y-20.795 E5.13574
G1 X35.382 Y-19.598 E5.25579
G1 X39.040 Y-17.643 E5.37650
G1 X42.246 Y-15.012 E5.49720
G1 X44.877 Y-11.805 E5.61791
G1 X46.833 Y-8.147 E5.73862
G1 X48.037 Y-4.178 E5.85933
G1 X48.443 Y-0.051 E5.98003
G1 X48.037 Y4.077 E6.10074
G1 X46.833 Y8.046 E6.22145
G1 X44.877 Y11.704 E6.34216
G1 X42.246 Y14.910 E6.46286
G1 X39.040 Y17.541 E6.58357
G1 X35.382 Y19.497 E6.70428
G1 X31.389 Y20.708 E6.82573
G1 X29.350 Y21.110 E6.88622
G1 X-0.526 Y21.110 E7.75567
G1 F600.000 E7.05567
G1 Z0.400 F18000.000
G92 E0
G1 X25.824 Y16.267 F18000.000
G1 X-0.518 Y15.942 F18000.000
;AAA selfz = 0.4, lifted = .2
G1 Z0.200 F18000.000
G1 E0.70000 F600.000
G1 X-27.772 Y16.016 E1.49317 F2592.000
G1 X-31.379 Y15.235 E1.60059
G1 X-34.706 Y13.886 E1.70506
G1 X-37.623 Y11.835 E1.80883
G1 X-40.556 Y8.837 E1.93089
G1 X-41.801 Y6.068 E2.01924
G1 X-42.895 Y3.076 E2.11196
G1 X-43.266 Y-0.051 E2.20359
G1 X-42.895 Y-3.177 E2.29523
G1 X-41.797 Y-6.182 E2.38833
G1 X-40.016 Y-8.949 E2.48408
G1 X-37.621 Y-11.371 E2.58319
G1 X-34.707 Y-13.356 E2.68582
G1 X-31.385 Y-14.830 E2.79160
G1 X-27.776 Y-15.739 E2.89990
G1 X-0.518 Y-16.043 E3.69323
G1 X27.650 Y-15.739 E4.51305
G1 X31.259 Y-14.830 E4.62136
G1 X34.581 Y-13.356 E4.72714
G1 X37.496 Y-11.371 E4.82976
G1 X39.890 Y-8.949 E4.92888
G1 X41.671 Y-6.182 E5.02463
G1 X42.769 Y-3.177 E5.11773
G1 X43.140 Y-0.051 E5.20937
G1 X42.769 Y3.076 E5.30100
G1 X41.671 Y6.081 E5.39410
G1 X39.890 Y8.847 E5.48985
G1 X37.496 Y11.269 E5.58897
G1 X34.581 Y13.255 E5.69159
G1 X31.259 Y14.729 E5.79737
G1 X27.663 Y15.635 E5.90529
G1 X25.783 Y15.942 E5.96073
G1 X-0.465 Y15.942 E6.72463
G1 X-0.517 Y16.292 F18000.000
G1 X-27.809 Y16.366 E7.51889 F2880.000
G1 X-31.483 Y15.570 E7.62829
G1 X-34.875 Y14.195 E7.73480
G1 X-37.850 Y12.103 E7.84067
G1 X-40.850 Y9.038 E7.96548
G1 X-42.126 Y6.200 E8.05601
G1 X-43.237 Y3.158 E8.15029
G1 X-43.618 Y-0.051 E8.24432
G1 X-43.237 Y-3.259 E8.33835
G1 X-42.112 Y-6.339 E8.43377
G1 X-40.290 Y-9.169 E8.53172
G1 X-37.847 Y-11.641 E8.63288
G1 X-34.878 Y-13.663 E8.73742
G1 X-31.499 Y-15.162 E8.84499
G1 X-27.821 Y-16.089 E8.95537
G1 X-0.518 Y-16.393 E9.75002
G1 X27.696 Y-16.089 E10.57116
G1 X31.374 Y-15.162 E10.68154
G1 X34.752 Y-13.663 E10.78911
G1 X37.721 Y-11.641 E10.89365
G1 X40.164 Y-9.169 E10.99481
G1 X41.986 Y-6.339 E11.09276
G1 X43.112 Y-3.259 E11.18818
G1 X43.492 Y-0.051 E11.28221
G1 X43.112 Y3.158 E11.37624
G1 X41.986 Y6.238 E11.47167
G1 X40.164 Y9.067 E11.56961
G1 X37.721 Y11.539 E11.67077
G1 X34.752 Y13.562 E11.77531
G1 X31.374 Y15.061 E11.88288
G1 X27.734 Y15.978 E11.99210
G1 X25.812 Y16.292 E12.04880
G1 X-0.465 Y16.292 E12.81352
G1 F600.000 E12.11352
G1 Z0.400 F18000.000
G92 E0
G1 X25.824 Y16.267 F18000.000
G1 X-32.260 Y15.513 F18000.000
;AAA selfz = 0.4, lifted = .2
G1 Z0.200 F18000.000
G1 E0.70000 F600.000
G1 X-26.816 Y20.957 E0.93342 F3840.000
G1 X-26.302 Y20.955 E0.94900
G1 X-31.432 Y15.825 E1.16893
G1 X-30.774 Y15.968 E1.18934
G1 X-25.788 Y20.954 E1.40309
G1 X-25.274 Y20.952 E1.41866
G1 X-30.115 Y16.111 E1.62623
G1 X-29.457 Y16.253 E1.64664
G1 X-24.760 Y20.950 E1.84802
G1 X-24.246 Y20.949 E1.86360
G1 X-28.799 Y16.396 E2.05879
G1 X-28.141 Y16.538 E2.07921
G1 X-23.732 Y20.947 E2.26822
G1 X-23.218 Y20.945 E2.28380
G1 X-27.560 Y16.604 E2.46992
G1 X-27.046 Y16.603 E2.48551
G1 X-22.704 Y20.944 E2.67162
G1 X-22.191 Y20.942 E2.68720
G1 X-26.531 Y16.601 E2.87329
G1 X-26.017 Y16.600 E2.88888
G1 X-21.677 Y20.940 E3.07497
G1 X-21.163 Y20.939 E3.09054
G1 X-25.503 Y16.598 E3.27662
G1 X-24.989 Y16.597 E3.29221
G1 X-20.649 Y20.937 E3.47827
G1 X-20.135 Y20.935 E3.49385
G1 X-24.475 Y16.596 E3.67989
G1 X-23.960 Y16.594 E3.69548
G1 X-19.621 Y20.934 E3.88152
G1 X-19.107 Y20.932 E3.89710
G1 X-23.446 Y16.593 E4.08312
G1 X-22.932 Y16.591 E4.09871
G1 X-18.593 Y20.930 E4.28472
G1 X-18.079 Y20.928 E4.30030
G1 X-22.418 Y16.590 E4.48630
G1 X-21.904 Y16.589 E4.50189
G1 X-17.565 Y20.927 E4.68787
G1 X-17.051 Y20.925 E4.70345
G1 X-21.389 Y16.587 E4.88943
G1 X-20.875 Y16.586 E4.90502
G1 X-16.538 Y20.923 E5.09098
G1 X-16.024 Y20.922 E5.10656
G1 X-20.361 Y16.584 E5.29251
G1 X-19.847 Y16.583 E5.30810
G1 X-15.510 Y20.920 E5.49403
G1 X-14.996 Y20.918 E5.50961
G1 X-19.333 Y16.582 E5.69554
G1 X-18.818 Y16.580 E5.71113
G1 X-14.482 Y20.917 E5.89704
G1 X-13.968 Y20.915 E5.91262
G1 X-18.304 Y16.579 E6.09852
G1 X-17.790 Y16.577 E6.11411
G1 X-13.454 Y20.913 E6.30000
G1 X-12.940 Y20.912 E6.31558
G1 X-17.276 Y16.576 E6.50146
G1 X-16.762 Y16.575 E6.51705
G1 X-12.426 Y20.910 E6.70291
G1 X-11.912 Y20.908 E6.71849
G1 X-16.247 Y16.573 E6.90434
G1 X-15.733 Y16.572 E6.91993
G1 X-11.398 Y20.907 E7.10577
G1 X-10.884 Y20.905 E7.12135
G1 X-15.219 Y16.570 E7.30718
G1 X-14.705 Y16.569 E7.32277
G1 X-10.371 Y20.903 E7.50858
G1 X-9.857 Y20.902 E7.52416
G1 X-14.191 Y16.568 E7.70997
G1 X-13.676 Y16.566 E7.72555
G1 X-9.343 Y20.900 E7.91135
G1 X-8.829 Y20.898 E7.92693
G1 X-13.162 Y16.565 E8.11271
G1 X-12.648 Y16.563 E8.12829
G1 X-8.315 Y20.897 E8.31406
G1 X-7.801 Y20.895 E8.32964
G1 X-12.134 Y16.562 E8.51540
G1 X-11.620 Y16.561 E8.53098
G1 X-7.287 Y20.893 E8.71673
G1 X-6.773 Y20.891 E8.73231
G1 X-11.105 Y16.559 E8.91804
G1 X-10.591 Y16.558 E8.93362
G1 X-6.259 Y20.890 E9.11934
G1 X-5.745 Y20.888 E9.13492
G1 X-10.077 Y16.556 E9.32063
G1 X-9.563 Y16.555 E9.33622
G1 X-5.231 Y20.886 E9.52191
G1 X-4.717 Y20.885 E9.53749
G1 X-9.049 Y16.554 E9.72317
G1 X-8.534 Y16.552 E9.73876
G1 X-4.204 Y20.883 E9.92443
G1 X-3.690 Y20.881 E9.94001
G1 X-8.020 Y16.551 E10.12567
G1 X-7.506 Y16.549 E10.14126
G1 X-3.176 Y20.880 E10.32690
G1 X-2.662 Y20.878 E10.34248
G1 X-6.992 Y16.548 E10.52811
G1 X-6.478 Y16.547 E10.54370
G1 X-2.148 Y20.876 E10.72932
G1 X-1.634 Y20.875 E10.74490
G1 X-5.963 Y16.545 E10.93051
G1 X-5.449 Y16.544 E10.94610
G1 X-1.120 Y20.873 E11.13169
G1 X-0.606 Y20.871 E11.14727
G1 X-4.935 Y16.543 E11.33286
G1 X-4.421 Y16.541 E11.34845
G1 X-0.091 Y20.871 E11.53408
G1 X0.425 Y20.871 E11.54971
G1 X-3.907 Y16.540 E11.73540
G1 X-3.392 Y16.538 E11.75099
G1 X0.940 Y20.871 E11.93674
G1 X1.456 Y20.871 E11.95237
G1 X-2.878 Y16.537 E12.13818
G1 X-2.364 Y16.536 E12.15377
G1 X1.972 Y20.871 E12.33964
G1 X2.487 Y20.871 E12.35527
G1 X-1.850 Y16.534 E12.54120
G1 X-1.336 Y16.533 E12.55679
G1 X3.003 Y20.871 E12.74278
G1 X3.518 Y20.871 E12.75841
G1 X-0.821 Y16.531 E12.94446
G1 X-0.307 Y16.531 E12.96007
G1 X4.034 Y20.871 E13.14616
G1 X4.549 Y20.871 E13.16179
G1 X0.209 Y16.531 E13.34787
G1 X0.725 Y16.531 E13.36350
G1 X5.065 Y20.871 E13.54959
G1 X5.581 Y20.871 E13.56522
G1 X1.240 Y16.531 E13.75131
G1 X1.756 Y16.531 E13.76694
G1 X6.096 Y20.871 E13.95302
G1 X6.612 Y20.871 E13.96865
G1 X2.271 Y16.531 E14.15474
G1 X2.787 Y16.531 E14.17037
G1 X7.127 Y20.871 E14.35646
G1 X7.643 Y20.871 E14.37209
G1 X3.303 Y16.531 E14.55817
G1 X3.818 Y16.531 E14.57380
G1 X8.159 Y20.871 E14.75989
G1 X8.674 Y20.871 E14.77552
G1 X4.334 Y16.531 E14.96161
G1 X4.849 Y16.531 E14.97724
G1 X9.190 Y20.871 E15.16333
G1 X9.705 Y20.871 E15.17896
G1 X5.365 Y16.531 E15.36504
G1 X5.881 Y16.531 E15.38067
G1 X10.221 Y20.871 E15.56676
G1 X10.737 Y20.871 E15.58239
G1 X6.396 Y16.531 E15.76848
G1 X6.912 Y16.531 E15.78411
G1 X11.252 Y20.871 E15.97019
G1 X11.768 Y20.871 E15.98582
G1 X7.427 Y16.531 E16.17191
G1 X7.943 Y16.531 E16.18754
G1 X12.283 Y20.871 E16.37363
G1 X12.799 Y20.871 E16.38926
G1 X8.458 Y16.531 E16.57534
G1 X8.974 Y16.531 E16.59097
G1 X13.315 Y20.871 E16.77706
G1 X13.830 Y20.871 E16.79269
G1 X9.490 Y16.531 E16.97878
G1 X10.005 Y16.531 E16.99441
G1 X14.346 Y20.871 E17.18049
G1 X14.861 Y20.871 E17.19612
G1 X10.521 Y16.531 E17.38221
G1 X11.036 Y16.531 E17.39784
G1 X15.377 Y20.871 E17.58393
G1 X15.893 Y20.871 E17.59956
G1 X11.552 Y16.531 E17.78564
G1 X12.068 Y16.531 E17.80127
G1 X16.408 Y20.871 E17.98736
G1 X16.924 Y20.871 E18.00299
G1 X12.583 Y16.531 E18.18908
G1 X13.099 Y16.531 E18.20471
G1 X17.439 Y20.871 E18.39079
G1 X17.955 Y20.871 E18.40643
G1 X13.614 Y16.531 E18.59251
G1 X14.130 Y16.531 E18.60814
G1 X18.471 Y20.871 E18.79423
G1 X18.986 Y20.871 E18.80986
G1 X14.646 Y16.531 E18.99595
G1 X15.161 Y16.531 E19.01158
G1 X19.502 Y20.871 E19.19766
G1 X20.017 Y20.871 E19.21329
G1 X15.677 Y16.531 E19.39938
G1 X16.192 Y16.531 E19.41501
G1 X20.533 Y20.871 E19.60110
G1 X21.049 Y20.871 E19.61673
G1 X16.708 Y16.531 E19.80281
G1 X17.224 Y16.531 E19.81844
G1 X21.564 Y20.871 E20.00453
G1 X22.080 Y20.871 E20.02016
G1 X17.739 Y16.531 E20.20625
G1 X18.255 Y16.531 E20.22188
G1 X22.595 Y20.871 E20.40796
G1 X23.111 Y20.871 E20.42359
G1 X18.770 Y16.531 E20.60968
G1 X19.286 Y16.531 E20.62531
G1 X23.627 Y20.871 E20.81140
G1 X24.142 Y20.871 E20.82703
G1 X19.802 Y16.531 E21.01311
G1 X20.317 Y16.531 E21.02874
G1 X24.658 Y20.871 E21.21483
G1 X25.173 Y20.871 E21.23046
G1 X20.833 Y16.531 E21.41655
G1 X21.348 Y16.531 E21.43218
G1 X25.689 Y20.871 E21.61826
G1 X26.204 Y20.871 E21.63389
G1 X21.864 Y16.531 E21.81998
G1 X22.380 Y16.531 E21.83561
G1 X26.720 Y20.871 E22.02170
G1 X27.236 Y20.871 E22.03733
G1 X22.895 Y16.531 E22.22342
G1 X23.411 Y16.531 E22.23905
G1 X27.751 Y20.871 E22.42513
G1 X28.267 Y20.871 E22.44076
G1 X23.926 Y16.531 E22.62685
