; generated by Slic3r 0.9.11-dev on 2013-09-20 at 22:18:39

; layer_height = 0.3
; perimeters = 2
; top_solid_layers = 0
; bottom_solid_layers = 2
; fill_density = .12
; perimeter_speed = 60
; infill_speed = 80
; travel_speed = 300
; nozzle_diameter = 0.35
; filament_diameter = 1.75
; extrusion_multiplier = 1
; perimeters extrusion width = 0.35mm
; infill extrusion width = 0.37mm
; solid infill extrusion width = 0.37mm
; top infill extrusion width = 0.37mm

G21 ; set units to millimeters
M107
G28
G92 X0 Y0 Z0 E0
G1 F5000 Y30 X30
G1 X220
G1 F100 E10
G28
G92 X0 Y0 Z0
G1 F4000 X101 Y127
G92 X0 Y0 Z0 E0
M106 S255
G90 ; use absolute coordinates
G92 E0
M82 ; use absolute distances for extrusion
G1 F600.000 E-0.70000
G1 Z0.400 F18000.000
G92 E0
G1 X-0.521 Y22.084 F18000.000
;AAA selfz = 0.4, lifted = .2
G1 Z0.200 F18000.000
G1 E0.70000 F600.000
G1 X-31.571 Y21.664 E1.60372 F2880.000
G1 X-35.761 Y20.394 E1.73114
G1 X-39.511 Y18.384 E1.85496
G1 X-42.871 Y15.634 E1.98132
G1 X-45.591 Y12.314 E2.10623
G1 X-47.631 Y8.504 E2.23200
G1 X-48.911 Y4.304 E2.35978
G1 X-49.321 Y0.014 E2.48520
G1 X-48.901 Y-4.256 E2.61007
G1 X-47.651 Y-8.376 E2.73537
G1 X-46.251 Y-12.126 E2.85186
G1 X-46.191 Y-12.226 E2.85526
G1 X-42.851 Y-16.336 E3.00939
G1 X-39.571 Y-19.116 E3.13452
G1 X-35.691 Y-21.016 E3.26025
G1 X-31.561 Y-22.086 E3.38441
G1 X29.429 Y-21.986 E5.15938
G1 X31.579 Y-21.566 E5.22313
G1 X35.739 Y-20.296 E5.34972
G1 X39.489 Y-18.296 E5.47340
G1 X42.869 Y-15.536 E5.60040
G1 X45.619 Y-12.176 E5.72676
G1 X47.659 Y-8.356 E5.85279
G1 X48.889 Y-4.286 E5.97653
G1 X49.319 Y0.014 E6.10229
G1 X48.889 Y4.374 E6.22980
G1 X47.659 Y8.444 E6.35353
G1 X45.619 Y12.264 E6.47957
G1 X42.869 Y15.634 E6.60615
G1 X39.499 Y18.384 E6.73274
G1 X35.679 Y20.424 E6.85877
G1 X31.559 Y21.664 E6.98399
G1 X-0.468 Y22.083 E7.91615
G1 X-0.511 Y23.134 F18000.000
G1 X-31.747 Y22.700 E8.82528 F2880.000
G1 X-36.038 Y21.416 E8.95562
G1 X-36.223 Y21.337 E8.96149
G1 X-40.101 Y19.254 E9.08959
G1 X-43.570 Y16.419 E9.21998
G1 X-46.456 Y12.909 E9.35222
G1 X-46.550 Y12.761 E9.35732
G1 X-48.606 Y8.895 E9.48476
G1 X-49.942 Y4.505 E9.61830
G1 X-50.371 Y0.089 E9.74743
G1 X-49.935 Y-4.449 E9.88009
G1 X-48.654 Y-8.692 E10.00908
G1 X-47.225 Y-12.520 E10.12799
G1 X-47.019 Y-12.871 E10.13984
G1 X-43.606 Y-17.067 E10.29724
G1 X-40.222 Y-19.941 E10.42646
G1 X-40.073 Y-20.039 E10.43164
G1 X-36.062 Y-21.999 E10.56158
G1 X-32.228 Y-23.001 E10.67690
G1 X-32.147 Y-23.047 E10.67962
G1 X-32.056 Y-23.137 E10.68332
G1 X29.467 Y-23.036 E12.47381
G1 X31.865 Y-22.577 E12.54488
G1 X36.177 Y-21.251 E12.67618
G1 X39.997 Y-19.215 E12.80212
G1 X40.144 Y-19.121 E12.80722
G1 X43.655 Y-16.236 E12.93946
G1 X46.489 Y-12.766 E13.06985
G1 X48.628 Y-8.763 E13.20194
G1 X49.921 Y-4.484 E13.33203
G1 X50.369 Y0.089 E13.46576
G1 X49.921 Y4.572 E13.59687
G1 X48.628 Y8.851 E13.72697
G1 X46.489 Y12.854 E13.85905
G1 X43.569 Y16.419 E13.99317
G1 X40.089 Y19.254 E14.12379
G1 X36.212 Y21.337 E14.25189
G1 X36.026 Y21.416 E14.25776
G1 X31.736 Y22.700 E14.38809
G1 X-0.459 Y23.133 E15.32511
G1 X-0.515 Y22.784 F18000.000
G1 X-31.687 Y22.355 E16.23240 F2880.000
G1 X-35.924 Y21.085 E16.36113
G1 X-36.068 Y21.024 E16.36567
G1 X-39.902 Y18.965 E16.49233
G1 X-43.335 Y16.160 E16.62136
G1 X-46.167 Y12.711 E16.75122
G1 X-48.281 Y8.763 E16.88155
G1 X-49.598 Y4.439 E17.01310
G1 X-50.021 Y0.085 E17.14042
G1 X-49.606 Y-4.300 E17.26859
G1 X-49.578 Y-4.434 E17.27258
G1 X-48.320 Y-8.584 E17.39879
G1 X-46.900 Y-12.390 E17.51700
G1 X-46.744 Y-12.655 E17.52597
G1 X-43.353 Y-16.825 E17.68236
G1 X-40.003 Y-19.667 E17.81021
G1 X-39.907 Y-19.730 E17.81356
G1 X-35.940 Y-21.671 E17.94210
G1 X-32.048 Y-22.686 E18.05915
G1 X-31.912 Y-22.787 E18.06407
G1 X29.456 Y-22.686 E19.85005
G1 X31.771 Y-22.239 E19.91866
G1 X36.033 Y-20.932 E20.04839
G1 X39.947 Y-18.832 E20.17765
G1 X43.395 Y-16.000 E20.30751
G1 X46.200 Y-12.568 E20.43654
G1 X48.306 Y-8.626 E20.56660
G1 X49.577 Y-4.420 E20.69446
G1 X50.019 Y0.085 E20.82619
G1 X49.577 Y4.508 E20.95556
G1 X48.306 Y8.713 E21.08342
G1 X46.200 Y12.655 E21.21348
G1 X43.334 Y16.160 E21.34524
G1 X39.891 Y18.965 E21.47449
G1 X36.056 Y21.024 E21.60115
G1 X35.913 Y21.085 E21.60569
G1 X31.675 Y22.355 E21.73443
G1 X-0.462 Y22.783 E22.66979
G1 X-0.518 Y22.434 F18000.000
G1 X-31.627 Y22.010 E23.57522 F2880.000
G1 X-35.912 Y20.710 E23.70554
G1 X-39.704 Y18.676 E23.83077
G1 X-43.100 Y15.900 E23.95843
G1 X-45.878 Y12.514 E24.08591
G1 X-47.957 Y8.632 E24.21404
G1 X-49.254 Y4.373 E24.34361
G1 X-49.671 Y0.008 E24.47124
G1 X-49.239 Y-4.346 E24.59855
G1 X-47.987 Y-8.476 E24.72417
G1 X-46.574 Y-12.260 E24.84169
G1 X-46.468 Y-12.440 E24.84777
G1 X-43.100 Y-16.583 E25.00317
G1 X-39.741 Y-19.422 E25.13116
G1 X-35.818 Y-21.343 E25.25828
G1 X-31.868 Y-22.371 E25.37707
G1 X-31.768 Y-22.436 E25.38056
G1 X29.445 Y-22.336 E27.16202
G1 X31.676 Y-21.902 E27.22817
G1 X35.860 Y-20.625 E27.35548
G1 X39.674 Y-18.593 E27.48124
G1 X43.098 Y-15.802 E27.60981
G1 X45.889 Y-12.400 E27.73785
G1 X47.984 Y-8.488 E27.86701
G1 X49.233 Y-4.356 E27.99262
G1 X49.669 Y0.007 E28.12025
G1 X49.233 Y4.444 E28.25000
G1 X47.984 Y8.576 E28.37561
G1 X45.912 Y12.457 E28.50366
G1 X43.135 Y15.863 E28.63154
G1 X39.723 Y18.653 E28.75981
G1 X35.811 Y20.749 E28.88897
G1 X31.704 Y21.991 E29.01383
G1 X31.581 Y22.014 E29.01749
G1 X-0.465 Y22.433 E29.95020
G1 X-0.518 Y21.561 F18000.000
G1 X-31.489 Y21.145 E30.85161 F2880.000
G1 X-35.517 Y19.923 E30.97411
G1 X-39.235 Y17.935 E31.09682
G1 X-42.495 Y15.260 E31.21954
G1 X-45.170 Y12.001 E31.34225
G1 X-47.158 Y8.282 E31.46497
G1 X-48.382 Y4.247 E31.58768
G1 X-48.795 Y0.051 E31.71039
G1 X-48.382 Y-4.146 E31.83311
G1 X-47.154 Y-8.192 E31.95616
G1 X-45.767 Y-11.909 E32.07163
G1 X-42.494 Y-15.937 E32.22268
G1 X-39.237 Y-18.696 E32.34690
G1 X-35.523 Y-20.510 E32.46718
G1 X-31.494 Y-21.561 E32.58837
G1 X-0.518 Y-21.460 E33.48984
G1 X29.384 Y-21.460 E34.36007
G1 X31.474 Y-21.048 E34.42206
G1 X35.517 Y-19.821 E34.54502
G1 X39.235 Y-17.834 E34.66773
G1 X42.495 Y-15.159 E34.79045
G1 X45.170 Y-11.899 E34.91316
G1 X47.158 Y-8.181 E35.03587
G1 X48.382 Y-4.146 E35.15859
G1 X48.795 Y0.051 E35.28130
G1 X48.382 Y4.247 E35.40402
G1 X47.158 Y8.282 E35.52673
G1 X45.170 Y12.001 E35.64944
G1 X42.495 Y15.260 E35.77216
G1 X39.235 Y17.935 E35.89487
G1 X35.517 Y19.923 E36.01759
G1 X31.489 Y21.145 E36.14008
G1 X-0.466 Y21.560 E37.07012
G1 X-0.692 Y21.257 F18000.000
G1 F600.000 E36.37012
G1 Z0.400 F18000.000
G92 E0
G1 X-42.243 Y-15.691 F18000.000
;AAA selfz = 0.4, lifted = .2
G1 Z0.200 F18000.000
G1 E0.70000 F600.000
G1 X-39.044 Y-18.401 E0.82200 F2880.000
G1 X-35.401 Y-20.180 E0.93999
G1 X-31.449 Y-21.211 E1.05883
G1 X-0.519 Y-21.110 E1.95900
G1 X29.350 Y-21.110 E2.82825
G1 X31.389 Y-20.708 E2.88874
G1 X35.382 Y-19.497 E3.01018
G1 X39.040 Y-17.541 E3.13089
G1 X42.246 Y-14.910 E3.25160
G1 X44.877 Y-11.704 E3.37231
G1 X46.833 Y-8.046 E3.49301
G1 X48.037 Y-4.077 E3.61372
G1 X48.443 Y0.051 E3.73443
G1 X48.037 Y4.178 E3.85514
G1 X46.833 Y8.147 E3.97584
G1 X44.877 Y11.805 E4.09655
G1 X42.246 Y15.012 E4.21726
G1 X39.040 Y17.643 E4.33797
G1 X35.382 Y19.598 E4.45867
G1 X31.435 Y20.795 E4.57872
G1 X-0.518 Y21.211 E5.50871
G1 X-31.435 Y20.795 E6.40855
G1 X-35.382 Y19.598 E6.52860
G1 X-39.040 Y17.643 E6.64931
G1 X-42.246 Y15.012 E6.77002
G1 X-44.878 Y11.805 E6.89072
G1 X-46.833 Y8.147 E7.01143
G1 X-48.037 Y4.178 E7.13214
G1 X-48.443 Y0.051 E7.25285
G1 X-48.037 Y-4.077 E7.37355
G1 X-46.822 Y-8.080 E7.49529
G1 X-45.459 Y-11.733 E7.60876
G1 X-42.276 Y-15.651 E7.75567
G1 F600.000 E7.05567
G1 Z0.400 F18000.000
G92 E0
G1 X-37.623 Y-11.835 F18000.000
;AAA selfz = 0.4, lifted = .2
G1 Z0.200 F18000.000
G1 E0.70000 F600.000
G1 X-34.706 Y-13.886 E0.80377 F2880.000
G1 X-31.379 Y-15.235 E0.90824
G1 X-27.772 Y-16.016 E1.01566
G1 X-0.518 Y-15.942 E1.80883
G1 X25.783 Y-15.942 E2.57426
G1 X27.663 Y-15.635 E2.62969
G1 X31.259 Y-14.729 E2.73761
G1 X34.581 Y-13.255 E2.84339
G1 X37.496 Y-11.269 E2.94602
G1 X39.890 Y-8.847 E3.04513
G1 X41.671 Y-6.081 E3.14088
G1 X42.706 Y-3.247 E3.22869
G1 X42.749 Y-3.247 E3.22991
G1 X43.140 Y0.051 E3.32656
G1 X42.769 Y3.177 E3.41820
G1 X41.671 Y6.182 E3.51130
G1 X39.890 Y8.949 E3.60705
G1 X37.496 Y11.371 E3.70616
G1 X34.581 Y13.356 E3.80879
G1 X31.259 Y14.830 E3.91457
G1 X27.650 Y15.739 E4.02287
G1 X-0.518 Y16.043 E4.84269
G1 X-27.776 Y15.739 E5.63602
G1 X-31.385 Y14.830 E5.74433
G1 X-34.707 Y13.356 E5.85010
G1 X-37.621 Y11.371 E5.95273
G1 X-40.016 Y8.949 E6.05185
G1 X-41.797 Y6.182 E6.14760
G1 X-42.895 Y3.177 E6.24070
G1 X-43.266 Y0.051 E6.33233
G1 X-42.895 Y-3.076 E6.42397
G1 X-41.801 Y-6.068 E6.51669
G1 X-40.556 Y-8.837 E6.60504
G1 X-37.659 Y-11.797 E6.72557
G1 X-37.675 Y-12.181 F18000.000
G1 X-37.850 Y-12.103 F18000.000
G1 X-34.875 Y-14.195 E6.83144 F2880.000
G1 X-31.483 Y-15.570 E6.93795
G1 X-27.809 Y-16.366 E7.04736
G1 X-0.517 Y-16.292 E7.84161
G1 X25.812 Y-16.292 E8.60786
G1 X27.734 Y-15.978 E8.66455
G1 X31.374 Y-15.061 E8.77378
G1 X34.752 Y-13.562 E8.88135
G1 X37.721 Y-11.539 E8.98588
G1 X40.164 Y-9.067 E9.08704
G1 X41.986 Y-6.238 E9.18499
G1 X42.951 Y-3.597 E9.26680
G1 X43.060 Y-3.597 E9.26996
G1 X43.492 Y0.051 E9.37686
G1 X43.112 Y3.259 E9.47089
G1 X41.986 Y6.339 E9.56632
G1 X40.164 Y9.169 E9.66426
G1 X37.721 Y11.641 E9.76542
G1 X34.752 Y13.663 E9.86996
G1 X31.374 Y15.162 E9.97753
G1 X27.696 Y16.089 E10.08792
G1 X-0.518 Y16.393 E10.90906
G1 X-27.821 Y16.089 E11.70370
G1 X-31.499 Y15.162 E11.81409
G1 X-34.878 Y13.663 E11.92166
G1 X-37.847 Y11.641 E12.02619
G1 X-40.290 Y9.169 E12.12735
G1 X-42.112 Y6.339 E12.22530
G1 X-43.237 Y3.259 E12.32072
G1 X-43.618 Y0.051 E12.41476
G1 X-43.237 Y-3.158 E12.50879
G1 X-42.126 Y-6.200 E12.60306
G1 X-40.850 Y-9.038 E12.69359
G1 X-37.887 Y-12.065 E12.81687
G1 F600.000 E12.11687
G1 Z0.400 F18000.000
G92 E0
G1 X-43.007 Y4.584 F18000.000
;AAA selfz = 0.4, lifted = .2
G1 Z0.200 F18000.000
G1 E0.70000 F600.000
G1 X-48.144 Y-0.553 E0.92071 F3840.000
G1 X-48.098 Y-1.023 E0.93507
G1 X-43.305 Y3.770 E1.14101
G1 X-43.502 Y3.056 E1.16350
G1 X-48.051 Y-1.494 E1.35899
G1 X-48.005 Y-1.964 E1.37335
G1 X-43.571 Y2.470 E1.56386
G1 X-43.641 Y1.883 E1.58180
G1 X-47.959 Y-2.434 E1.76733
G1 X-47.912 Y-2.905 E1.78169
G1 X-43.710 Y1.297 E1.96224
G1 X-43.780 Y0.711 E1.98017
G1 X-47.866 Y-3.375 E2.15574
G1 X-47.820 Y-3.846 E2.17011
G1 X-43.850 Y0.125 E2.34070
G1 X-43.810 Y-0.353 E2.35526
G1 X-47.729 Y-4.271 E2.52361
G1 X-47.608 Y-4.668 E2.53619
G1 X-43.756 Y-0.815 E2.70173
G1 X-43.701 Y-1.277 E2.71586
G1 X-47.488 Y-5.064 E2.87859
G1 X-47.368 Y-5.461 E2.89118
G1 X-43.646 Y-1.739 E3.05109
G1 X-43.591 Y-2.201 E3.06522
G1 X-47.247 Y-5.857 E3.22232
G1 X-47.127 Y-6.254 E3.23491
G1 X-43.536 Y-2.663 E3.38919
G1 X-43.482 Y-3.125 E3.40333
G1 X-47.007 Y-6.650 E3.55480
G1 X-46.887 Y-7.046 E3.56739
G1 X-43.359 Y-3.519 E3.71894
G1 X-43.221 Y-3.898 E3.73119
G1 X-46.766 Y-7.443 E3.88352
G1 X-46.646 Y-7.839 E3.89611
G1 X-43.083 Y-4.276 E4.04921
G1 X-42.945 Y-4.655 E4.06145
G1 X-46.514 Y-8.224 E4.21482
G1 X-46.373 Y-8.600 E4.22703
G1 X-42.806 Y-5.033 E4.38030
G1 X-42.668 Y-5.412 E4.39255
G1 X-46.233 Y-8.977 E4.54573
G1 X-46.093 Y-9.353 E4.55793
G1 X-42.530 Y-5.790 E4.71102
G1 X-42.391 Y-6.168 E4.72326
G1 X-45.952 Y-9.729 E4.87626
G1 X-45.812 Y-10.105 E4.88846
G1 X-42.238 Y-6.532 E5.04201
G1 X-42.078 Y-6.888 E5.05388
G1 X-45.671 Y-10.482 E5.20828
G1 X-45.531 Y-10.858 E5.22048
G1 X-41.918 Y-7.245 E5.37573
G1 X-41.757 Y-7.601 E5.38760
G1 X-45.390 Y-11.234 E5.54370
G1 X-45.250 Y-11.611 E5.55590
G1 X-41.597 Y-7.958 E5.71285
G1 X-41.437 Y-8.314 E5.72473
G1 X-45.019 Y-11.896 E5.87863
G1 X-44.787 Y-12.181 E5.88979
G1 X-41.276 Y-8.671 E6.04063
G1 X-41.116 Y-9.027 E6.05251
G1 X-44.555 Y-12.466 E6.20028
G1 X-44.324 Y-12.752 E6.21144
G1 X-40.900 Y-9.328 E6.35856
G1 X-40.644 Y-9.589 E6.36966
G1 X-44.092 Y-13.037 E6.51781
G1 X-43.860 Y-13.322 E6.52897
G1 X-40.389 Y-9.850 E6.67814
G1 X-40.133 Y-10.111 E6.68924
G1 X-43.629 Y-13.607 E6.83945
G1 X-43.397 Y-13.892 E6.85061
G1 X-39.878 Y-10.372 E7.00184
G1 X-39.622 Y-10.633 E7.01294
G1 X-43.166 Y-14.177 E7.16520
G1 X-42.934 Y-14.462 E7.17636
G1 X-39.366 Y-10.895 E7.32965
G1 X-39.111 Y-11.156 E7.34075
G1 X-42.702 Y-14.747 E7.49507
G1 X-42.471 Y-15.032 E7.50623
G1 X-38.855 Y-11.417 E7.66158
G1 X-38.600 Y-11.678 E7.67268
G1 X-42.239 Y-15.317 E7.82906
G1 X-41.987 Y-15.582 E7.84016
G1 X-38.344 Y-11.939 E7.99669
G1 X-38.088 Y-12.200 E8.00779
G1 X-41.714 Y-15.826 E8.16359
G1 X-41.434 Y-16.063 E8.17473
G1 X-37.801 Y-12.429 E8.33087
G1 X-37.497 Y-12.643 E8.34214
G1 X-41.155 Y-16.300 E8.49929
G1 X-40.875 Y-16.537 E8.51043
G1 X-37.194 Y-12.856 E8.66860
G1 X-36.890 Y-13.069 E8.67987
G1 X-40.595 Y-16.774 E8.83906
G1 X-40.315 Y-17.011 E8.85020
G1 X-36.587 Y-13.283 E9.01040
G1 X-36.283 Y-13.496 E9.02167
G1 X-40.036 Y-17.248 E9.18288
G1 X-39.756 Y-17.485 E9.19402
G1 X-35.980 Y-13.709 E9.35626
G1 X-35.677 Y-13.923 E9.36753
G1 X-39.476 Y-17.722 E9.53077
G1 X-39.196 Y-17.959 E9.54191
G1 X-35.373 Y-14.136 E9.70617
G1 X-35.070 Y-14.349 E9.71744
G1 X-38.916 Y-18.196 E9.88272
G1 X-38.570 Y-18.366 E9.89445
G1 X-34.719 Y-14.515 E10.05991
G1 X-34.352 Y-14.664 E10.07197
G1 X-38.223 Y-18.536 E10.23832
G1 X-37.876 Y-18.706 E10.25005
G1 X-33.984 Y-14.814 E10.41728
G1 X-33.616 Y-14.963 E10.42934
G1 X-37.529 Y-18.875 E10.59745
G1 X-37.181 Y-19.045 E10.60918
G1 X-33.249 Y-15.112 E10.77817
G1 X-32.881 Y-15.261 E10.79023
G1 X-36.834 Y-19.214 E10.96010
G1 X-36.487 Y-19.384 E10.97184
G1 X-32.513 Y-15.410 E11.14259
G1 X-32.146 Y-15.559 E11.15464
G1 X-36.140 Y-19.553 E11.32627
G1 X-35.793 Y-19.723 E11.33801
G1 X-31.778 Y-15.708 E11.51052
G1 X-31.388 Y-15.835 E11.52298
G1 X-35.446 Y-19.893 E11.69732
G1 X-35.059 Y-20.023 E11.70972
G1 X-30.963 Y-15.927 E11.88570
G1 X-30.538 Y-16.019 E11.89891
G1 X-34.649 Y-20.130 E12.07553
G1 X-34.239 Y-20.236 E12.08840
G1 X-30.114 Y-16.111 E12.26566
G1 X-29.689 Y-16.203 E12.27887
G1 X-33.829 Y-20.343 E12.45677
G1 X-33.420 Y-20.450 E12.46964
G1 X-29.264 Y-16.295 E12.64819
G1 X-28.839 Y-16.387 E12.66139
G1 X-33.010 Y-20.557 E12.84058
G1 X-32.600 Y-20.664 E12.85345
G1 X-28.415 Y-16.479 E13.03328
G1 X-27.990 Y-16.571 E13.04648
G1 X-32.190 Y-20.771 E13.22696
G1 X-31.780 Y-20.878 E13.23982
G1 X-27.506 Y-16.604 E13.42348
G1 X-26.988 Y-16.602 E13.43922
G1 X-31.358 Y-20.972 E13.62697
G1 X-30.839 Y-20.970 E13.64272
G1 X-26.470 Y-16.601 E13.83046
G1 X-25.952 Y-16.600 E13.84620
G1 X-30.321 Y-20.969 E14.03393
G1 X-29.802 Y-20.967 E14.04968
G1 X-25.433 Y-16.598 E14.23740
G1 X-24.915 Y-16.597 E14.25314
G1 X-29.284 Y-20.965 E14.44084
G1 X-28.765 Y-20.963 E14.45659
G1 X-24.397 Y-16.595 E14.64428
G1 X-23.879 Y-16.594 E14.66003
G1 X-28.247 Y-20.962 E14.84770
G1 X-27.728 Y-20.960 E14.86346
G1 X-23.361 Y-16.593 E15.05112
G1 X-22.843 Y-16.591 E15.06686
G1 X-27.210 Y-20.958 E15.25452
G1 X-26.692 Y-20.957 E15.27027
G1 X-22.325 Y-16.590 E15.45791
G1 X-21.806 Y-16.588 E15.47365
G1 X-26.173 Y-20.955 E15.66128
G1 X-25.655 Y-20.953 E15.67703
G1 X-21.288 Y-16.587 E15.86464
G1 X-20.770 Y-16.585 E15.88039
G1 X-25.136 Y-20.952 E16.06799
G1 X-24.618 Y-20.950 E16.08374
G1 X-20.252 Y-16.584 E16.27133
G1 X-19.734 Y-16.583 E16.28707
G1 X-24.099 Y-20.948 E16.47465
G1 X-23.581 Y-20.947 E16.49040
G1 X-19.216 Y-16.581 E16.67797
G1 X-18.697 Y-16.580 E16.69371
G1 X-23.062 Y-20.945 E16.88127
G1 X-22.544 Y-20.943 E16.89702
G1 X-18.179 Y-16.578 E17.08456
G1 X-17.661 Y-16.577 E17.10030
G1 X-22.026 Y-20.941 E17.28783
G1 X-21.507 Y-20.940 E17.30358
G1 X-17.143 Y-16.576 E17.49110
G1 X-16.625 Y-16.574 E17.50684
G1 X-20.989 Y-20.938 E17.69434
G1 X-20.470 Y-20.936 E17.71009
G1 X-16.107 Y-16.573 E17.89759
G1 X-15.589 Y-16.571 E17.91333
G1 X-19.952 Y-20.935 E18.10081
G1 X-19.433 Y-20.933 E18.11656
G1 X-15.070 Y-16.570 E18.30403
G1 X-14.552 Y-16.569 E18.31977
G1 X-18.915 Y-20.931 E18.50722
G1 X-18.396 Y-20.930 E18.52297
G1 X-14.034 Y-16.567 E18.71042
G1 X-13.516 Y-16.566 E18.72616
G1 X-17.878 Y-20.928 E18.91359
G1 X-17.360 Y-20.926 E18.92934
G1 X-12.998 Y-16.564 E19.11676
G1 X-12.480 Y-16.563 E19.13250
G1 X-16.841 Y-20.924 E19.31990
G1 X-16.323 Y-20.923 E19.33565
G1 X-11.961 Y-16.562 E19.52305
G1 X-11.443 Y-16.560 E19.53879
G1 X-15.804 Y-20.921 E19.72617
G1 X-15.286 Y-20.919 E19.74192
