; generated by Slic3r 0.9.11-dev on 2013-10-07 at 21:32:41

; layer_height = .3
; perimeters = 1
; top_solid_layers = 2
; bottom_solid_layers = 2
; fill_density = 0.15
; perimeter_speed = 60
; infill_speed = 85
; travel_speed = 300
; nozzle_diameter = 0.35
; filament_diameter = 1.75
; extrusion_multiplier = 1
; perimeters extrusion width = 0.35mm
; infill extrusion width = 0.37mm
; solid infill extrusion width = 0.37mm
; top infill extrusion width = 0.37mm

G21 ; set units to millimeters
M107
G28
G92 X0 Y0 Z0 E0
G1 F5000 Y30 X30
G1 X220
G1 F100 E10
G28
G92 X0 Y0 Z0
G1 F4000 X101 Y127
G92 X0 Y0 Z0 E0
M106 S255
G90 ; use absolute coordinates
G92 E0
M82 ; use absolute distances for extrusion
G1 F600.000 E-0.70000
G1 Z0.400 F18000.000
G92 E0
G1 X3.900 Y2.770 F18000.000
;AAA selfz = 0.4, lifted = .2
G1 Z0.200 F18000.000
G1 E0.70000 F600.000
G1 X3.340 Y3.440 E0.72541 F1481.768
G1 X2.560 Y4.050 E0.75423
G1 X1.780 Y4.460 E0.77988
G1 X0.940 Y4.700 E0.80530
G1 X0.030 Y4.800 E0.83194
G1 X-0.950 Y4.700 E0.86061
G1 X-1.790 Y4.460 E0.88604
G1 X-2.630 Y4.010 E0.91377
G1 X-3.350 Y3.440 E0.94049
G1 X-3.900 Y2.800 E0.96505
G1 X-4.380 Y1.990 E0.99245
G1 X-4.680 Y1.090 E1.02006
G1 X-4.800 Y0.180 E1.04678
G1 X-4.760 Y-0.700 E1.07241
G1 X-4.560 Y-1.550 E1.09783
G1 X-4.180 Y-2.400 E1.12492
G1 X-3.660 Y-3.140 E1.15124
G1 X-2.980 Y-3.790 E1.17862
G1 X-2.180 Y-4.310 E1.20639
G1 X-1.360 Y-4.630 E1.23201
G1 X-0.460 Y-4.800 E1.25866
G1 X0.450 Y-4.800 E1.28514
G1 X1.350 Y-4.630 E1.31180
G1 X2.170 Y-4.310 E1.33742
G1 X2.970 Y-3.790 E1.36518
G1 X3.650 Y-3.140 E1.39256
G1 X4.170 Y-2.400 E1.41888
G1 X4.530 Y-1.620 E1.44388
G1 X4.750 Y-0.670 E1.47226
G1 X4.800 Y0.250 E1.49908
G1 X4.670 Y1.090 E1.52381
G1 X4.370 Y1.990 E1.55142
G1 X3.932 Y2.729 E1.57642
G1 X4.804 Y3.317 F18000.000
G1 X4.725 Y3.439 E1.58065 F1481.768
G1 X4.067 Y4.199 E1.60990
G1 X3.129 Y4.933 E1.64458
G1 X2.151 Y5.443 E1.67668
G1 X1.153 Y5.728 E1.70686
G1 X0.046 Y5.850 E1.73928
G1 X-0.146 Y5.846 E1.74487
G1 X-1.139 Y5.733 E1.77397
G1 X-2.161 Y5.443 E1.80487
G1 X-3.139 Y4.933 E1.83697
G1 X-4.077 Y4.199 E1.87165
G1 X-4.735 Y3.439 E1.90089
G1 X-5.319 Y2.463 E1.93400
G1 X-5.696 Y1.358 E1.96797
G1 X-5.849 Y0.303 E1.99900
G1 X-5.804 Y-0.820 E2.03169
G1 X-5.540 Y-1.942 E2.06525
G1 X-5.123 Y-2.862 E2.09463
G1 X-5.038 Y-3.011 E2.09963
G1 X-4.446 Y-3.837 E2.12923
G1 X-3.622 Y-4.621 E2.16231
G1 X-2.637 Y-5.256 E2.19643
G1 X-1.645 Y-5.642 E2.22739
G1 X-0.626 Y-5.838 E2.25761
G1 X-0.031 Y-5.850 E2.27491
G1 X0.061 Y-5.875 E2.27768
G1 X0.183 Y-5.949 E2.28184
G1 X0.558 Y-5.855 E2.29309
G1 X0.987 Y-5.850 E2.30558
G1 X1.056 Y-5.782 E2.30840
G1 X1.149 Y-5.732 E2.31145
G1 X1.567 Y-5.659 E2.32382
G1 X1.720 Y-5.614 E2.32845
G1 X2.584 Y-5.275 E2.35546
G1 X2.725 Y-5.202 E2.36010
G1 X3.612 Y-4.621 E2.39095
G1 X4.469 Y-3.798 E2.42552
G1 X5.098 Y-2.892 E2.45763
G1 X5.495 Y-2.034 E2.48515
G1 X5.570 Y-1.801 E2.49226
G1 X5.792 Y-0.803 E2.52200
G1 X5.849 Y0.140 E2.54951
G1 X5.841 Y0.387 E2.55671
G1 X5.684 Y1.362 E2.58545
G1 X5.352 Y2.367 E2.61625
G1 X5.273 Y2.529 E2.62149
G1 X4.831 Y3.272 E2.64665
G1 X4.509 Y3.129 F18000.000
G1 X4.449 Y3.224 E2.64993 F1481.768
G1 X3.826 Y3.944 E2.67763
G1 X2.938 Y4.639 E2.71044
G1 X2.029 Y5.115 E2.74031
G1 X1.081 Y5.386 E2.76899
G1 X0.042 Y5.500 E2.79944
G1 X-0.113 Y5.497 E2.80393
G1 X-1.077 Y5.388 E2.83217
G1 X-2.039 Y5.115 E2.86128
G1 X-2.948 Y4.639 E2.89115
G1 X-3.836 Y3.944 E2.92395
G1 X-4.459 Y3.224 E2.95166
G1 X-5.005 Y2.308 E2.98271
G1 X-5.357 Y1.270 E3.01459
G1 X-5.499 Y0.284 E3.04358
G1 X-5.457 Y-0.777 E3.07450
G1 X-5.207 Y-1.833 E3.10608
G1 X-4.742 Y-2.825 E3.13795
G1 X-4.183 Y-3.606 E3.16590
G1 X-3.407 Y-4.345 E3.19709
G1 X-2.483 Y-4.941 E3.22909
G1 X-1.548 Y-5.305 E3.25829
G1 X-0.519 Y-5.498 E3.28876
G1 X0.066 Y-5.500 E3.30578
G1 X0.158 Y-5.525 E3.30855
G1 X0.239 Y-5.574 E3.31131
G1 X0.515 Y-5.505 E3.31960
G1 X0.842 Y-5.500 E3.32912
G1 X0.977 Y-5.409 E3.33385
G1 X1.538 Y-5.305 E3.35045
G1 X2.539 Y-4.905 E3.38182
G1 X3.397 Y-4.345 E3.41165
G1 X4.197 Y-3.578 E3.44390
G1 X4.789 Y-2.727 E3.47407
G1 X5.174 Y-1.895 E3.50076
G1 X5.230 Y-1.718 E3.50615
G1 X5.444 Y-0.760 E3.53473
G1 X5.499 Y0.145 E3.56112
G1 X5.494 Y0.340 E3.56680
G1 X5.346 Y1.273 E3.59427
G1 X5.025 Y2.239 E3.62390
G1 X4.536 Y3.084 E3.65232
G1 X4.213 Y2.942 F18000.000
G1 X3.585 Y3.690 E3.68074 F1481.768
G1 X2.748 Y4.345 E3.71168
G1 X1.907 Y4.787 E3.73932
G1 X1.010 Y5.043 E3.76649
G1 X0.037 Y5.150 E3.79497
G1 X-1.015 Y5.044 E3.82573
G1 X-1.917 Y4.787 E3.85304
G1 X-2.758 Y4.345 E3.88068
G1 X-3.595 Y3.690 E3.91161
G1 X-4.182 Y3.009 E3.93778
G1 X-4.691 Y2.152 E3.96678
G1 X-5.018 Y1.182 E3.99658
G1 X-5.150 Y0.266 E4.02352
G1 X-5.109 Y-0.735 E4.05267
G1 X-4.874 Y-1.725 E4.08226
G1 X-4.445 Y-2.639 E4.11166
G1 X-3.920 Y-3.374 E4.13795
G1 X-3.192 Y-4.069 E4.16724
G1 X-2.329 Y-4.627 E4.19713
G1 X-1.451 Y-4.969 E4.22458
G1 X-0.519 Y-5.145 E4.25218
G1 X0.163 Y-5.150 E4.27201
G1 X0.295 Y-5.200 E4.27612
G1 X0.472 Y-5.155 E4.28144
G1 X0.697 Y-5.150 E4.28800
G1 X0.805 Y-5.086 E4.29165
G1 X1.441 Y-4.969 E4.31045
G1 X2.352 Y-4.609 E4.33898
G1 X3.182 Y-4.069 E4.36778
G1 X3.910 Y-3.374 E4.39708
G1 X4.470 Y-2.580 E4.42537
G1 X4.853 Y-1.755 E4.45181
G1 X4.890 Y-1.635 E4.45548
G1 X5.097 Y-0.716 E4.48290
G1 X5.147 Y0.294 E4.51231
G1 X5.008 Y1.183 E4.53852
G1 X4.699 Y2.111 E4.56698
G1 X4.240 Y2.897 E4.59347
G1 X3.486 Y2.475 F18000.000
G1 X2.953 Y3.091 E4.61716 F1111.326
G1 X2.313 Y3.594 E4.64084
G1 X1.590 Y3.967 E4.66453
G1 X0.810 Y4.197 E4.68820
G1 X0.000 Y4.274 E4.71188
G1 X-0.810 Y4.197 E4.73555
G1 X-1.590 Y3.967 E4.75923
G1 X-2.313 Y3.594 E4.78291
G1 X-2.953 Y3.091 E4.80660
G1 X-3.486 Y2.475 E4.83029
G1 X-3.893 Y1.770 E4.85399
G1 X-4.159 Y1.000 E4.87769
G1 X-4.274 Y0.194 E4.90139
G1 X-4.236 Y-0.620 E4.92510
G1 X-4.044 Y-1.411 E4.94880
G1 X-3.706 Y-2.152 E4.97250
G1 X-3.234 Y-2.816 E4.99620
G1 X-2.645 Y-3.378 E5.01989
G1 X-1.961 Y-3.818 E5.04357
G1 X-1.206 Y-4.121 E5.06725
G1 X-0.407 Y-4.275 E5.09093
G1 X0.407 Y-4.275 E5.11460
G1 X1.206 Y-4.121 E5.13828
G1 X1.961 Y-3.818 E5.16196
G1 X2.645 Y-3.378 E5.18564
G1 X3.234 Y-2.816 E5.20933
G1 X3.706 Y-2.152 E5.23302
G1 X4.044 Y-1.411 E5.25672
G1 X4.236 Y-0.620 E5.28043
G1 X4.274 Y0.194 E5.30413
G1 X4.159 Y1.000 E5.32784
G1 X3.893 Y1.770 E5.35154
G1 X3.512 Y2.430 E5.37371
G1 F600.000 E4.67371
G1 Z0.400 F18000.000
G92 E0
G1 X1.800 Y-3.506 F18000.000
;AAA selfz = 0.4, lifted = .2
G1 Z0.200 F18000.000
G1 E0.70000 F600.000
G1 X2.428 Y-3.102 E0.72174 F1111.326
G1 X2.968 Y-2.586 E0.74348
G1 X3.401 Y-1.977 E0.76523
G1 X3.712 Y-1.297 E0.78699
G1 X3.888 Y-0.570 E0.80875
G1 X3.923 Y0.177 E0.83051
G1 X3.817 Y0.917 E0.85227
G1 X3.573 Y1.624 E0.87403
G1 X3.199 Y2.271 E0.89578
G1 X2.710 Y2.836 E0.91753
G1 X2.123 Y3.298 E0.93927
G1 X1.460 Y3.641 E0.96101
G1 X0.743 Y3.852 E0.98274
G1 X-0.000 Y3.923 E1.00446
G1 X-0.743 Y3.852 E1.02619
G1 X-1.460 Y3.641 E1.04792
G1 X-2.123 Y3.298 E1.06966
G1 X-2.710 Y2.836 E1.09140
G1 X-3.199 Y2.271 E1.11314
G1 X-3.573 Y1.624 E1.13490
G1 X-3.817 Y0.917 E1.15666
G1 X-3.923 Y0.177 E1.17842
G1 X-3.888 Y-0.570 E1.20018
G1 X-3.712 Y-1.297 E1.22194
G1 X-3.401 Y-1.977 E1.24370
G1 X-2.968 Y-2.586 E1.26545
G1 X-2.428 Y-3.102 E1.28719
G1 X-1.800 Y-3.506 E1.30893
G1 X-1.106 Y-3.784 E1.33066
G1 X-0.373 Y-3.925 E1.35239
G1 X0.373 Y-3.925 E1.37412
G1 X1.106 Y-3.784 E1.39585
G1 X1.751 Y-3.525 E1.41605
G1 F600.000 E0.71605
G1 Z0.400 F18000.000
G92 E0
G1 X0.302 Y-3.950 F18000.000
G1 X0.660 Y-1.605 F18000.000
;AAA selfz = 0.4, lifted = .2
G1 Z0.200 F18000.000
G1 E0.70000 F600.000
G1 X0.959 Y-1.445 E0.70985 F1111.326
G1 X1.220 Y-1.230 E0.71969
G1 X1.435 Y-0.969 E0.72954
G1 X1.594 Y-0.671 E0.73938
G1 X1.693 Y-0.347 E0.74923
G1 X1.726 Y-0.010 E0.75908
G1 X1.693 Y0.327 E0.76892
G1 X1.594 Y0.650 E0.77877
G1 X1.435 Y0.949 E0.78862
G1 X1.220 Y1.210 E0.79846
G1 X0.959 Y1.425 E0.80831
G1 X0.660 Y1.584 E0.81815
G1 X0.337 Y1.683 E0.82800
G1 X-0.000 Y1.716 E0.83785
G1 X-0.337 Y1.683 E0.84769
G1 X-0.660 Y1.584 E0.85754
G1 X-0.959 Y1.425 E0.86738
G1 X-1.220 Y1.210 E0.87723
G1 X-1.435 Y0.949 E0.88708
G1 X-1.594 Y0.650 E0.89692
G1 X-1.693 Y0.327 E0.90677
G1 X-1.726 Y-0.010 E0.91662
G1 X-1.693 Y-0.347 E0.92646
G1 X-1.594 Y-0.671 E0.93631
G1 X-1.435 Y-0.969 E0.94615
G1 X-1.220 Y-1.230 E0.95600
G1 X-0.959 Y-1.445 E0.96585
G1 X-0.660 Y-1.605 E0.97569
G1 X-0.337 Y-1.703 E0.98554
G1 X-0.000 Y-1.736 E0.99538
G1 X0.337 Y-1.703 E1.00523
G1 X0.610 Y-1.620 E1.01355
G1 X0.658 Y-1.971 F18000.000
G1 X0.795 Y-1.929 E1.01773 F1111.326
G1 X1.154 Y-1.738 E1.02958
G1 X1.469 Y-1.479 E1.04143
G1 X1.727 Y-1.164 E1.05329
G1 X1.919 Y-0.805 E1.06514
G1 X2.038 Y-0.415 E1.07699
G1 X2.078 Y-0.010 E1.08884
G1 X2.038 Y0.395 E1.10070
G1 X1.919 Y0.785 E1.11255
G1 X1.727 Y1.144 E1.12440
G1 X1.469 Y1.459 E1.13626
G1 X1.154 Y1.717 E1.14811
G1 X0.795 Y1.909 E1.15996
G1 X0.405 Y2.028 E1.17181
G1 X-0.000 Y2.067 E1.18367
G1 X-0.405 Y2.028 E1.19552
G1 X-0.795 Y1.909 E1.20737
G1 X-1.154 Y1.717 E1.21922
G1 X-1.469 Y1.459 E1.23108
G1 X-1.727 Y1.144 E1.24293
G1 X-1.919 Y0.785 E1.25478
G1 X-2.038 Y0.395 E1.26663
G1 X-2.078 Y-0.010 E1.27849
G1 X-2.038 Y-0.415 E1.29034
G1 X-1.919 Y-0.805 E1.30219
G1 X-1.727 Y-1.164 E1.31404
G1 X-1.469 Y-1.479 E1.32590
G1 X-1.154 Y-1.738 E1.33775
G1 X-0.795 Y-1.929 E1.34960
G1 X-0.405 Y-2.048 E1.36145
G1 X-0.000 Y-2.088 E1.37331
G1 X0.405 Y-2.048 E1.38516
G1 X0.607 Y-1.986 E1.39130
G1 X1.054 Y-2.061 F18000.000
G1 X-0.535 Y-3.651 E1.45984 F1975.691
G1 X-0.970 Y-3.567 E1.47334
G1 X0.299 Y-2.298 E1.52807
G1 X-0.227 Y-2.305 E1.54410
G1 X-1.350 Y-3.429 E1.59256
G1 X-1.716 Y-3.276 E1.60465
G1 X-0.660 Y-2.220 E1.65019
G1 X-1.032 Y-2.073 E1.66238
G1 X-2.032 Y-3.073 E1.70549
G1 X-2.334 Y-2.856 E1.71682
G1 X-1.357 Y-1.880 E1.75893
G1 X-1.641 Y-1.645 E1.77016
G1 X-2.593 Y-2.597 E1.81120
G1 X-2.852 Y-2.338 E1.82238
G1 X-1.875 Y-1.360 E1.86451
G1 X-2.067 Y-1.034 E1.87606
G1 X-3.068 Y-2.034 E1.91919
G1 X-3.261 Y-1.709 E1.93073
G1 X-2.212 Y-0.661 E1.97595
G1 X-2.296 Y-0.226 E1.98945
G1 X-3.424 Y-1.353 E2.03808
G1 X-3.548 Y-0.959 E2.05068
G1 X-2.286 Y0.302 E2.10508
G1 X-2.037 Y1.070 E2.12968
G1 X-3.649 Y-0.542 E2.19918
G1 X-3.469 Y1.194 F18000.000
G1 X-1.192 Y3.471 E2.29734 F1975.691
G1 X-0.510 Y3.634 E2.31872
G1 X-3.634 Y0.510 E2.45343
G1 X-3.674 Y-0.048 E2.47048
G1 X0.052 Y3.678 E2.63114
G1 X0.525 Y3.633 E2.64564
G1 X-1.080 Y2.027 E2.71487
G1 X-0.313 Y2.276 E2.73947
G1 X0.953 Y3.541 E2.79402
G1 X1.353 Y3.424 E2.80676
G1 X0.216 Y2.286 E2.85582
G1 X0.651 Y2.202 E2.86933
G1 X1.698 Y3.250 E2.91449
G1 X2.033 Y3.066 E2.92614
G1 X1.024 Y2.057 E2.96963
G1 X1.350 Y1.865 E2.98118
G1 X2.323 Y2.838 E3.02313
G1 X2.593 Y2.589 E3.03432
G1 X1.635 Y1.631 E3.07561
G1 X1.870 Y1.347 E3.08685
G1 X2.842 Y2.319 E3.12878
G1 X3.066 Y2.025 E3.14007
G1 X2.063 Y1.022 E3.18332
G1 X2.210 Y0.650 E3.19551
G1 X3.256 Y1.696 E3.24062
G1 X3.418 Y1.340 E3.25255
G1 X2.295 Y0.216 E3.30100
G1 X2.288 Y-0.309 E3.31703
G1 X3.552 Y0.955 E3.37153
G1 X3.633 Y0.518 E3.38508
G1 X2.051 Y-1.064 E3.45330
G1 X3.495 Y-1.176 F18000.000
G1 X1.170 Y-3.501 E3.55356 F1975.691
G1 X0.494 Y-3.659 E3.57474
G1 X3.652 Y-0.501 E3.71093
G1 X3.678 Y0.044 E3.72755
G1 X-0.052 Y-3.687 E3.88841
G1 F600.000 E3.18841
G1 Z0.400 F18000.000
G92 E0
G1 X-0.302 Y-3.950 F18000.000
G1 X2.271 Y-2.919 F18000.000
;AAA selfz = 0.4, lifted = .2
G1 Z0.200 F18000.000
G1 E0.70000 F600.000
G1 X2.851 Y-2.339 E0.72499 F1975.691
G1 F600.000 E0.02499
G1 Z0.400 F18000.000
G92 E0
G1 X2.960 Y-2.578 F18000.000
G1 X-2.422 Y2.759 F18000.000
;AAA selfz = 0.4, lifted = .2
G1 Z0.200 F18000.000
G1 E0.70000 F600.000
G1 X-2.712 Y2.469 E0.71251 F1975.691
M106 S255
G1 F600.000 E0.01251
G1 Z0.700 F18000.000
G92 E0
G1 X-1.469 Y1.459 F18000.000
;AAA selfz = 0.7, lifted = .2
G1 Z0.500 F18000.000
G1 E0.70000 F600.000
G1 X-1.727 Y1.144 E0.71778 F600.000
G1 X-1.919 Y0.785 E0.73556
G1 X-2.038 Y0.395 E0.75334
G1 X-2.078 Y-0.010 E0.77112
G1 X-2.038 Y-0.415 E0.78889
G1 X-1.919 Y-0.805 E0.80667
G1 X-1.727 Y-1.164 E0.82445
G1 X-1.469 Y-1.479 E0.84223
G1 X-1.154 Y-1.738 E0.86001
G1 X-0.795 Y-1.929 E0.87779
G1 X-0.405 Y-2.048 E0.89557
G1 X0.000 Y-2.088 E0.91335
G1 X0.405 Y-2.048 E0.93113
G1 X0.795 Y-1.929 E0.94890
G1 X1.154 Y-1.738 E0.96668
G1 X1.469 Y-1.479 E0.98446
G1 X1.727 Y-1.164 E1.00224
G1 X1.919 Y-0.805 E1.02002
G1 X2.038 Y-0.415 E1.03780
G1 X2.078 Y-0.010 E1.05558
G1 X2.038 Y0.395 E1.07336
G1 X1.919 Y0.785 E1.09114
G1 X1.727 Y1.144 E1.10892
G1 X1.469 Y1.459 E1.12669
G1 X1.154 Y1.717 E1.14447
G1 X0.795 Y1.909 E1.16225
G1 X0.405 Y2.028 E1.18003
G1 X-0.000 Y2.067 E1.19781
G1 X-0.405 Y2.028 E1.21559
G1 X-0.795 Y1.909 E1.23337
G1 X-1.154 Y1.717 E1.25115
G1 X-1.428 Y1.492 E1.26663
G1 X-1.220 Y1.210 F18000.000
G1 X-1.435 Y0.949 E1.28140 F600.000
G1 X-1.594 Y0.650 E1.29617
G1 X-1.693 Y0.327 E1.31094
G1 X-1.726 Y-0.010 E1.32571
G1 X-1.693 Y-0.347 E1.34048
G1 X-1.594 Y-0.671 E1.35525
G1 X-1.435 Y-0.969 E1.37002
G1 X-1.220 Y-1.230 E1.38479
G1 X-0.959 Y-1.445 E1.39956
G1 X-0.660 Y-1.605 E1.41433
G1 X-0.337 Y-1.703 E1.42909
G1 X0.000 Y-1.736 E1.44386
G1 X0.337 Y-1.703 E1.45863
G1 X0.660 Y-1.605 E1.47340
G1 X0.959 Y-1.445 E1.48817
G1 X1.220 Y-1.230 E1.50294
G1 X1.435 Y-0.969 E1.51771
G1 X1.594 Y-0.671 E1.53248
G1 X1.693 Y-0.347 E1.54725
G1 X1.726 Y-0.010 E1.56202
G1 X1.693 Y0.327 E1.57679
G1 X1.594 Y0.650 E1.59156
G1 X1.435 Y0.949 E1.60633
G1 X1.220 Y1.210 E1.62109
G1 X0.959 Y1.425 E1.63586
G1 X0.660 Y1.584 E1.65063
G1 X0.337 Y1.683 E1.66540
G1 X-0.000 Y1.716 E1.68017
G1 X-0.337 Y1.683 E1.69494
G1 X-0.660 Y1.584 E1.70971
G1 X-0.959 Y1.425 E1.72448
G1 X-1.180 Y1.244 E1.73696
G1 F600.000 E1.03696
G1 Z0.700 F18000.000
G92 E0
G1 X-0.440 Y2.204 F18000.000
G1 X-3.573 Y1.624 F18000.000
;AAA selfz = 0.7, lifted = .2
G1 Z0.500 F18000.000
G1 E0.70000 F600.000
G1 X-3.817 Y0.917 E0.73264 F600.000
G1 X-3.923 Y0.177 E0.76528
G1 X-3.888 Y-0.570 E0.79792
G1 X-3.712 Y-1.297 E0.83056
G1 X-3.401 Y-1.977 E0.86320
G1 X-2.968 Y-2.586 E0.89582
G1 X-2.428 Y-3.102 E0.92844
G1 X-1.800 Y-3.506 E0.96104
G1 X-1.106 Y-3.784 E0.99364
G1 X-0.373 Y-3.925 E1.02624
G1 X0.373 Y-3.925 E1.05883
G1 X1.106 Y-3.784 E1.09142
G1 X1.800 Y-3.506 E1.12402
G1 X2.428 Y-3.102 E1.15663
G1 X2.968 Y-2.586 E1.18924
G1 X3.401 Y-1.977 E1.22187
G1 X3.712 Y-1.297 E1.25450
G1 X3.888 Y-0.570 E1.28714
G1 X3.923 Y0.177 E1.31978
G1 X3.817 Y0.917 E1.35243
G1 X3.573 Y1.624 E1.38506
G1 X3.199 Y2.271 E1.41769
G1 X2.710 Y2.836 E1.45031
G1 X2.123 Y3.298 E1.48293
G1 X1.460 Y3.641 E1.51553
G1 X0.743 Y3.852 E1.54812
G1 X0.000 Y3.923 E1.58071
G1 X-0.743 Y3.852 E1.61331
G1 X-1.460 Y3.641 E1.64590
G1 X-2.123 Y3.298 E1.67850
G1 X-2.710 Y2.836 E1.71111
G1 X-3.199 Y2.271 E1.74374
G1 X-3.546 Y1.669 E1.77407
G1 X-3.893 Y1.770 F18000.000
G1 X-4.159 Y1.000 E1.80963 F600.000
G1 X-4.274 Y0.194 E1.84518
G1 X-4.236 Y-0.620 E1.88074
G1 X-4.044 Y-1.411 E1.91630
G1 X-3.706 Y-2.152 E1.95185
G1 X-3.234 Y-2.816 E1.98739
G1 X-2.645 Y-3.378 E2.02292
G1 X-1.961 Y-3.818 E2.05845
G1 X-1.206 Y-4.121 E2.09397
G1 X-0.407 Y-4.275 E2.12948
G1 X0.407 Y-4.275 E2.16499
G1 X1.206 Y-4.121 E2.20051
G1 X1.961 Y-3.818 E2.23603
G1 X2.645 Y-3.378 E2.27155
G1 X3.234 Y-2.816 E2.30709
G1 X3.706 Y-2.152 E2.34263
G1 X4.044 Y-1.411 E2.37818
G1 X4.236 Y-0.620 E2.41373
G1 X4.274 Y0.194 E2.44929
G1 X4.159 Y1.000 E2.48485
G1 X3.893 Y1.770 E2.52040
G1 X3.486 Y2.475 E2.55595
G1 X2.953 Y3.091 E2.59149
G1 X2.313 Y3.594 E2.62701
G1 X1.590 Y3.967 E2.66254
G1 X0.810 Y4.197 E2.69805
G1 X0.000 Y4.274 E2.73357
G1 X-0.810 Y4.197 E2.76908
G1 X-1.590 Y3.967 E2.80459
G1 X-2.313 Y3.594 E2.84012
G1 X-2.953 Y3.091 E2.87565
G1 X-3.486 Y2.475 E2.91118
G1 X-3.866 Y1.815 E2.94444
G1 X-3.678 Y0.044 F18000.000
G1 X0.052 Y-3.687 E3.18573 F867.147
G1 X-0.494 Y-3.659 E3.21074
G1 X-3.652 Y-0.501 E3.41502
G1 X-3.495 Y-1.176 E3.44673
G1 X-1.170 Y-3.501 E3.59712
G1 X-2.271 Y-2.919 F18000.000
G1 X-2.851 Y-2.339 E3.63461 F867.147
G1 X-2.051 Y-1.064 F18000.000
G1 X-3.633 Y0.518 E3.73694 F867.147
G1 X-3.552 Y0.955 E3.75727
G1 X-2.288 Y-0.309 E3.83902
G1 X-2.295 Y0.216 E3.86307
G1 X-3.418 Y1.340 E3.93574
G1 X-3.256 Y1.696 E3.95364
G1 X-2.210 Y0.650 E4.02130
G1 X-2.063 Y1.022 E4.03959
G1 X-3.066 Y2.025 E4.10446
G1 X-2.842 Y2.319 E4.12139
G1 X-1.870 Y1.347 E4.18430
G1 X-1.635 Y1.631 E4.20115
