; generated by Slic3r 0.9.11-dev on 2013-10-07 at 21:44:37

; layer_height = .3
; perimeters = 1
; top_solid_layers = 2
; bottom_solid_layers = 2
; fill_density = 0.05
; perimeter_speed = 60
; infill_speed = 85
; travel_speed = 300
; nozzle_diameter = 0.35
; filament_diameter = 1.75
; extrusion_multiplier = 1
; perimeters extrusion width = 0.35mm
; infill extrusion width = 0.37mm
; solid infill extrusion width = 0.37mm
; top infill extrusion width = 0.37mm

G21 ; set units to millimeters
M107
G28
G92 X0 Y0 Z0 E0
G1 F5000 Y30 X30
G1 X220
G1 F100 E10
G28
G92 X0 Y0 Z0
G1 F4000 X101 Y127
G92 X0 Y0 Z0 E0
M106 S255
G90 ; use absolute coordinates
G92 E0
M82 ; use absolute distances for extrusion
G1 F600.000 E-0.70000
G1 Z0.400 F18000.000
G92 E0
G1 X-9.585 Y2.795 F18000.000
;AAA selfz = 0.4, lifted = .2
G1 Z0.200 F18000.000
G1 E0.70000 F600.000
G1 X-6.585 Y-10.215 E1.08856 F2880.000
G1 X-6.385 Y-11.005 E1.11228
G1 X-6.035 Y-11.795 E1.13742
G1 X-5.495 Y-12.555 E1.16456
G1 X-4.845 Y-13.185 E1.19090
G1 X-4.155 Y-13.625 E1.21472
G1 X-3.315 Y-13.965 E1.24109
G1 X-2.445 Y-14.125 E1.26683
G1 X-1.565 Y-14.125 E1.29244
G1 X-0.695 Y-13.965 E1.31819
G1 X0.145 Y-13.625 E1.34456
G1 X0.835 Y-13.185 E1.36838
G1 X1.485 Y-12.555 E1.39472
G1 X2.025 Y-11.795 E1.42185
G1 X2.365 Y-11.035 E1.44608
G1 X9.365 Y7.965 E2.03537
G1 X9.585 Y8.825 E2.06120
G1 X9.625 Y9.735 E2.08771
G1 X9.505 Y10.545 E2.11154
G1 X9.215 Y11.385 E2.13740
G1 X8.775 Y12.175 E2.16372
G1 X8.165 Y12.865 E2.19052
G1 X7.525 Y13.365 E2.21416
G1 X6.685 Y13.805 E2.24175
G1 X5.905 Y14.035 E2.26542
G1 X5.025 Y14.125 E2.29116
G1 X4.085 Y14.035 E2.31865
G1 X3.305 Y13.805 E2.34231
G1 X2.505 Y13.385 E2.36861
G1 X-7.535 Y7.365 E2.70930
G1 X-8.175 Y6.865 E2.73293
G1 X-8.785 Y6.175 E2.75974
G1 X-9.225 Y5.385 E2.78605
G1 X-9.515 Y4.545 E2.81192
G1 X-9.625 Y3.735 E2.83570
G1 X-9.595 Y2.846 E2.86160
G1 X-10.645 Y2.842 F18000.000
G1 X-10.624 Y2.608 E2.86844 F2880.000
G1 X-7.612 Y-10.436 E3.25804
G1 X-7.377 Y-11.349 E3.28547
G1 X-6.923 Y-12.356 E3.31763
G1 X-6.288 Y-13.244 E3.34940
G1 X-5.476 Y-14.025 E3.38217
G1 X-4.641 Y-14.557 E3.41100
G1 X-3.706 Y-14.944 E3.44045
G1 X-3.533 Y-14.996 E3.44571
G1 X-2.565 Y-15.169 E3.47434
G1 X-2.017 Y-15.175 E3.49028
G1 X-1.938 Y-15.194 E3.49265
G1 X-1.743 Y-15.291 E3.49898
G1 X-1.422 Y-15.184 E3.50883
G1 X-1.028 Y-15.175 E3.52031
G1 X-0.960 Y-15.107 E3.52310
G1 X-0.866 Y-15.058 E3.52618
G1 X-0.477 Y-14.996 E3.53764
G1 X-0.304 Y-14.944 E3.54290
G1 X0.563 Y-14.589 E3.57016
G1 X1.466 Y-14.025 E3.60117
G1 X2.278 Y-13.244 E3.63393
G1 X2.932 Y-12.324 E3.66678
G1 X3.322 Y-11.467 E3.69418
G1 X10.352 Y7.606 E4.28578
G1 X10.623 Y8.659 E4.31742
G1 X10.674 Y9.790 E4.35035
G1 X10.520 Y10.815 E4.38052
G1 X10.174 Y11.812 E4.41124
G1 X9.631 Y12.788 E4.44374
G1 X8.902 Y13.615 E4.47583
G1 X8.068 Y14.265 E4.50661
G1 X7.088 Y14.776 E4.53876
G1 X6.099 Y15.068 E4.56878
G1 X5.040 Y15.175 E4.59974
G1 X3.891 Y15.068 E4.63332
G1 X2.902 Y14.776 E4.66334
G1 X1.975 Y14.291 E4.69378
G1 X-8.070 Y8.269 E5.03463
G1 X-8.860 Y7.662 E5.06362
G1 X-9.641 Y6.788 E5.09774
G1 X-10.209 Y5.751 E5.13216
G1 X-10.491 Y4.949 E5.15688
G1 X-10.552 Y4.715 E5.16393
G1 X-10.674 Y3.785 E5.19121
G1 X-10.647 Y2.895 E5.21714
G1 X-10.295 Y2.855 F18000.000
G1 X-10.280 Y2.678 E5.22231 F2880.000
G1 X-7.270 Y-10.360 E5.61175
G1 X-7.046 Y-11.235 E5.63803
G1 X-6.628 Y-12.168 E5.66778
G1 X-6.023 Y-13.015 E5.69809
G1 X-5.265 Y-13.746 E5.72872
G1 X-4.480 Y-14.245 E5.75578
G1 X-3.456 Y-14.654 E5.78787
G1 X-2.522 Y-14.822 E5.81548
G1 X-1.934 Y-14.825 E5.83260
G1 X-1.716 Y-14.913 E5.83945
G1 X-1.479 Y-14.834 E5.84673
G1 X-1.173 Y-14.825 E5.85564
G1 X-1.037 Y-14.734 E5.86039
G1 X-0.554 Y-14.654 E5.87465
G1 X0.422 Y-14.268 E5.90518
G1 X1.255 Y-13.746 E5.93379
G1 X2.013 Y-13.015 E5.96442
G1 X2.629 Y-12.149 E5.99537
G1 X3.003 Y-11.324 E6.02173
G1 X10.023 Y7.726 E6.61259
G1 X10.276 Y8.713 E6.64223
G1 X10.324 Y9.770 E6.67304
G1 X10.181 Y10.726 E6.70117
G1 X9.854 Y11.671 E6.73026
G1 X9.344 Y12.586 E6.76077
G1 X8.654 Y13.367 E6.79107
G1 X7.889 Y13.964 E6.81933
G1 X6.952 Y14.453 E6.85010
G1 X6.036 Y14.723 E6.87788
G1 X5.036 Y14.825 E6.90714
G1 X3.954 Y14.723 E6.93876
G1 X3.038 Y14.453 E6.96654
G1 X2.152 Y13.990 E6.99565
G1 X-7.890 Y7.968 E7.33642
G1 X-8.634 Y7.395 E7.36373
G1 X-9.354 Y6.586 E7.39525
G1 X-9.881 Y5.630 E7.42704
G1 X-10.206 Y4.659 E7.45682
G1 X-10.324 Y3.767 E7.48300
G1 X-10.297 Y2.908 E7.50804
G1 X-9.945 Y2.862 F18000.000
G1 X-9.937 Y2.748 E7.51136 F2880.000
G1 X-6.928 Y-10.285 E7.90063
G1 X-6.715 Y-11.121 E7.92575
G1 X-6.332 Y-11.980 E7.95310
G1 X-5.757 Y-12.787 E7.98194
G1 X-5.053 Y-13.467 E8.01043
G1 X-4.320 Y-13.934 E8.03572
G1 X-3.379 Y-14.311 E8.06523
G1 X-2.480 Y-14.474 E8.09182
G1 X-1.852 Y-14.475 E8.11011
G1 X-1.689 Y-14.535 E8.11515
G1 X-1.535 Y-14.484 E8.11987
G1 X-1.318 Y-14.475 E8.12622
G1 X-1.208 Y-14.410 E8.12992
G1 X-0.631 Y-14.311 E8.14697
G1 X0.281 Y-13.948 E8.17553
G1 X1.043 Y-13.467 E8.20176
G1 X1.747 Y-12.787 E8.23025
G1 X2.326 Y-11.974 E8.25930
G1 X2.689 Y-11.167 E8.28503
G1 X9.694 Y7.846 E8.87473
G1 X9.930 Y8.766 E8.90238
G1 X9.975 Y9.751 E8.93107
G1 X9.843 Y10.637 E8.95715
G1 X9.534 Y11.529 E8.98461
G1 X9.057 Y12.385 E9.01313
G1 X8.407 Y13.118 E9.04164
G1 X7.710 Y13.663 E9.06738
G1 X6.815 Y14.130 E9.09677
G1 X5.974 Y14.379 E9.12231
G1 X5.031 Y14.475 E9.14987
G1 X4.016 Y14.379 E9.17954
G1 X3.175 Y14.130 E9.20508
G1 X2.329 Y13.688 E9.23286
G1 X-7.711 Y7.668 E9.57355
G1 X-8.407 Y7.128 E9.59919
G1 X-9.067 Y6.385 E9.62810
G1 X-9.553 Y5.509 E9.65726
G1 X-9.860 Y4.604 E9.68506
G1 X-9.975 Y3.750 E9.71015
G1 X-9.947 Y2.914 E9.73448
G1 F600.000 E9.03448
G1 Z0.400 F18000.000
G92 E0
G1 X-5.000 Y-3.070 F18000.000
G1 X-8.605 Y0.106 F18000.000
;AAA selfz = 0.4, lifted = .2
G1 Z0.200 F18000.000
G1 E0.70000 F600.000
G1 X-6.724 Y-8.047 E0.94351 F2880.000
G1 X-6.197 Y-8.075 E0.95885
G1 X-6.049 Y-7.650 E0.97195
G1 X-5.624 Y-6.916 E0.99662
G1 X-5.068 Y-6.276 E1.02128
G1 X-4.402 Y-5.753 E1.04594
G1 X-3.648 Y-5.366 E1.07060
G1 X-2.851 Y-5.132 E1.09476
G1 X-1.992 Y-5.050 E1.11990
G1 X-1.149 Y-5.132 E1.14455
G1 X-0.352 Y-5.366 E1.16871
G1 X0.416 Y-5.763 E1.19385
G1 X1.080 Y-6.288 E1.21851
G1 X1.634 Y-6.930 E1.24317
G1 X2.056 Y-7.665 E1.26784
G1 X2.386 Y-8.621 E1.29728
G1 X2.880 Y-8.626 E1.31164
G1 X8.146 Y5.668 E1.75495
G1 X7.753 Y5.983 E1.76961
G1 X7.049 Y5.530 E1.79397
G1 X6.263 Y5.214 E1.81862
G1 X5.432 Y5.052 E1.84327
G1 X4.585 Y5.050 E1.86792
G1 X3.737 Y5.214 E1.89305
G1 X2.951 Y5.530 E1.91770
G1 X2.240 Y5.990 E1.94236
G1 X1.628 Y6.576 E1.96702
G1 X1.146 Y7.253 E1.99120
G1 X0.787 Y8.040 E2.01635
G1 X0.589 Y8.864 E2.04103
G1 X0.551 Y9.711 E2.06570
G1 X0.673 Y10.550 E2.09037
G1 X1.017 Y11.547 E2.12108
G1 X0.637 Y11.856 E2.13535
G1 X-5.057 Y8.440 E2.32858
G1 X-4.945 Y7.946 E2.34333
G1 X-4.149 Y7.868 E2.36661
G1 X-3.352 Y7.634 E2.39078
G1 X-2.584 Y7.237 E2.41592
G1 X-1.920 Y6.712 E2.44058
G1 X-1.376 Y6.084 E2.46476
G1 X-0.944 Y5.335 E2.48991
G1 X-0.673 Y4.550 E2.51410
G1 X-0.551 Y3.711 E2.53877
G1 X-0.589 Y2.864 E2.56344
G1 X-0.793 Y2.024 E2.58860
G1 X-1.146 Y1.253 E2.61327
G1 X-1.628 Y0.576 E2.63745
G1 X-2.240 Y-0.010 E2.66211
G1 X-2.951 Y-0.470 E2.68676
G1 X-3.737 Y-0.786 E2.71142
G1 X-4.585 Y-0.950 E2.73655
G1 X-5.432 Y-0.948 E2.76120
G1 X-6.263 Y-0.786 E2.78585
G1 X-7.049 Y-0.470 E2.81050
G1 X-7.747 Y-0.020 E2.83467
G1 X-8.153 Y0.364 E2.85093
G1 X-8.560 Y0.132 E2.86457
G1 X-8.045 Y-0.764 F18000.000
G1 X-6.602 Y-7.020 E3.05142 F2880.000
G1 X-6.130 Y-7.090 E3.06529
G1 X-5.900 Y-6.700 E3.07848
G1 X-5.298 Y-6.012 E3.10508
G1 X-4.619 Y-5.477 E3.13023
G1 X-3.809 Y-5.054 E3.15682
G1 X-2.934 Y-4.792 E3.18341
G1 X-1.975 Y-4.700 E3.21145
G1 X-1.066 Y-4.792 E3.23804
G1 X-0.191 Y-5.054 E3.26463
G1 X0.577 Y-5.450 E3.28977
G1 X1.298 Y-6.012 E3.31636
G1 X1.900 Y-6.700 E3.34296
G1 X2.443 Y-7.632 E3.37438
G1 X2.887 Y-7.595 E3.38733
G1 X7.481 Y4.877 E3.77414
G1 X7.155 Y5.194 E3.78738
G1 X6.330 Y4.868 E3.81320
G1 X5.482 Y4.705 E3.83834
G1 X4.518 Y4.705 E3.86638
G1 X3.622 Y4.883 E3.89296
G1 X2.820 Y5.204 E3.91810
G1 X2.010 Y5.725 E3.94615
G1 X1.352 Y6.360 E3.97274
G1 X0.826 Y7.107 E3.99935
G1 X0.468 Y7.894 E4.02450
G1 X0.248 Y8.781 E4.05111
G1 X0.199 Y9.694 E4.07772
G1 X0.355 Y10.813 E4.11059
G1 X-0.013 Y11.058 E4.12346
G1 X-4.045 Y8.639 E4.26030
G1 X-3.987 Y8.185 E4.27361
G1 X-3.191 Y7.946 E4.29780
G1 X-2.423 Y7.550 E4.32294
G1 X-1.702 Y6.988 E4.34954
G1 X-1.071 Y6.260 E4.37758
G1 X-0.619 Y5.465 E4.40419
G1 X-0.325 Y4.600 E4.43079
G1 X-0.202 Y3.744 E4.45595
G1 X-0.240 Y2.831 E4.48256
G1 X-0.468 Y1.894 E4.51061
G1 X-0.851 Y1.064 E4.53722
G1 X-1.385 Y0.322 E4.56382
G1 X-2.049 Y-0.306 E4.59042
G1 X-2.820 Y-0.796 E4.61701
G1 X-3.670 Y-1.132 E4.64360
G1 X-4.518 Y-1.295 E4.66874
G1 X-5.432 Y-1.300 E4.69533
G1 X-6.378 Y-1.117 E4.72337
G1 X-7.180 Y-0.796 E4.74851
G1 X-7.660 Y-0.493 E4.76504
G1 X-8.002 Y-0.733 E4.77722
G1 X-7.531 Y-1.437 F18000.000
G1 X-6.433 Y-6.196 E4.91934 F2880.000
G1 X-6.016 Y-6.299 E4.93184
G1 X-5.527 Y-5.747 E4.95329
G1 X-4.822 Y-5.192 E4.97941
G1 X-3.955 Y-4.735 E5.00794
G1 X-2.935 Y-4.435 E5.03888
G1 X-1.958 Y-4.350 E5.06741
G1 X-0.983 Y-4.451 E5.09593
G1 X-0.045 Y-4.735 E5.12446
G1 X0.822 Y-5.192 E5.15299
G1 X1.527 Y-5.747 E5.17911
G1 X2.175 Y-6.483 E5.20764
G1 X2.373 Y-6.810 E5.21877
G1 X2.816 Y-6.772 E5.23172
G1 X6.879 Y4.255 E5.57375
G1 X6.615 Y4.567 E5.58565
G1 X5.449 Y4.350 E5.62016
G1 X4.468 Y4.358 E5.64869
G1 X3.587 Y4.528 E5.67480
G1 X2.675 Y4.885 E5.70333
G1 X1.780 Y5.461 E5.73428
G1 X1.077 Y6.143 E5.76281
G1 X0.515 Y6.947 E5.79135
G1 X0.142 Y7.764 E5.81747
G1 X-0.096 Y8.715 E5.84602
G1 X-0.151 Y9.694 E5.87456
G1 X-0.096 Y10.134 E5.88747
G1 X-0.464 Y10.379 E5.90034
G1 X-3.190 Y8.744 E5.99284
G1 X-3.177 Y8.333 E6.00481
G1 X-2.178 Y7.808 E6.03765
G1 X-1.412 Y7.195 E6.06618
G1 X-0.825 Y6.517 E6.09230
G1 X-0.328 Y5.671 E6.12084
G1 X-0.000 Y4.747 E6.14938
G1 X0.147 Y3.777 E6.17792
G1 X0.096 Y2.715 E6.20888
G1 X-0.142 Y1.764 E6.23742
G1 X-0.556 Y0.875 E6.26596
G1 X-1.131 Y0.080 E6.29450
G1 X-1.846 Y-0.591 E6.32303
G1 X-2.600 Y-1.077 E6.34915
G1 X-3.507 Y-1.449 E6.37768
G1 X-4.468 Y-1.642 E6.40620
G1 X-5.449 Y-1.650 E6.43473
G1 X-6.413 Y-1.472 E6.46326
G1 X-7.209 Y-1.162 E6.48813
G1 X-7.491 Y-1.403 E6.49894
G1 X-6.881 Y-0.162 F18000.000
G1 X-6.156 Y-0.452 E6.52165 F2160.000
G1 X-5.390 Y-0.600 E6.54436
G1 X-4.610 Y-0.600 E6.56706
G1 X-3.844 Y-0.452 E6.58977
G1 X-3.119 Y-0.162 E6.61248
G1 X-2.463 Y0.260 E6.63519
G1 X-1.898 Y0.799 E6.65791
G1 X-1.446 Y1.436 E6.68064
G1 X-1.122 Y2.146 E6.70337
G1 X-0.938 Y2.906 E6.72610
G1 X-0.901 Y3.686 E6.74883
G1 X-1.012 Y4.459 E6.77157
G1 X-1.267 Y5.197 E6.79430
G1 X-1.657 Y5.874 E6.81703
G1 X-2.168 Y6.464 E6.83975
G1 X-2.781 Y6.947 E6.86247
G1 X-3.475 Y7.305 E6.88518
G1 X-4.223 Y7.525 E6.90789
G1 X-5.000 Y7.599 E6.93059
G1 X-5.777 Y7.525 E6.95330
G1 X-6.525 Y7.305 E6.97601
G1 X-7.219 Y6.947 E6.99872
G1 X-7.832 Y6.464 E7.02143
G1 X-8.343 Y5.874 E7.04416
G1 X-8.733 Y5.197 E7.06688
G1 X-8.988 Y4.459 E7.08962
G1 X-9.099 Y3.686 E7.11235
G1 X-9.062 Y2.906 E7.13508
G1 X-8.878 Y2.146 E7.15782
G1 X-8.554 Y1.436 E7.18055
G1 X-8.102 Y0.799 E7.20327
G1 X-7.537 Y0.260 E7.22599
G1 X-6.925 Y-0.133 E7.24718
G1 F600.000 E6.54718
G1 Z0.400 F18000.000
G92 E0
G1 X-1.252 Y3.669 F18000.000
;AAA selfz = 0.4, lifted = .2
G1 Z0.200 F18000.000
G1 E0.70000 F600.000
G1 X-1.353 Y4.376 E0.72079 F2160.000
G1 X-1.587 Y5.051 E0.74158
G1 X-1.943 Y5.670 E0.76236
G1 X-2.411 Y6.210 E0.78314
G1 X-2.971 Y6.651 E0.80391
G1 X-3.606 Y6.979 E0.82468
G1 X-4.290 Y7.180 E0.84544
G1 X-5.000 Y7.248 E0.86620
G1 X-5.710 Y7.180 E0.88695
G1 X-6.394 Y6.979 E0.90771
G1 X-7.029 Y6.651 E0.92848
G1 X-7.589 Y6.210 E0.94925
G1 X-8.057 Y5.670 E0.97003
G1 X-8.413 Y5.051 E0.99081
G1 X-8.647 Y4.376 E1.01160
G1 X-8.748 Y3.669 E1.03239
G1 X-8.714 Y2.955 E1.05318
G1 X-8.546 Y2.261 E1.07397
G1 X-8.250 Y1.611 E1.09476
G1 X-7.836 Y1.030 E1.11554
G1 X-7.319 Y0.537 E1.13631
G1 X-6.719 Y0.151 E1.15708
G1 X-6.057 Y-0.115 E1.17784
G1 X-5.357 Y-0.250 E1.19860
G1 X-4.643 Y-0.250 E1.21936
G1 X-3.943 Y-0.115 E1.24012
G1 X-3.281 Y0.151 E1.26088
G1 X-2.681 Y0.537 E1.28165
G1 X-2.164 Y1.030 E1.30242
G1 X-1.750 Y1.611 E1.32320
G1 X-1.454 Y2.261 E1.34399
G1 X-1.286 Y2.955 E1.36478
G1 X-1.254 Y3.617 E1.38404
G1 X-3.024 Y3.490 F18000.000
G1 X-3.062 Y3.876 E1.39532 F2160.000
G1 X-3.175 Y4.246 E1.40659
G1 X-3.357 Y4.588 E1.41786
G1 X-3.603 Y4.887 E1.42913
G1 X-3.902 Y5.133 E1.44041
G1 X-4.244 Y5.316 E1.45168
G1 X-4.615 Y5.428 E1.46295
G1 X-5.000 Y5.466 E1.47422
G1 X-5.385 Y5.428 E1.48549
G1 X-5.756 Y5.316 E1.49677
G1 X-6.098 Y5.133 E1.50804
G1 X-6.397 Y4.887 E1.51931
G1 X-6.643 Y4.588 E1.53058
G1 X-6.825 Y4.246 E1.54186
G1 X-6.938 Y3.876 E1.55313
G1 X-6.976 Y3.490 E1.56440
G1 X-6.938 Y3.105 E1.57567
G1 X-6.825 Y2.734 E1.58695
G1 X-6.643 Y2.393 E1.59822
G1 X-6.397 Y2.093 E1.60949
G1 X-6.098 Y1.847 E1.62076
G1 X-5.756 Y1.665 E1.63204
G1 X-5.385 Y1.552 E1.64331
G1 X-5.000 Y1.514 E1.65458
G1 X-4.615 Y1.552 E1.66585
G1 X-4.244 Y1.665 E1.67713
G1 X-3.902 Y1.847 E1.68840
G1 X-3.603 Y2.093 E1.69967
G1 X-3.357 Y2.393 E1.71094
G1 X-3.175 Y2.734 E1.72222
G1 X-3.062 Y3.105 E1.73349
G1 X-3.029 Y3.438 E1.74323
G1 X-2.681 Y3.404 F18000.000
G1 X-2.672 Y3.490 E1.74575 F2160.000
G1 X-2.717 Y3.944 E1.75903
G1 X-2.850 Y4.381 E1.77231
G1 X-3.065 Y4.783 E1.78558
G1 X-3.354 Y5.136 E1.79886
G1 X-3.707 Y5.426 E1.81214
G1 X-4.109 Y5.641 E1.82542
G1 X-4.546 Y5.773 E1.83870
G1 X-5.000 Y5.818 E1.85198
G1 X-5.454 Y5.773 E1.86526
G1 X-5.891 Y5.641 E1.87854
G1 X-6.293 Y5.426 E1.89182
G1 X-6.646 Y5.136 E1.90509
G1 X-6.935 Y4.783 E1.91837
G1 X-7.150 Y4.381 E1.93165
G1 X-7.283 Y3.944 E1.94493
G1 X-7.328 Y3.490 E1.95821
G1 X-7.283 Y3.036 E1.97149
G1 X-7.150 Y2.600 E1.98477
G1 X-6.935 Y2.197 E1.99805
G1 X-6.646 Y1.844 E2.01133
G1 X-6.293 Y1.555 E2.02460
G1 X-5.891 Y1.340 E2.03788
G1 X-5.454 Y1.207 E2.05116
G1 X-5.000 Y1.163 E2.06444
G1 X-4.546 Y1.207 E2.07772
G1 X-4.109 Y1.340 E2.09100
G1 X-3.707 Y1.555 E2.10428
G1 X-3.354 Y1.844 E2.11756
G1 X-3.065 Y2.197 E2.13084
G1 X-2.850 Y2.600 E2.14411
G1 X-2.717 Y3.036 E2.15739
G1 X-2.686 Y3.352 E2.16663
G1 X-2.650 Y2.467 F18000.000
G1 X-1.493 Y3.625 E2.21666 F3840.000
G1 X-1.552 Y4.085 E2.23084
G1 X-2.464 Y3.173 E2.27025
G1 X-2.454 Y3.703 E2.28645
G1 X-1.651 Y4.506 E2.32117
G1 X-1.784 Y4.893 E2.33366
G1 X-2.530 Y4.147 E2.36588
G1 X-2.662 Y4.535 E2.37840
G1 X-1.966 Y5.231 E2.40849
G1 X-2.160 Y5.556 E2.42007
G1 X-2.843 Y4.874 E2.44956
G1 X-3.070 Y5.166 E2.46088
G1 X-2.401 Y5.835 E2.48979
G1 X-2.661 Y6.095 E2.50102
G1 X-3.331 Y5.425 E2.52998
G1 X-3.624 Y5.652 E2.54130
G1 X-2.947 Y6.329 E2.57056
G1 X-3.262 Y6.533 E2.58205
G1 X-3.963 Y5.833 E2.61232
G1 X-4.352 Y5.963 E2.62487
G1 X-3.605 Y6.710 E2.65714
G1 X-3.992 Y6.844 E2.66964
G1 X-4.798 Y6.038 E2.70447
G1 X-5.330 Y6.025 E2.72075
G1 X-4.404 Y6.951 E2.76078
G1 X-4.878 Y6.996 E2.77535
G1 X-6.048 Y5.827 E2.82589
G1 X-6.097 Y6.817 F18000.000
G1 X-8.318 Y4.596 E2.92190 F3840.000
G1 X-8.471 Y3.924 E2.94297
G1 X-5.427 Y6.967 E3.07451
G1 F600.000 E2.37451
G1 Z0.400 F18000.000
G92 E0
G1 X-5.000 Y7.236 F18000.000
G1 X-7.301 Y6.133 F18000.000
;AAA selfz = 0.4, lifted = .2
G1 Z0.200 F18000.000
G1 E0.70000 F600.000
G1 X-7.592 Y5.842 E0.71257 F3840.000
G1 X-7.337 Y4.538 F18000.000
G1 X-8.496 Y3.379 E0.76266 F3840.000
G1 X-8.455 Y2.900 E0.77737
G1 X-7.535 Y3.820 E0.81716
G1 X-7.547 Y3.288 E0.83344
G1 X-8.354 Y2.481 E0.86831
G1 X-8.212 Y2.103 E0.88065
G1 X-7.473 Y2.842 E0.91258
G1 X-7.342 Y2.453 E0.92513
G1 X-8.049 Y1.746 E0.95567
G1 X-7.835 Y1.440 E0.96708
G1 X-7.161 Y2.114 E0.99621
G1 X-6.935 Y1.821 E1.00754
G1 X-7.599 Y1.157 E1.03625
G1 X-7.339 Y0.897 E1.04748
G1 X-6.676 Y1.560 E1.07616
G1 X-6.383 Y1.333 E1.08748
G1 X-7.062 Y0.654 E1.11681
G1 X-6.746 Y0.451 E1.12830
G1 X-6.045 Y1.152 E1.15859
G1 X-5.657 Y1.020 E1.17111
G1 X-6.398 Y0.279 E1.20315
G1 X-6.027 Y0.130 E1.21537
G1 X-5.213 Y0.944 E1.25056
G1 X-4.683 Y0.954 E1.26677
G1 X-5.598 Y0.039 E1.30632
G1 X-5.129 Y-0.012 E1.32073
G1 X-3.977 Y1.140 E1.37052
G1 X-3.931 Y0.147 F18000.000
G1 X-1.662 Y2.416 E1.46858 F3840.000
G1 X-1.519 Y3.079 E1.48932
G1 X-4.595 Y0.002 E1.62230
G1 X-2.840 Y0.718 F18000.000
G1 X-2.281 Y1.276 E1.64646 F3840.000
