; generated by Slic3r 1.3.0-dev on 2017-07-02 at 07:44:24

; external perimeters extrusion width = 0.35mm (1.78mm^3/s)
; perimeters extrusion width = 0.44mm (2.89mm^3/s)
; infill extrusion width = 0.44mm (5.77mm^3/s)
; solid infill extrusion width = 0.44mm (5.77mm^3/s)
; top infill extrusion width = 0.44mm (4.81mm^3/s)
; support material extrusion width = 0.35mm (4.45mm^3/s)

M107
G28
G92 X0 Y0 Z0 E0
G1 F5000 Y30 X30
G1 X220
G1 F100 E30 ;extrude

G28
G92 X0 Y0 Z0
G1 F4000 X101 Y127
G92 X0 Y0 Z0 E0
; Filament gcode

G21 ; set units to millimeters
G90 ; use absolute coordinates
M82 ; use absolute distances for extrusion
G92 E0
G1 E-0.80000 F600.00000
G92 E0
G1 Z0.300 F5400.000
G1 X-26.856 Y2.551 F5400.000
G1 Z0.200 F5400.000
G1 E0.80000 F600.00000
G1 F1800
G1 X-27.620 Y-0.021 E0.88153
G1 X-27.620 Y-13.966 E1.30521
G1 X-27.448 Y-15.226 E1.34383
G1 X-27.297 Y-15.742 E1.36017
G1 X-26.827 Y-17.124 E1.40451
G1 X-26.626 Y-17.622 E1.42083
G1 X-26.199 Y-18.525 E1.45118
G1 X-25.980 Y-18.933 E1.46524
G1 X-25.289 Y-20.057 E1.50533
G1 X-24.526 Y-21.112 E1.54490
G1 X-24.246 Y-21.455 E1.55835
G1 X-23.476 Y-22.310 E1.59332
G1 X-23.148 Y-22.637 E1.60737
G1 X-22.250 Y-23.443 E1.64404
G1 X-21.924 Y-23.708 E1.65680
G1 X-21.036 Y-24.357 E1.69022
G1 X-20.456 Y-24.732 E1.71118
G1 X-19.604 Y-25.230 E1.74118
G1 X-18.424 Y-25.805 E1.78105
G1 X-18.041 Y-25.966 E1.79368
G1 X-16.914 Y-26.375 E1.83011
G1 X-15.933 Y-26.645 E1.86103
G1 X-14.950 Y-26.867 E1.89163
G1 X-13.865 Y-27.028 E1.92497
G1 X-13.404 Y-27.074 E1.93902
G1 X-12.022 Y-27.133 E1.98106
G1 X12.133 Y-26.849 E2.71498
G1 X13.392 Y-26.791 E2.75326
G1 X13.841 Y-26.747 E2.76699
G1 X14.935 Y-26.586 E2.80058
G1 X15.376 Y-26.499 E2.81423
G1 X16.468 Y-26.227 E2.84843
G1 X16.911 Y-26.093 E2.86249
G1 X17.944 Y-25.723 E2.89582
G1 X18.371 Y-25.546 E2.90987
G1 X19.363 Y-25.077 E2.94320
G1 X19.771 Y-24.859 E2.95726
G1 X20.712 Y-24.295 E2.99060
G1 X21.097 Y-24.038 E3.00465
G1 X21.978 Y-23.384 E3.03798
G1 X22.336 Y-23.091 E3.05204
G1 X23.420 Y-22.076 E3.09717
G1 X24.212 Y-21.214 E3.13273
G1 X24.506 Y-20.856 E3.14679
G1 X25.159 Y-19.975 E3.18012
G1 X25.416 Y-19.590 E3.19418
G1 X25.866 Y-18.840 E3.22075
G1 X26.589 Y-17.414 E3.26932
G1 X26.845 Y-16.822 E3.28892
G1 X27.214 Y-15.789 E3.32225
G1 X27.478 Y-14.828 E3.35252
G1 X27.620 Y-13.683 E3.38759
G1 X27.620 Y0.262 E3.81126
G1 X27.235 Y2.127 E3.86910
G1 X17.694 Y24.282 E4.60199
G1 X16.583 Y25.862 E4.66068
G1 X14.931 Y26.864 E4.71937
G1 X13.364 Y27.132 E4.76766
G1 X-8.292 Y27.132 E5.42561
G1 X-10.183 Y26.736 E5.48430
G1 X-12.242 Y24.990 E5.56633
G1 X-26.827 Y2.595 E6.37830
G1 X-26.557 Y2.356 F5400.000
G1 F1800
G1 X-27.263 Y-0.021 E6.45366
G1 X-27.263 Y-13.966 E6.87733
G1 X-27.104 Y-15.131 E6.91302
G1 X-26.959 Y-15.627 E6.92875
G1 X-26.489 Y-17.009 E6.97309
G1 X-26.303 Y-17.469 E6.98817
G1 X-25.876 Y-18.372 E7.01852
G1 X-25.674 Y-18.749 E7.03151
G1 X-24.985 Y-19.869 E7.07144
G1 X-24.239 Y-20.900 E7.11010
G1 X-23.980 Y-21.217 E7.12254
G1 X-23.211 Y-22.071 E7.15746
G1 X-22.909 Y-22.373 E7.17045
G1 X-22.012 Y-23.176 E7.20703
G1 X-21.711 Y-23.421 E7.21881
G1 X-20.829 Y-24.066 E7.25202
G1 X-20.273 Y-24.425 E7.27213
G1 X-19.433 Y-24.917 E7.30169
G1 X-18.271 Y-25.482 E7.34094
G1 X-17.917 Y-25.631 E7.35261
G1 X-16.793 Y-26.039 E7.38893
G1 X-15.846 Y-26.298 E7.41879
G1 X-14.898 Y-26.514 E7.44832
G1 X-13.812 Y-26.675 E7.48166
G1 X-13.387 Y-26.717 E7.49465
G1 X-12.026 Y-26.776 E7.53603
G1 X12.129 Y-26.492 E8.26994
G1 X13.374 Y-26.434 E8.30782
G1 X13.790 Y-26.394 E8.32051
G1 X14.883 Y-26.233 E8.35408
G1 X15.290 Y-26.152 E8.36670
G1 X16.382 Y-25.881 E8.40087
G1 X16.791 Y-25.756 E8.41385
G1 X17.823 Y-25.387 E8.44718
G1 X18.219 Y-25.223 E8.46018
G1 X19.210 Y-24.754 E8.49351
G1 X19.587 Y-24.553 E8.50650
G1 X20.529 Y-23.988 E8.53984
G1 X20.884 Y-23.751 E8.55282
G1 X21.765 Y-23.097 E8.58616
G1 X22.096 Y-22.826 E8.59915
G1 X23.161 Y-21.830 E8.64347
G1 X23.948 Y-20.974 E8.67878
G1 X24.219 Y-20.644 E8.69177
G1 X24.873 Y-19.762 E8.72511
G1 X25.110 Y-19.407 E8.73809
G1 X25.560 Y-18.657 E8.76467
G1 X26.269 Y-17.256 E8.81237
G1 X26.508 Y-16.702 E8.83070
G1 X26.878 Y-15.669 E8.86404
G1 X27.132 Y-14.742 E8.89325
G1 X27.263 Y-13.683 E8.92566
G1 X27.263 Y0.262 E9.34933
G1 X26.907 Y1.985 E9.40279
G1 X17.366 Y24.141 E10.13568
G1 X16.285 Y25.650 E10.19207
G1 X14.675 Y26.573 E10.24847
G1 X13.364 Y26.775 E10.28875
G1 X-8.292 Y26.775 E10.94671
G1 X-10.106 Y26.379 E11.00310
G1 X-11.943 Y24.795 E11.07681
G1 X-26.528 Y2.400 E11.88878
G1 E11.08878 F600.00000
G92 E0
G1 Z0.500 F5400.000
G1 X-22.834 Y-14.225 F5400.000
G1 Z0.200 F5400.000
G1 E0.80000 F600.00000
G1 F1260
G1 X-22.834 Y-0.028 E1.17092
G1 X-22.268 Y-0.028 E1.18571
G1 X-22.268 Y-15.794 E1.59765
G1 X-21.931 Y-16.506 E1.61822
G1 X-21.702 Y-16.889 E1.62988
G1 X-21.702 Y-0.028 E2.07042
G1 X-21.135 Y-0.028 E2.08521
G1 X-21.135 Y-17.759 E2.54848
G1 X-20.714 Y-18.327 E2.56696
G1 X-20.569 Y-18.487 E2.57260
G1 X-20.569 Y-0.028 E3.05489
G1 X-20.003 Y-0.028 E3.06968
G1 X-20.003 Y-19.112 E3.56829
G1 X-19.437 Y-19.630 E3.58834
G1 X-19.437 Y-0.028 E4.10049
G1 X-18.871 Y-0.028 E4.11528
G1 X-18.871 Y-20.095 E4.63956
G1 X-18.305 Y-20.514 E4.65798
G1 X-18.305 Y-0.028 E5.19324
G1 X-17.739 Y-0.028 E5.20803
G1 X-17.739 Y-20.857 E5.75222
G1 X-17.344 Y-21.093 E5.76424
G1 X-17.173 Y-21.174 E5.76920
G1 X-17.173 Y-0.028 E6.32170
G1 X-16.606 Y-0.028 E6.33649
G1 X-16.606 Y-21.442 E6.89598
G1 X-16.353 Y-21.562 E6.90330
G1 X-16.040 Y-21.674 E6.91198
G1 X-16.040 Y-0.028 E7.47753
G1 X-15.474 Y-0.028 E7.49232
G1 X-15.474 Y-21.876 E8.06316
G1 X-14.908 Y-22.035 E8.07851
G1 X-14.908 Y-0.028 E8.65349
G1 X-14.342 Y-0.028 E8.66828
G1 X-14.342 Y-22.176 E9.24696
G1 X-13.776 Y-22.269 E9.26195
G1 X-13.776 Y-0.028 E9.84305
G1 X-13.210 Y-0.028 E9.85784
G1 X-13.210 Y-22.353 E10.44113
G1 X-12.644 Y-22.384 E10.45594
G1 X-12.644 Y-0.028 E11.04006
G1 X-12.077 Y-0.028 E11.05485
G1 X-12.077 Y-22.412 E11.63969
G1 X-11.511 Y-22.384 E11.65450
G1 X-11.511 Y-0.028 E12.23862
G1 X-10.945 Y-0.028 E12.25341
G1 X-10.945 Y-22.353 E12.83670
G1 X-10.379 Y-22.269 E12.85166
G1 X-10.379 Y-0.028 E13.43276
G1 X-9.813 Y-0.028 E13.44755
G1 X-9.813 Y-22.176 E14.02623
G1 X-9.247 Y-22.035 E14.04148
G1 X-9.247 Y-0.028 E14.61645
G1 X-8.681 Y-0.028 E14.63124
G1 X-8.681 Y-21.876 E15.20208
G1 X-8.114 Y-21.674 E15.21779
G1 X-8.114 Y-0.028 E15.78333
G1 X-7.548 Y-0.028 E15.79813
G1 X-7.548 Y-21.442 E16.35762
G1 X-6.982 Y-21.174 E16.37398
G1 X-6.982 Y-0.028 E16.92647
G1 X-6.416 Y-0.028 E16.94127
G1 X-6.416 Y-20.857 E17.48546
G1 X-5.870 Y-20.529 E17.50210
G1 X-5.850 Y-20.514 E17.50275
G1 X-5.850 Y-0.028 E18.03800
G1 X-5.284 Y-0.028 E18.05280
G1 X-5.284 Y-20.095 E18.57708
G1 X-4.989 Y-19.876 E18.58666
G1 X-4.718 Y-19.630 E18.59624
G1 X-4.718 Y-0.028 E19.10839
G1 X-4.152 Y-0.028 E19.12318
G1 X-4.152 Y-19.112 E19.62179
G1 X-3.585 Y-18.487 E19.64381
G1 X-3.585 Y-0.028 E20.12611
G1 X-3.019 Y-0.028 E20.14090
G1 X-3.019 Y-17.759 E20.60417
G1 X-2.787 Y-17.447 E20.61434
G1 X-2.453 Y-16.889 E20.63133
G1 X-2.453 Y-0.028 E21.07186
G1 X-1.887 Y-0.028 E21.08665
G1 X-1.887 Y-15.794 E21.49859
G1 X-1.755 Y-15.515 E21.50666
G1 X-1.386 Y-14.483 E21.53531
G1 X-1.321 Y-14.225 E21.54226
G1 X-1.321 Y-0.028 E21.91318
G1 E21.11318 F600.00000
G92 E0
G1 Z0.500 F5400.000
G1 X1.321 Y-13.941 F5400.000
G1 Z0.200 F5400.000
G1 E0.80000 F600.00000
G1 F1260
G1 X1.321 Y0.255 E1.17092
G1 X1.887 Y0.255 E1.18571
G1 X1.887 Y-15.511 E1.59765
G1 X2.224 Y-16.223 E1.61822
G1 X2.453 Y-16.606 E1.62988
G1 X2.453 Y0.255 E2.07042
G1 X3.019 Y0.255 E2.08521
G1 X3.019 Y-17.476 E2.54848
G1 X3.441 Y-18.044 E2.56696
G1 X3.585 Y-18.204 E2.57260
G1 X3.585 Y0.255 E3.05489
G1 X4.152 Y0.255 E3.06968
G1 X4.152 Y-18.828 E3.56829
G1 X4.718 Y-19.346 E3.58834
G1 X4.718 Y0.255 E4.10049
G1 X5.284 Y0.255 E4.11528
G1 X5.284 Y-19.811 E4.63956
G1 X5.850 Y-20.231 E4.65798
G1 X5.850 Y0.255 E5.19324
G1 X6.416 Y0.255 E5.20803
G1 X6.416 Y-20.573 E5.75222
G1 X6.810 Y-20.809 E5.76424
G1 X6.982 Y-20.891 E5.76920
G1 X6.982 Y0.255 E6.32170
G1 X7.548 Y0.255 E6.33649
G1 X7.548 Y-21.158 E6.89598
G1 X7.802 Y-21.278 E6.90330
G1 X8.114 Y-21.390 E6.91198
G1 X8.114 Y0.255 E7.47753
G1 X8.681 Y0.255 E7.49232
G1 X8.681 Y-21.593 E8.06316
G1 X9.247 Y-21.751 E8.07851
G1 X9.247 Y0.255 E8.65349
G1 X9.813 Y0.255 E8.66828
G1 X9.813 Y-21.893 E9.24696
G1 X10.379 Y-21.985 E9.26195
G1 X10.379 Y0.255 E9.84305
G1 X10.945 Y0.255 E9.85784
G1 X10.945 Y-22.069 E10.44113
G1 X11.511 Y-22.101 E10.45594
G1 X11.511 Y0.255 E11.04006
G1 X12.077 Y0.255 E11.05485
G1 X12.077 Y-22.129 E11.63969
G1 X12.644 Y-22.101 E11.65450
G1 X12.644 Y0.255 E12.23862
G1 X13.210 Y0.255 E12.25341
G1 X13.210 Y-22.069 E12.83670
G1 X13.776 Y-21.985 E12.85166
G1 X13.776 Y0.255 E13.43276
G1 X14.342 Y0.255 E13.44755
G1 X14.342 Y-21.893 E14.02623
G1 X14.908 Y-21.751 E14.04148
G1 X14.908 Y0.255 E14.61645
G1 X15.474 Y0.255 E14.63124
G1 X15.474 Y-21.593 E15.20208
G1 X16.040 Y-21.390 E15.21779
G1 X16.040 Y0.255 E15.78333
G1 X16.606 Y0.255 E15.79813
G1 X16.606 Y-21.158 E16.35762
G1 X17.173 Y-20.891 E16.37398
G1 X17.173 Y0.255 E16.92647
G1 X17.739 Y0.255 E16.94127
G1 X17.739 Y-20.573 E17.48546
G1 X18.285 Y-20.246 E17.50210
G1 X18.305 Y-20.231 E17.50275
G1 X18.305 Y0.255 E18.03800
G1 X18.871 Y0.255 E18.05280
G1 X18.871 Y-19.811 E18.57708
G1 X19.165 Y-19.593 E18.58666
G1 X19.437 Y-19.346 E18.59624
G1 X19.437 Y0.255 E19.10839
G1 X20.003 Y0.255 E19.12318
G1 X20.003 Y-18.828 E19.62179
G1 X20.569 Y-18.204 E19.64381
G1 X20.569 Y0.255 E20.12611
G1 X21.135 Y0.255 E20.14090
G1 X21.135 Y-17.476 E20.60417
G1 X21.367 Y-17.163 E20.61434
G1 X21.702 Y-16.606 E20.63133
G1 X21.702 Y0.255 E21.07186
G1 X22.268 Y0.255 E21.08665
G1 X22.268 Y-15.511 E21.49859
G1 X22.400 Y-15.231 E21.50666
G1 X22.769 Y-14.199 E21.53531
G1 X22.834 Y-13.941 E21.54226
G1 X22.834 Y0.255 E21.91318
G1 E21.11318 F600.00000
G92 E0
G1 Z0.500 F5400.000
G1 X13.293 Y22.411 F5400.000
G1 Z0.200 F5400.000
G1 E0.80000 F600.00000
G1 F1260
G1 X13.293 Y8.214 E1.17092
G1 X13.228 Y7.956 E1.17787
G1 X12.859 Y6.924 E1.20652
G1 X12.726 Y6.645 E1.21459
G1 X12.726 Y22.411 E1.62653
G1 X12.160 Y22.411 E1.64132
G1 X12.160 Y5.550 E2.08185
G1 X11.826 Y4.992 E2.09884
G1 X11.594 Y4.680 E2.10901
G1 X11.594 Y22.411 E2.57228
G1 X11.028 Y22.411 E2.58707
G1 X11.028 Y3.952 E3.06936
G1 X10.462 Y3.327 E3.09139
G1 X10.462 Y22.411 E3.59000
G1 X9.896 Y22.411 E3.60479
G1 X9.896 Y2.809 E4.11694
G1 X9.624 Y2.563 E4.12652
G1 X9.330 Y2.344 E4.13610
G1 X9.330 Y22.411 E4.66038
G1 X8.764 Y22.411 E4.67517
G1 X8.764 Y1.925 E5.21043
G1 X8.744 Y1.910 E5.21108
G1 X8.197 Y1.582 E5.22772
G1 X8.197 Y22.411 E5.77191
G1 X7.631 Y22.411 E5.78671
G1 X7.631 Y1.265 E6.33920
G1 X7.065 Y0.997 E6.35556
G1 X7.065 Y22.411 E6.91505
G1 X6.499 Y22.411 E6.92984
G1 X6.499 Y0.765 E7.49539
G1 X5.933 Y0.563 E7.51110
G1 X5.933 Y22.411 E8.08194
G1 X5.367 Y22.411 E8.09673
G1 X5.367 Y0.404 E8.67170
G1 X4.801 Y0.263 E8.68695
G1 X4.801 Y22.411 E9.26563
G1 X4.235 Y22.411 E9.28042
G1 X4.235 Y0.170 E9.86152
G1 X3.668 Y0.086 E9.87647
G1 X3.668 Y22.411 E10.45977
G1 X3.102 Y22.411 E10.47456
G1 X3.102 Y0.055 E11.05867
G1 X2.536 Y0.027 E11.07348
G1 X2.536 Y22.411 E11.65833
G1 X1.970 Y22.411 E11.67312
G1 X1.970 Y0.055 E12.25723
G1 X1.404 Y0.086 E12.27205
G1 X1.404 Y22.411 E12.85534
G1 X0.838 Y22.411 E12.87013
G1 X0.838 Y0.170 E13.45123
G1 X0.272 Y0.263 E13.46622
G1 X0.272 Y22.411 E14.04490
G1 X-0.294 Y22.411 E14.05969
G1 X-0.294 Y0.404 E14.63466
G1 X-0.861 Y0.563 E14.65002
G1 X-0.861 Y22.411 E15.22086
G1 X-1.427 Y22.411 E15.23565
G1 X-1.427 Y0.765 E15.80120
G1 X-1.740 Y0.877 E15.80988
G1 X-1.993 Y0.997 E15.81720
G1 X-1.993 Y22.411 E16.37669
G1 X-2.559 Y22.411 E16.39148
G1 X-2.559 Y1.265 E16.94398
G1 X-2.731 Y1.346 E16.94894
G1 X-3.125 Y1.582 E16.96096
G1 X-3.125 Y22.411 E17.50515
G1 X-3.691 Y22.411 E17.51994
G1 X-3.691 Y1.925 E18.05520
G1 X-4.257 Y2.344 E18.07362
G1 X-4.257 Y22.411 E18.59790
G1 X-4.824 Y22.411 E18.61269
G1 X-4.824 Y2.809 E19.12484
G1 X-5.390 Y3.327 E19.14489
G1 X-5.390 Y22.411 E19.64350
G1 X-5.956 Y22.411 E19.65829
G1 X-5.956 Y3.952 E20.14058
G1 X-6.101 Y4.112 E20.14622
G1 X-6.522 Y4.680 E20.16470
G1 X-6.522 Y22.411 E20.62797
G1 X-7.088 Y22.411 E20.64276
G1 X-7.088 Y5.550 E21.08330
G1 X-7.318 Y5.933 E21.09496
G1 X-7.654 Y6.645 E21.11553
G1 X-7.654 Y22.411 E21.52747
G1 X-8.220 Y22.411 E21.54226
G1 X-8.220 Y8.214 E21.91318
G1 E21.11318 F600.00000
G92 E0
G1 Z0.500 F5400.000
G1 X-25.082 Y0.796 F5400.000
G1 X-1.249 Y-0.021 F5400.000
G1 Z0.463 F5400.000
G1 E0.80000 F600.00000
G1 F2520
G1 X-1.249 Y-13.966 E1.25732
G1 X-1.379 Y-14.485 E1.27484
G1 X-1.791 Y-15.606 E1.31403
G1 X-1.791 Y-0.021 E1.82513
G1 X-2.332 Y-0.021 E1.84288
G1 X-2.332 Y-16.700 E2.38985
G1 X-2.782 Y-17.450 E2.41854
G1 X-2.874 Y-17.574 E2.42359
G1 X-2.874 Y-0.021 E2.99922
G1 X-3.415 Y-0.021 E3.01697
G1 X-3.415 Y-18.304 E3.61655
G1 X-3.956 Y-18.906 E3.64311
G1 X-3.956 Y-0.021 E4.26243
G1 X-4.498 Y-0.021 E4.28019
G1 X-4.498 Y-19.440 E4.91700
G1 X-5.039 Y-19.921 E4.94076
G1 X-5.039 Y-0.021 E5.59338
G1 X-5.581 Y-0.021 E5.61113
G1 X-5.581 Y-20.323 E6.27691
G1 X-5.866 Y-20.535 E6.28858
G1 X-6.122 Y-20.688 E6.29835
G1 X-6.122 Y-0.021 E6.97611
G1 X-6.663 Y-0.021 E6.99386
G1 X-6.663 Y-21.013 E7.68226
G1 X-7.205 Y-21.287 E7.70216
G1 X-7.205 Y-0.021 E8.39955
G1 X-7.746 Y-0.021 E8.41731
G1 X-7.746 Y-21.543 E9.12310
G1 X-8.288 Y-21.743 E9.14202
G1 X-8.288 Y-0.021 E9.85437
G1 X-8.829 Y-0.021 E9.87212
G1 X-8.829 Y-21.936 E10.59082
G1 X-9.370 Y-22.072 E10.60912
G1 X-9.370 Y-0.021 E11.33227
G1 X-9.912 Y-0.021 E11.35003
G1 X-9.912 Y-22.206 E12.07758
G1 X-10.453 Y-22.287 E12.09553
G1 X-10.453 Y-0.021 E12.82571
G1 X-10.995 Y-0.021 E12.84347
G1 X-10.995 Y-22.366 E13.57624
G1 X-11.536 Y-22.392 E13.59402
G1 X-11.536 Y-0.021 E14.32766
G1 X-12.077 Y-0.021 E14.34542
G1 X-12.077 Y-22.419 E15.07994
G1 X-12.619 Y-22.392 E15.09771
G1 X-12.619 Y-0.021 E15.83136
G1 X-13.160 Y-0.021 E15.84911
G1 X-13.160 Y-22.366 E16.58189
G1 X-13.702 Y-22.287 E16.59983
G1 X-13.702 Y-0.021 E17.33001
G1 X-14.243 Y-0.021 E17.34777
G1 X-14.243 Y-22.206 E18.07532
G1 X-14.784 Y-22.072 E18.09361
G1 X-14.784 Y-0.021 E18.81676
G1 X-15.326 Y-0.021 E18.83452
G1 X-15.326 Y-21.936 E19.55321
G1 X-15.867 Y-21.743 E19.57207
G1 X-15.867 Y-0.021 E20.28441
G1 X-16.409 Y-0.021 E20.30217
G1 X-16.409 Y-21.543 E21.00795
G1 X-16.950 Y-21.287 E21.02760
G1 X-16.950 Y-0.021 E21.72499
G1 X-17.491 Y-0.021 E21.74274
G1 X-17.491 Y-21.013 E22.43114
G1 X-18.033 Y-20.688 E22.45184
G1 X-18.033 Y-0.021 E23.12959
G1 X-18.574 Y-0.021 E23.14735
G1 X-18.574 Y-20.323 E23.81313
G1 X-19.116 Y-19.921 E23.83524
G1 X-19.116 Y-0.021 E24.48785
G1 X-19.657 Y-0.021 E24.50560
G1 X-19.657 Y-19.440 E25.14241
G1 X-19.983 Y-19.145 E25.15682
G1 X-20.198 Y-18.906 E25.16736
G1 X-20.198 Y-0.021 E25.78669
G1 X-20.740 Y-0.021 E25.80444
G1 X-20.740 Y-18.304 E26.40401
G1 X-21.281 Y-17.574 E26.43382
G1 X-21.281 Y-0.021 E27.00945
G1 X-21.823 Y-0.021 E27.02721
G1 X-21.823 Y-16.700 E27.57418
G1 X-21.937 Y-16.509 E27.58147
G1 X-22.364 Y-15.606 E27.61423
G1 X-22.364 Y-0.021 E28.12533
G1 X-22.905 Y-0.021 E28.14309
G1 X-22.905 Y-13.966 E28.60041
G1 E27.80041 F600.00000
G92 E0
G1 Z0.762 F5400.000
G1 X1.249 Y-13.683 F5400.000
G1 Z0.462 F5400.000
G1 E0.80000 F600.00000
G1 F2520
G1 X1.249 Y0.262 E1.25732
G1 X1.791 Y0.262 E1.27508
G1 X1.791 Y-15.323 E1.78618
G1 X2.218 Y-16.226 E1.81894
G1 X2.332 Y-16.417 E1.82623
G1 X2.332 Y0.262 E2.37320
G1 X2.874 Y0.262 E2.39096
G1 X2.874 Y-17.291 E2.96659
G1 X3.415 Y-18.021 E2.99639
G1 X3.415 Y0.262 E3.59596
G1 X3.956 Y0.262 E3.61372
G1 X3.956 Y-18.623 E4.23304
G1 X4.172 Y-18.861 E4.24358
G1 X4.498 Y-19.156 E4.25799
G1 X4.498 Y0.262 E4.89480
G1 X5.039 Y0.262 E4.91256
G1 X5.039 Y-19.638 E5.56517
G1 X5.581 Y-20.039 E5.58728
G1 X5.581 Y0.262 E6.25306
G1 X6.122 Y0.262 E6.27081
G1 X6.122 Y-20.405 E6.94857
G1 X6.663 Y-20.729 E6.96927
G1 X6.663 Y0.262 E7.65766
G1 X7.205 Y0.262 E7.67542
G1 X7.205 Y-21.003 E8.37281
G1 X7.746 Y-21.259 E8.39245
G1 X7.746 Y0.262 E9.09824
G1 X8.288 Y0.262 E9.11600
G1 X8.288 Y-21.459 E9.82834
G1 X8.829 Y-21.653 E9.84720
G1 X8.829 Y0.262 E10.56589
G1 X9.370 Y0.262 E10.58365
G1 X9.370 Y-21.789 E11.30680
G1 X9.912 Y-21.923 E11.32509
G1 X9.912 Y0.262 E12.05264
