; generated by Slic3r 1.3.0-dev on 2017-06-01 at 18:19:02

; external perimeters extrusion width = 0.35mm (1.47mm^3/s)
; perimeters extrusion width = 0.52mm (2.89mm^3/s)
; infill extrusion width = 0.52mm (5.77mm^3/s)
; solid infill extrusion width = 0.52mm (5.77mm^3/s)
; top infill extrusion width = 0.52mm (4.81mm^3/s)

M107
G28
G92 X0 Y0 Z0 E0
G1 F5000 Y30 X30
G1 X220
G1 F100 E10

G28
G92 X0 Y0 Z0
G1 F4000 X101 Y127
G92 X0 Y0 Z0 E0
; Filament gcode

G21 ; set units to millimeters
G90 ; use absolute coordinates
M82 ; use absolute distances for extrusion
G92 E0
G1 E-0.70000 F600.00000
G92 E0
G1 Z0.200 F5400.000
G1 Z0.400 F5400.000
G1 X24.292 Y-1.063 F5400.000
G1 Z0.200 F5400.000
G1 E0.70000 F600.00000
G1 F1800
G1 X24.761 Y0.761 E0.75591
G1 X24.756 Y10.986 E1.05951
G1 X24.708 Y11.966 E1.08865
G1 X24.671 Y12.336 E1.09968
G1 X24.527 Y13.307 E1.12883
G1 X24.455 Y13.671 E1.13985
G1 X24.216 Y14.623 E1.16898
G1 X24.109 Y14.978 E1.18001
G1 X23.778 Y15.902 E1.20915
G1 X23.636 Y16.245 E1.22018
G1 X23.216 Y17.133 E1.24932
G1 X23.041 Y17.460 E1.26035
G1 X22.537 Y18.302 E1.28949
G1 X22.330 Y18.611 E1.30052
G1 X21.752 Y19.391 E1.32936
G1 X21.510 Y19.686 E1.34068
G1 X20.851 Y20.413 E1.36982
G1 X20.588 Y20.676 E1.38085
G1 X19.861 Y21.335 E1.40999
G1 X19.574 Y21.571 E1.42102
G1 X18.786 Y22.155 E1.45016
G1 X18.477 Y22.362 E1.46119
G1 X17.635 Y22.866 E1.49032
G1 X17.308 Y23.041 E1.50135
G1 X16.420 Y23.461 E1.53049
G1 X16.077 Y23.603 E1.54152
G1 X15.153 Y23.934 E1.57066
G1 X14.798 Y24.042 E1.58169
G1 X13.855 Y24.278 E1.61054
G1 X13.481 Y24.352 E1.62186
G1 X12.511 Y24.496 E1.65099
G1 X12.141 Y24.533 E1.66202
G1 X10.982 Y24.586 E1.69646
G1 X-10.968 Y24.628 E2.34819
G1 X-12.142 Y24.575 E2.38308
G1 X-12.511 Y24.539 E2.39409
G1 X-13.481 Y24.395 E2.42323
G1 X-13.846 Y24.322 E2.43426
G1 X-14.798 Y24.084 E2.46340
G1 X-15.153 Y23.976 E2.47442
G1 X-16.077 Y23.645 E2.50356
G1 X-16.420 Y23.503 E2.51459
G1 X-17.308 Y23.083 E2.54374
G1 X-17.635 Y22.908 E2.55476
G1 X-18.468 Y22.409 E2.58361
G1 X-18.786 Y22.197 E2.59493
G1 X-19.574 Y21.613 E2.62407
G1 X-19.861 Y21.377 E2.63509
G1 X-20.588 Y20.718 E2.66423
G1 X-20.851 Y20.456 E2.67526
G1 X-21.510 Y19.728 E2.70440
G1 X-21.746 Y19.441 E2.71543
G1 X-22.330 Y18.653 E2.74457
G1 X-22.537 Y18.344 E2.75560
G1 X-23.041 Y17.502 E2.78474
G1 X-23.216 Y17.175 E2.79576
G1 X-23.636 Y16.288 E2.82490
G1 X-23.778 Y15.944 E2.83593
G1 X-24.109 Y15.020 E2.86508
G1 X-24.216 Y14.665 E2.87610
G1 X-24.453 Y13.723 E2.90495
G1 X-24.527 Y13.349 E2.91627
G1 X-24.671 Y12.378 E2.94541
G1 X-24.708 Y12.008 E2.95643
G1 X-24.761 Y10.842 E2.99109
G1 X-24.761 Y0.803 E3.28917
G1 X-24.407 Y-0.794 E3.33774
G1 X-14.335 Y-22.439 E4.04658
G1 X-13.267 Y-23.799 E4.09791
G1 X-10.903 Y-24.628 E4.17229
G1 X9.097 Y-24.628 E4.76612
G1 X10.780 Y-24.233 E4.81745
G1 X12.414 Y-22.666 E4.88466
G1 X24.267 Y-1.109 E5.61509
G1 X23.979 Y-0.891 F5400.000
G1 F1800
G1 X24.403 Y0.761 E5.66572
G1 X24.399 Y10.968 E5.96880
G1 X24.351 Y11.949 E5.99795
G1 X24.174 Y13.254 E6.03707
G1 X23.870 Y14.536 E6.07618
G1 X23.442 Y15.782 E6.11530
G1 X22.893 Y16.980 E6.15442
G1 X22.230 Y18.119 E6.19354
G1 X21.459 Y19.186 E6.23265
G1 X21.245 Y19.446 E6.24264
G1 X20.349 Y20.411 E6.28176
G1 X19.361 Y21.284 E6.32087
G1 X18.293 Y22.055 E6.35999
G1 X17.452 Y22.560 E6.38913
G1 X16.268 Y23.138 E6.42825
G1 X15.033 Y23.598 E6.46737
G1 X14.711 Y23.695 E6.47736
G1 X13.429 Y23.999 E6.51647
G1 X12.124 Y24.176 E6.55559
G1 X10.982 Y24.229 E6.58953
G1 X-10.969 Y24.271 E7.24126
G1 X-12.124 Y24.218 E7.27560
G1 X-12.458 Y24.185 E7.28558
G1 X-13.759 Y23.976 E7.32470
G1 X-14.711 Y23.737 E7.35383
G1 X-15.957 Y23.309 E7.39295
G1 X-17.155 Y22.761 E7.43208
G1 X-18.285 Y22.103 E7.47090
G1 X-18.573 Y21.911 E7.48118
G1 X-19.361 Y21.326 E7.51032
G1 X-20.348 Y20.454 E7.54943
G1 X-21.245 Y19.489 E7.58855
G1 X-22.043 Y18.440 E7.62767
G1 X-22.230 Y18.161 E7.63766
G1 X-22.735 Y17.319 E7.66680
G1 X-23.313 Y16.135 E7.70591
G1 X-23.773 Y14.900 E7.74504
G1 X-24.106 Y13.636 E7.78386
G1 X-24.174 Y13.296 E7.79414
G1 X-24.351 Y11.991 E7.83326
G1 X-24.403 Y10.842 E7.86739
G1 X-24.403 Y0.803 E8.16548
G1 X-24.083 Y-0.644 E8.20946
G1 X-14.011 Y-22.289 E8.91830
G1 X-12.980 Y-23.569 E8.96712
G1 X-10.903 Y-24.271 E9.03222
G1 X9.097 Y-24.271 E9.62605
G1 X10.693 Y-23.876 E9.67486
G1 X12.101 Y-22.494 E9.73345
G1 X23.954 Y-0.937 E10.46387
G1 X23.666 Y-0.719 F5400.000
G1 F1800
G1 X24.046 Y0.761 E10.50923
G1 X24.043 Y10.951 E10.81179
G1 X23.994 Y11.931 E10.84094
G1 X23.821 Y13.202 E10.87902
G1 X23.524 Y14.449 E10.91709
G1 X23.106 Y15.662 E10.95517
G1 X22.571 Y16.827 E10.99325
G1 X21.924 Y17.935 E11.03133
G1 X21.178 Y18.966 E11.06911
G1 X20.981 Y19.207 E11.07835
G1 X20.109 Y20.147 E11.11643
G1 X19.149 Y20.997 E11.15451
G1 X18.360 Y21.582 E11.18364
G1 X17.268 Y22.254 E11.22172
G1 X16.115 Y22.815 E11.25980
G1 X14.913 Y23.261 E11.29788
G1 X14.624 Y23.349 E11.30683
G1 X13.377 Y23.646 E11.34491
G1 X12.106 Y23.820 E11.38298
G1 X10.981 Y23.871 E11.41642
G1 X-10.969 Y23.914 E12.06815
G1 X-12.106 Y23.862 E12.10195
G1 X-12.406 Y23.832 E12.11089
G1 X-13.672 Y23.629 E12.14897
G1 X-14.624 Y23.391 E12.17811
G1 X-15.837 Y22.973 E12.21618
G1 X-17.002 Y22.438 E12.25427
G1 X-18.101 Y21.796 E12.29205
G1 X-18.360 Y21.624 E12.30129
G1 X-19.149 Y21.039 E12.33043
G1 X-20.109 Y20.189 E12.36851
G1 X-20.981 Y19.249 E12.40658
G1 X-21.757 Y18.228 E12.44466
G1 X-21.924 Y17.977 E12.45361
G1 X-22.429 Y17.135 E12.48275
G1 X-22.990 Y15.982 E12.52083
G1 X-23.436 Y14.780 E12.55891
G1 X-23.760 Y13.549 E12.59669
G1 X-23.821 Y13.244 E12.60593
G1 X-23.995 Y11.973 E12.64401
G1 X-24.046 Y10.842 E12.67762
G1 X-24.046 Y0.803 E12.97571
G1 X-23.760 Y-0.493 E13.01511
G1 X-13.687 Y-22.138 E13.72396
G1 X-12.696 Y-23.336 E13.77012
G1 X-10.903 Y-23.914 E13.82606
G1 X9.097 Y-23.914 E14.41988
G1 X10.601 Y-23.520 E14.46604
G1 X11.788 Y-22.322 E14.51612
G1 X23.641 Y-0.765 E15.24654
G1 X23.353 Y-0.547 F5400.000
G1 F1800
G1 X23.689 Y0.761 E15.28663
G1 X23.686 Y10.933 E15.58867
G1 X23.638 Y11.914 E15.61781
G1 X23.468 Y13.150 E15.65486
G1 X23.177 Y14.363 E15.69189
G1 X22.769 Y15.541 E15.72893
G1 X22.248 Y16.675 E15.76597
G1 X21.618 Y17.751 E15.80301
G1 X20.891 Y18.753 E15.83975
G1 X20.716 Y18.967 E15.84795
G1 X19.869 Y19.882 E15.88499
G1 X18.936 Y20.710 E15.92203
G1 X17.926 Y21.443 E15.95907
G1 X17.084 Y21.947 E15.98820
G1 X15.962 Y22.493 E16.02524
G1 X14.792 Y22.925 E16.06228
G1 X13.595 Y23.238 E16.09903
G1 X13.324 Y23.293 E16.10723
G1 X12.088 Y23.463 E16.14427
G1 X10.980 Y23.514 E16.17720
G1 X-10.970 Y23.556 E16.82894
G1 X-12.354 Y23.479 E16.87008
G1 X-13.585 Y23.283 E16.90712
G1 X-14.792 Y22.967 E16.94416
G1 X-15.716 Y22.637 E16.97330
G1 X-16.850 Y22.115 E17.01034
G1 X-17.918 Y21.490 E17.04708
G1 X-18.148 Y21.337 E17.05528
G1 X-18.936 Y20.752 E17.08442
G1 X-19.869 Y19.924 E17.12146
G1 X-20.716 Y19.009 E17.15850
G1 X-21.470 Y18.015 E17.19554
G1 X-21.618 Y17.793 E17.20344
G1 X-22.122 Y16.952 E17.23258
G1 X-22.667 Y15.830 E17.26962
G1 X-23.100 Y14.659 E17.30666
G1 X-23.413 Y13.462 E17.34342
G1 X-23.468 Y13.191 E17.35161
G1 X-23.638 Y11.956 E17.38864
G1 X-23.689 Y10.842 E17.42174
G1 X-23.689 Y0.803 E17.71982
G1 X-23.436 Y-0.342 E17.75465
G1 X-13.364 Y-21.987 E18.46349
G1 X-12.415 Y-23.097 E18.50684
G1 X-10.903 Y-23.556 E18.55375
G1 X9.097 Y-23.556 E19.14757
G1 X10.503 Y-23.164 E19.19092
G1 X11.475 Y-22.150 E19.23263
G1 X23.328 Y-0.593 E19.96305
G1 X23.041 Y-0.375 F5400.000
G1 F1800
G1 X23.332 Y0.761 E19.99786
G1 X23.329 Y10.916 E20.29938
G1 X23.281 Y11.896 E20.32853
G1 X23.115 Y13.097 E20.36453
G1 X22.831 Y14.276 E20.40052
G1 X22.433 Y15.421 E20.43652
G1 X21.925 Y16.522 E20.47252
G1 X21.311 Y17.568 E20.50852
G1 X20.452 Y18.727 E20.55137
G1 X19.629 Y19.618 E20.58737
G1 X18.723 Y20.424 E20.62337
G1 X17.743 Y21.137 E20.65937
G1 X16.901 Y21.641 E20.68851
G1 X15.810 Y22.170 E20.72451
G1 X14.672 Y22.589 E20.76051
G1 X13.272 Y22.940 E20.80336
G1 X12.071 Y23.106 E20.83936
G1 X10.980 Y23.157 E20.87180
G1 X-10.971 Y23.199 E21.52353
G1 X-12.301 Y23.126 E21.56310
G1 X-13.499 Y22.937 E21.59910
G1 X-14.451 Y22.698 E21.62823
G1 X-15.596 Y22.300 E21.66423
G1 X-16.697 Y21.792 E21.70024
G1 X-17.935 Y21.050 E21.74309
G1 X-18.723 Y20.466 E21.77223
G1 X-19.629 Y19.660 E21.80823
G1 X-20.452 Y18.769 E21.84423
G1 X-21.312 Y17.610 E21.88708
G1 X-21.816 Y16.768 E21.91622
G1 X-22.345 Y15.677 E21.95222
G1 X-22.764 Y14.539 E21.98822
G1 X-23.115 Y13.139 E22.03107
G1 X-23.281 Y11.938 E22.06707
G1 X-23.332 Y10.842 E22.09965
G1 X-23.332 Y0.803 E22.39773
G1 X-23.112 Y-0.192 E22.42797
G1 X-13.040 Y-21.837 E23.13682
G1 X-12.136 Y-22.851 E23.17715
G1 X-10.903 Y-23.199 E23.21520
G1 X9.097 Y-23.199 E23.80903
G1 X10.398 Y-22.808 E23.84937
G1 X11.163 Y-21.978 E23.88287
G1 X23.015 Y-0.421 E24.61329
G1 E23.91329 F600.00000
G92 E0
G1 Z0.400 F5400.000
G1 X-3.863 Y5.006 F5400.000
G1 Z0.200 F5400.000
G1 E0.70000 F600.00000
G1 F720
G1 X-3.325 Y5.731 E0.72681
G1 X-2.861 Y6.505 E0.75361
G1 X-2.475 Y7.322 E0.78042
G1 X-2.171 Y8.172 E0.80723
G1 X-1.952 Y9.047 E0.83404
G1 X-1.819 Y9.941 E0.86084
G1 X-1.775 Y10.842 E0.88765
G1 X-1.819 Y11.744 E0.91446
G1 X-1.952 Y12.637 E0.94127
G1 X-2.171 Y13.513 E0.96807
G1 X-2.475 Y14.363 E0.99488
G1 X-2.861 Y15.179 E1.02169
G1 X-3.325 Y15.954 E1.04850
G1 X-3.863 Y16.679 E1.07530
G1 X-4.470 Y17.348 E1.10211
G1 X-5.139 Y17.954 E1.12892
G1 X-5.864 Y18.492 E1.15572
G1 X-6.638 Y18.956 E1.18253
G1 X-7.454 Y19.342 E1.20934
G1 X-8.304 Y19.646 E1.23615
G1 X-9.180 Y19.866 E1.26295
G1 X-10.073 Y19.998 E1.28976
G1 X-10.975 Y20.043 E1.31657
G1 X-11.877 Y19.998 E1.34338
G1 X-12.770 Y19.866 E1.37018
G1 X-13.646 Y19.646 E1.39699
G1 X-14.496 Y19.342 E1.42380
G1 X-15.312 Y18.956 E1.45061
G1 X-16.087 Y18.492 E1.47741
G1 X-16.812 Y17.954 E1.50422
G1 X-17.481 Y17.348 E1.53103
G1 X-18.087 Y16.679 E1.55784
G1 X-18.625 Y15.954 E1.58464
G1 X-19.089 Y15.179 E1.61145
G1 X-19.475 Y14.363 E1.63826
G1 X-19.779 Y13.513 E1.66506
G1 X-19.999 Y12.637 E1.69187
G1 X-20.131 Y11.744 E1.71868
G1 X-20.175 Y10.842 E1.74549
G1 X-20.131 Y9.941 E1.77230
G1 X-19.999 Y9.047 E1.79910
G1 X-19.779 Y8.172 E1.82591
G1 X-19.475 Y7.322 E1.85272
G1 X-19.089 Y6.505 E1.87952
G1 X-18.625 Y5.731 E1.90633
G1 X-18.087 Y5.006 E1.93314
G1 X-17.481 Y4.337 E1.95995
G1 X-16.812 Y3.730 E1.98675
G1 X-16.087 Y3.193 E2.01356
G1 X-15.312 Y2.728 E2.04037
G1 X-14.496 Y2.342 E2.06718
G1 X-13.646 Y2.038 E2.09398
G1 X-12.770 Y1.819 E2.12079
G1 X-11.877 Y1.686 E2.14760
G1 X-10.984 Y1.643 E2.17414
G1 X-10.073 Y1.686 E2.20121
G1 X-9.180 Y1.819 E2.22802
G1 X-8.304 Y2.038 E2.25483
G1 X-7.454 Y2.342 E2.28164
G1 X-6.638 Y2.728 E2.30844
G1 X-5.864 Y3.193 E2.33525
G1 X-5.139 Y3.730 E2.36206
G1 X-4.470 Y4.337 E2.38886
G1 X-3.898 Y4.967 E2.41411
G1 X-3.518 Y4.949 F5400.000
G1 E1.71411 F600.00000
G92 E0
G1 Z0.400 F5400.000
G1 X-3.901 Y3.768 F5400.000
G1 X-15.185 Y1.803 F5400.000
G1 X-13.158 Y1.548 F5400.000
G1 Z0.200 F5400.000
G1 E0.70000 F600.00000
G1 F900
G1 X-13.750 Y1.696 E0.71812
G1 X-14.633 Y2.012 E0.74597
G1 X-15.481 Y2.413 E0.77382
G1 X-16.285 Y2.895 E0.80167
G1 X-17.038 Y3.454 E0.82952
G1 X-17.733 Y4.084 E0.85737
G1 X-18.363 Y4.779 E0.88521
G1 X-18.922 Y5.532 E0.91306
G1 X-19.404 Y6.337 E0.94091
G1 X-19.805 Y7.185 E0.96876
G1 X-20.121 Y8.068 E0.99661
G1 X-20.230 Y8.502 E1.00989
G1 X-20.418 Y8.479 E1.01552
G1 X-20.418 Y1.360 E1.22688
G1 X-13.181 Y1.360 E1.44177
G1 X-13.164 Y1.496 E1.44583
G1 E0.74583 F600.00000
G92 E0
G1 Z0.400 F5400.000
G1 X-8.793 Y1.548 F5400.000
G1 Z0.200 F5400.000
G1 E0.70000 F600.00000
G1 F900
G1 X-8.769 Y1.360 E0.70562
G1 X-1.532 Y1.360 E0.92051
G1 X-1.532 Y8.479 E1.13187
G1 X-1.720 Y8.502 E1.13750
G1 X-1.829 Y8.068 E1.15078
G1 X-2.145 Y7.185 E1.17863
G1 X-2.546 Y6.337 E1.20648
G1 X-3.028 Y5.532 E1.23433
G1 X-3.587 Y4.779 E1.26218
G1 X-4.217 Y4.084 E1.29003
G1 X-4.912 Y3.454 E1.31787
G1 X-5.665 Y2.895 E1.34572
G1 X-6.470 Y2.413 E1.37357
G1 X-7.317 Y2.012 E1.40142
G1 X-8.201 Y1.696 E1.42927
G1 X-8.742 Y1.561 E1.44583
G1 E0.74583 F600.00000
G92 E0
G1 Z0.400 F5400.000
G1 X-1.175 Y1.003 F5400.000
G1 Z0.200 F5400.000
G1 E0.70000 F600.00000
G1 F720
G1 X-1.175 Y10.837 E0.99200
G1 X-1.223 Y11.803 E1.02070
G1 X-1.364 Y12.754 E1.04926
G1 X-1.597 Y13.687 E1.07781
G1 X-1.921 Y14.593 E1.10637
G1 X-2.332 Y15.462 E1.13492
G1 X-2.822 Y16.278 E1.16319
G1 X-3.400 Y17.059 E1.19203
G1 X-4.046 Y17.772 E1.22058
G1 X-4.758 Y18.418 E1.24914
G1 X-5.531 Y18.991 E1.27769
G1 X-6.356 Y19.485 E1.30624
G1 X-7.225 Y19.896 E1.33480
G1 X-8.130 Y20.220 E1.36335
G1 X-9.063 Y20.454 E1.39191
G1 X-10.015 Y20.595 E1.42046
G1 X-10.975 Y20.642 E1.44902
G1 X-11.936 Y20.595 E1.47757
G1 X-12.887 Y20.454 E1.50612
G1 X-13.820 Y20.220 E1.53468
G1 X-14.716 Y19.899 E1.56294
G1 X-15.595 Y19.485 E1.59179
G1 X-16.420 Y18.991 E1.62034
G1 X-17.192 Y18.418 E1.64889
G1 X-17.905 Y17.772 E1.67745
G1 X-18.550 Y17.059 E1.70600
G1 X-19.123 Y16.287 E1.73456
G1 X-19.618 Y15.462 E1.76311
G1 X-20.029 Y14.593 E1.79167
G1 X-20.353 Y13.687 E1.82022
G1 X-20.587 Y12.754 E1.84877
G1 X-20.726 Y11.812 E1.87704
G1 X-20.775 Y10.837 E1.90603
G1 X-20.775 Y1.003 E2.19803
G1 X-1.228 Y1.003 E2.77842
G1 X-1.301 Y1.329 F5400.000
G1 E2.07842 F600.00000
G92 E0
G1 Z0.400 F5400.000
G1 X-6.497 Y1.679 F5400.000
G1 Z0.200 F5400.000
G1 E0.70000 F600.00000
G1 F1800
G1 X-6.573 Y1.755 E0.70324
G1 X-6.622 Y2.002 E0.71085
G1 X-6.408 Y2.103 E0.71801
G1 X-5.983 Y1.679 E0.73614
G1 X-5.470 Y1.679 E0.75166
G1 X-6.081 Y2.290 E0.77777
G1 X-5.760 Y2.483 E0.78908
G1 X-4.956 Y1.679 E0.82342
G1 X-4.442 Y1.679 E0.83894
G1 X-5.444 Y2.681 E0.88173
G1 X-5.149 Y2.900 E0.89283
G1 X-3.928 Y1.679 E0.94496
G1 X-3.415 Y1.679 E0.96048
G1 X-4.854 Y3.118 E1.02197
G1 X-4.573 Y3.351 E1.03299
G1 X-2.901 Y1.679 E1.10442
G1 X-2.387 Y1.679 E1.11994
G1 X-4.304 Y3.595 E1.20180
G1 X-4.034 Y3.840 E1.21279
G1 X-1.873 Y1.679 E1.30509
G1 X-1.851 Y1.679 E1.30576
G1 X-1.851 Y2.171 E1.32061
G1 X-3.787 Y4.106 E1.40329
G1 X-3.543 Y4.376 E1.41427
G1 X-1.851 Y2.684 E1.48652
G1 X-1.851 Y3.198 E1.50204
G1 X-3.304 Y4.650 E1.56407
G1 X-3.085 Y4.945 E1.57517
G1 X-1.851 Y3.712 E1.62786
G1 X-1.851 Y4.226 E1.64338
G1 X-2.866 Y5.240 E1.68672
G1 X-2.662 Y5.550 E1.69792
G1 X-1.851 Y4.739 E1.73255
G1 X-1.851 Y5.253 E1.74806
G1 X-2.469 Y5.871 E1.77446
G1 X-2.277 Y6.192 E1.78577
G1 X-1.851 Y5.767 E1.80395
G1 X-1.851 Y6.281 E1.81947
G1 X-1.927 Y6.356 E1.82271
G1 X-1.925 Y6.690 F5400.000
G1 F600
G1 X-1.826 Y7.206 E1.83296
G1 F600
G1 X-1.778 Y7.480 E1.83625
G1 F600
G1 X-1.731 Y7.753 E1.83742
G1 X-1.604 Y8.667 F5400.000
G1 F600
G1 X-1.568 Y8.960 E1.84733
G1 F600
G1 X-1.521 Y9.595 E1.86515
G1 F600
G1 X-1.475 Y10.836 E1.89059
G1 X-1.521 Y11.773 E1.90980
G1 X-1.658 Y12.696 E1.92889
G1 X-1.884 Y13.600 E1.94798
G1 X-2.198 Y14.478 E1.96707
G1 X-2.597 Y15.321 E1.98616
G1 X-3.073 Y16.115 E2.00513
G1 X-3.632 Y16.869 E2.02435
G1 X-4.258 Y17.560 E2.04343
G1 X-4.953 Y18.189 E2.06264
G1 X-5.697 Y18.741 E2.08161
G1 X-6.492 Y19.218 E2.10058
G1 X-7.334 Y19.617 E2.11967
G1 X-8.217 Y19.933 E2.13888
G1 X-9.122 Y20.160 E2.15797
G1 X-10.044 Y20.297 E2.17706
G1 X-10.975 Y20.342 E2.19615
G1 X-11.906 Y20.297 E2.21524
G1 X-12.828 Y20.160 E2.23433
G1 X-13.733 Y19.933 E2.25342
G1 X-14.605 Y19.621 E2.27239
G1 X-15.454 Y19.220 E2.29161
G1 X-16.253 Y18.741 E2.31069
G1 X-17.002 Y18.186 E2.32978
G1 X-17.697 Y17.555 E2.34899
G1 X-18.319 Y16.869 E2.36796
G1 X-18.874 Y16.120 E2.38705
G1 X-19.353 Y15.321 E2.40614
G1 X-19.754 Y14.472 E2.42535
G1 X-20.066 Y13.600 E2.44432
G1 X-20.293 Y12.690 E2.46353
G1 X-20.429 Y11.768 E2.48262
G1 X-20.475 Y10.836 E2.50171
G1 X-20.452 Y9.902 E2.52085
G1 F600
G1 X-20.407 Y9.288 E2.53808
G1 F600
G1 X-20.346 Y8.667 E2.55903
G1 X-20.220 Y7.753 F5400.000
G1 F600
G1 X-20.172 Y7.480 E2.56126
G1 F600
G1 X-20.125 Y7.206 E2.56561
G1 F600
G1 X-20.025 Y6.690 E2.57609
G1 E1.87609 F600.00000
G92 E0
G1 Z0.400 F5400.000
G1 X-20.099 Y1.755 F5400.000
G1 Z0.200 F5400.000
G1 E0.70000 F600.00000
G1 F1800
G1 X-20.023 Y1.679 E0.70346
G1 X-19.474 Y1.679 E0.72118
G1 X-20.099 Y2.304 E0.74972
G1 X-20.099 Y2.853 E0.76745
G1 X-18.925 Y1.679 E0.82105
G1 X-18.376 Y1.679 E0.83878
G1 X-20.099 Y3.402 E0.91745
G1 X-20.099 Y3.951 E0.93517
G1 X-17.827 Y1.679 E1.03892
G1 X-17.278 Y1.679 E1.05664
G1 X-20.099 Y4.500 E1.18545
