; generated by Slic3r 1.3.0-dev on 2016-01-31 at 13:01:26

; external perimeters extrusion width = 0.35mm
; perimeters extrusion width = 0.48mm
; infill extrusion width = 0.48mm
; solid infill extrusion width = 0.48mm
; top infill extrusion width = 0.48mm

M107
G28
G92 X0 Y0 Z0 E0
G1 F5000 Y30 X30
G1 X220
G1 F100 E10

G28
G92 X0 Y0 Z0
G1 F4000 X101 Y127
G92 X0 Y0 Z0 E0
G21 ; set units to millimeters
G90 ; use absolute coordinates
M82 ; use absolute distances for extrusion
G92 E0
G1 E-0.70000 F1500.00000
G92 E0
G1 Z0.200 F5400.000
G1 Z0.400 F5400.000
G1 X-41.241 Y-10.487 F5400.000
G1 Z0.200 F5400.000
G1 E0.70000 F1500.00000
G1 F1800
G1 X16.459 Y-74.427 E3.25717
G1 X17.007 Y-74.950 E3.27964
G1 X18.023 Y-75.784 E3.31868
G1 X18.850 Y-76.336 E3.34820
G1 X20.009 Y-76.956 E3.38723
G1 X20.928 Y-77.336 E3.41675
G1 X22.186 Y-77.718 E3.45579
G1 X23.161 Y-77.912 E3.48530
G1 X24.469 Y-78.041 E3.52434
G1 X25.463 Y-78.041 E3.55386
G1 X26.772 Y-77.912 E3.59289
G1 X27.747 Y-77.718 E3.62241
G1 X29.005 Y-77.336 E3.66145
G1 X29.923 Y-76.956 E3.69096
G1 X31.083 Y-76.336 E3.73001
G1 X31.909 Y-75.784 E3.75951
G1 X32.925 Y-74.950 E3.79855
G1 X33.629 Y-74.247 E3.82807
G1 X41.756 Y-64.174 E4.21235
G1 X42.278 Y-63.384 E4.24048
G1 X42.883 Y-62.252 E4.27858
G1 X43.264 Y-61.334 E4.30809
G1 X43.636 Y-60.106 E4.34619
G1 X43.830 Y-59.131 E4.37571
G1 X43.956 Y-57.854 E4.41381
G1 X43.956 Y-56.860 E4.44333
G1 X43.830 Y-55.583 E4.48143
G1 X43.764 Y-55.127 E4.49509
G1 X19.078 Y73.946 E8.39691
G1 X18.320 Y75.802 E8.45642
G1 X16.902 Y77.218 E8.51593
G1 X15.046 Y77.975 E8.57544
G1 X13.042 Y77.954 E8.63495
G1 X10.683 Y76.744 E8.71367
G1 X-28.508 Y41.068 E10.28724
G1 X-29.345 Y40.084 E10.32558
G1 X-29.855 Y39.254 E10.35452
G1 X-30.310 Y38.427 E10.38252
G1 X-30.720 Y37.578 E10.41053
G1 X-31.070 Y36.696 E10.43870
G1 X-43.536 Y-1.718 E11.63782
G1 X-43.728 Y-2.365 E11.65787
G1 X-43.912 Y-3.323 E11.68684
G1 X-43.959 Y-3.826 E11.70184
G1 X-43.934 Y-4.981 E11.73613
G1 X-43.869 Y-5.458 E11.75042
G1 X-43.659 Y-6.363 E11.77801
G1 X-43.499 Y-6.848 E11.79317
G1 X-43.241 Y-7.481 E11.81347
G1 X-43.005 Y-7.965 E11.82946
G1 X-42.759 Y-8.410 E11.84453
G1 X-42.252 Y-9.201 E11.87245
G1 X-41.739 Y-9.890 E11.89793
G1 X-41.275 Y-10.447 E11.91948
G1 X-40.975 Y-10.248 F5400.000
G1 F1800
G1 X16.724 Y-74.188 E14.47665
G1 X17.233 Y-74.673 E14.49754
G1 X18.249 Y-75.508 E14.53658
G1 X19.018 Y-76.021 E14.56402
G1 X20.177 Y-76.641 E14.60305
G1 X21.031 Y-76.994 E14.63049
G1 X22.289 Y-77.376 E14.66953
G1 X23.196 Y-77.556 E14.69697
G1 X24.480 Y-77.683 E14.73529
G1 X25.428 Y-77.685 E14.76344
G1 X26.737 Y-77.556 E14.80247
G1 X27.643 Y-77.376 E14.82991
G1 X28.878 Y-77.001 E14.86824
G1 X29.755 Y-76.641 E14.89638
G1 X30.915 Y-76.021 E14.93543
G1 X31.683 Y-75.508 E14.96286
G1 X32.699 Y-74.674 E15.00189
G1 X33.353 Y-74.020 E15.02933
G1 X41.478 Y-63.950 E15.41352
G1 X41.963 Y-63.216 E15.43966
G1 X42.568 Y-62.084 E15.47776
G1 X42.922 Y-61.230 E15.50520
G1 X43.295 Y-60.002 E15.54330
G1 X43.475 Y-59.096 E15.57074
G1 X43.601 Y-57.819 E15.60884
G1 X43.601 Y-56.895 E15.63628
G1 X43.475 Y-55.618 E15.67438
G1 X43.414 Y-55.194 E15.68708
G1 X18.727 Y73.879 E19.58890
G1 X17.983 Y75.662 E19.64626
G1 X16.587 Y76.997 E19.70361
G1 X14.773 Y77.659 E19.76096
G1 X12.845 Y77.539 E19.81832
G1 X10.924 Y76.480 E19.88344
G1 X-28.268 Y40.804 E21.45701
G1 X-29.045 Y39.889 E21.49265
G1 X-29.545 Y39.076 E21.52098
G1 X-29.991 Y38.266 E21.54844
G1 X-30.395 Y37.429 E21.57606
G1 X-30.731 Y36.585 E21.60303
G1 X-43.197 Y-1.828 E22.80210
G1 X-43.386 Y-2.466 E22.82185
G1 X-43.556 Y-3.357 E22.84878
G1 X-43.603 Y-3.860 E22.86378
G1 X-43.580 Y-4.933 E22.89565
G1 X-43.515 Y-5.410 E22.90994
G1 X-43.320 Y-6.251 E22.93559
G1 X-43.160 Y-6.736 E22.95075
G1 X-42.920 Y-7.325 E22.96963
G1 X-42.684 Y-7.809 E22.98561
G1 X-42.456 Y-8.222 E22.99962
G1 X-41.964 Y-8.991 E23.02674
G1 X-41.464 Y-9.663 E23.05160
G1 X-41.010 Y-10.208 E23.07267
G1 X-40.710 Y-10.009 F5400.000
G1 F1800
G1 X16.989 Y-73.948 E25.62983
G1 X17.460 Y-74.397 E25.64914
G1 X18.476 Y-75.232 E25.68818
G1 X19.186 Y-75.706 E25.71354
G1 X20.346 Y-76.326 E25.75258
G1 X21.135 Y-76.653 E25.77794
G1 X22.393 Y-77.034 E25.81698
G1 X23.231 Y-77.201 E25.84233
G1 X24.515 Y-77.328 E25.88066
G1 X25.393 Y-77.330 E25.90673
G1 X26.702 Y-77.201 E25.94576
G1 X27.539 Y-77.034 E25.97112
G1 X28.774 Y-76.660 E26.00945
G1 X29.587 Y-76.326 E26.03552
G1 X30.746 Y-75.706 E26.07456
G1 X31.456 Y-75.232 E26.09991
G1 X32.472 Y-74.398 E26.13895
G1 X33.076 Y-73.794 E26.16431
G1 X41.200 Y-63.726 E26.54839
G1 X41.649 Y-63.047 E26.57256
G1 X42.253 Y-61.916 E26.61066
G1 X42.580 Y-61.126 E26.63602
G1 X42.953 Y-59.898 E26.67412
G1 X43.119 Y-59.061 E26.69948
G1 X43.245 Y-57.784 E26.73758
G1 X43.245 Y-56.930 E26.76294
G1 X43.119 Y-55.653 E26.80104
G1 X43.063 Y-55.261 E26.81278
G1 X18.377 Y73.812 E30.71460
G1 X17.648 Y75.519 E30.76972
G1 X16.274 Y76.768 E30.82483
G1 X14.505 Y77.332 E30.87994
G1 X12.663 Y77.108 E30.93506
G1 X11.164 Y76.216 E30.98684
G1 X-28.027 Y40.540 E32.56042
G1 X-28.746 Y39.694 E32.59336
G1 X-29.235 Y38.899 E32.62107
G1 X-29.672 Y38.105 E32.64799
G1 X-30.071 Y37.279 E32.67522
G1 X-30.392 Y36.473 E32.70099
G1 X-42.857 Y-1.938 E33.90001
G1 X-43.043 Y-2.566 E33.91947
G1 X-43.201 Y-3.390 E33.94435
G1 X-43.248 Y-3.893 E33.95935
G1 X-43.226 Y-4.885 E33.98881
G1 X-43.161 Y-5.361 E34.00310
G1 X-42.981 Y-6.139 E34.02681
G1 X-42.821 Y-6.624 E34.04196
G1 X-42.599 Y-7.168 E34.05941
G1 X-42.152 Y-8.034 E34.08833
G1 X-41.675 Y-8.781 E34.11465
G1 X-41.188 Y-9.436 E34.13888
G1 X-40.745 Y-9.969 E34.15947
G1 E33.45947 F1500.00000
G92 E0
G1 Z0.400 F5400.000
G1 X1.030 Y43.116 F5400.000
G1 Z0.200 F5400.000
G1 E0.70000 F1500.00000
G1 F900
G1 X11.705 Y51.941 E1.11124
G1 X11.697 Y67.292 E1.56703
G1 X-7.811 Y49.213 E2.35674
G1 X-5.670 Y47.072 E2.44660
G1 X-4.946 Y47.376 E2.46992
G1 X-4.282 Y47.522 E2.49012
G1 X-3.533 Y47.547 E2.51234
G1 X-2.964 Y47.452 E2.52949
G1 X-2.420 Y47.244 E2.54679
G1 X-1.895 Y46.937 E2.56484
G1 X-1.399 Y46.550 E2.58353
G1 X-0.939 Y46.108 E2.60247
G1 X-0.524 Y45.637 E2.62111
G1 X-0.159 Y45.164 E2.63882
G1 X0.391 Y44.329 E2.66853
G1 X0.682 Y43.807 E2.68626
G1 X1.007 Y43.163 E2.70768
G1 X1.148 Y43.677 F5400.000
G1 F720
G1 X11.348 Y52.109 E3.10063
G1 X11.340 Y66.475 E3.52716
G1 X-7.296 Y49.203 E4.28160
G1 X-5.587 Y47.494 E4.35333
G1 X-5.054 Y47.717 E4.37049
G1 X-4.326 Y47.877 E4.39262
G1 X-3.510 Y47.905 E4.41687
G1 X-2.870 Y47.799 E4.43614
G1 X-2.264 Y47.567 E4.45538
G1 X-1.694 Y47.233 E4.47501
G1 X-1.165 Y46.820 E4.49495
G1 X-0.681 Y46.355 E4.51488
G1 X-0.248 Y45.864 E4.53431
G1 X0.129 Y45.375 E4.55265
G1 X0.446 Y44.914 E4.56925
G1 X0.699 Y44.510 E4.58339
G1 X1.124 Y43.723 E4.60995
G1 X1.353 Y43.393 F5400.000
G1 X-0.603 Y36.698 F5400.000
G1 F900
G1 X-0.500 Y38.053 E4.65028
G1 X-0.488 Y38.622 E4.66719
G1 X-0.505 Y39.268 E4.68637
G1 X-0.567 Y39.962 E4.70707
G1 X-0.690 Y40.673 E4.72850
G1 X-0.895 Y41.372 E4.75010
G1 X-1.210 Y42.026 E4.77167
G1 X-1.669 Y42.597 E4.79341
G1 X-2.301 Y43.012 E4.81588
G1 X-3.076 Y43.188 E4.83946
G1 X-3.781 Y43.149 E4.86043
G1 X-4.391 Y42.961 E4.87937
G1 X-4.907 Y42.643 E4.89737
G1 X-5.321 Y42.228 E4.91479
G1 X-5.642 Y41.750 E4.93190
G1 X-5.884 Y41.232 E4.94887
G1 X-6.062 Y40.692 E4.96574
G1 X-6.188 Y40.145 E4.98240
G1 X-6.271 Y39.605 E4.99863
G1 X-6.320 Y39.081 E5.01426
G1 X-6.346 Y38.169 E5.04134
G1 X-6.277 Y36.771 E5.08291
G1 X-0.656 Y36.699 E5.24982
G1 X-0.934 Y37.060 F5400.000
G1 F900
G1 X-0.857 Y38.070 E5.27990
G1 X-0.845 Y38.621 E5.29627
G1 X-0.862 Y39.247 E5.31487
G1 X-0.922 Y39.916 E5.33479
G1 X-1.039 Y40.592 E5.35518
G1 X-1.230 Y41.243 E5.37532
G1 X-1.514 Y41.835 E5.39480
G1 X-1.912 Y42.329 E5.41365
G1 X-2.443 Y42.678 E5.43253
G1 X-3.106 Y42.829 E5.45271
G1 X-3.718 Y42.795 E5.47089
G1 X-4.242 Y42.634 E5.48718
G1 X-4.684 Y42.361 E5.50259
G1 X-5.044 Y42.000 E5.51774
G1 X-5.330 Y41.574 E5.53300
G1 X-5.552 Y41.100 E5.54852
G1 X-5.718 Y40.596 E5.56426
G1 X-5.837 Y40.078 E5.58005
G1 X-5.916 Y39.561 E5.59558
G1 X-5.964 Y39.059 E5.61055
G1 X-5.989 Y38.173 E5.63687
G1 X-5.937 Y37.124 E5.66806
G1 X-0.986 Y37.060 E5.81506
G1 X-0.584 Y37.040 F5400.000
G1 X1.670 Y36.698 F5400.000
G1 F900
G1 X11.712 Y36.632 E6.11322
G1 X11.707 Y47.287 E6.42958
G1 X1.670 Y39.614 E6.80470
G1 X1.670 Y36.750 E6.88973
G1 X2.027 Y37.052 F5400.000
G1 F900
G1 X11.355 Y36.992 E7.16668
G1 X11.350 Y46.565 E7.45093
G1 X2.027 Y39.437 E7.79936
G1 X2.027 Y37.105 E7.86862
G1 X1.937 Y36.714 F5400.000
G1 X11.714 Y32.561 F5400.000
G1 F900
G1 X-8.506 Y32.502 E8.46900
G1 X-8.585 Y35.395 E8.55494
G1 X-8.584 Y37.914 E8.62973
G1 X-8.552 Y39.224 E8.66864
G1 X-8.491 Y40.507 E8.70678
G1 X-8.395 Y41.711 E8.74265
G1 X-8.261 Y42.785 E8.77476
G1 X-8.085 Y43.670 E8.80155
G1 X-7.905 Y44.217 E8.81864
G1 X-7.742 Y44.603 E8.83111
G1 X-7.521 Y45.044 E8.84575
G1 X-7.243 Y45.508 E8.86181
G1 X-6.906 Y45.971 E8.87879
G1 X-6.391 Y46.540 E8.90160
G1 X-8.461 Y48.610 E8.98850
G1 X-23.931 Y34.272 E9.61478
G1 X10.892 Y-14.980 E11.40572
G1 X11.739 Y-14.710 E11.43210
G1 X11.722 Y17.232 E12.38051
G1 X9.707 Y17.203 E12.44035
G1 X8.811 Y19.932 E12.52563
G1 X-8.293 Y20.057 E13.03348
G1 X-9.206 Y17.188 E13.12289
G1 X-10.522 Y17.188 E13.16196
G1 X-10.460 Y27.109 E13.45654
G1 X-9.416 Y27.136 E13.48755
G1 X-8.232 Y24.261 E13.57987
G1 X8.658 Y24.261 E14.08135
G1 X9.794 Y27.153 E14.17362
G1 X11.717 Y27.144 E14.23071
G1 X11.714 Y32.508 E14.38998
G1 X11.358 Y32.203 F5400.000
G1 F720
G1 X-8.850 Y32.144 E14.98996
G1 X-8.942 Y35.391 E15.08643
G1 X-8.942 Y37.919 E15.16147
G1 X-8.909 Y39.237 E15.20063
G1 X-8.847 Y40.530 E15.23906
G1 X-8.750 Y41.748 E15.27533
G1 X-8.613 Y42.842 E15.30806
G1 X-8.431 Y43.760 E15.33588
G1 X-8.240 Y44.342 E15.35405
G1 X-8.066 Y44.753 E15.36730
G1 X-7.834 Y45.216 E15.38268
G1 X-7.541 Y45.705 E15.39961
G1 X-7.184 Y46.196 E15.41764
G1 X-6.884 Y46.528 E15.43092
G1 X-8.470 Y48.114 E15.49753
G1 X-23.459 Y34.222 E16.10432
G1 X11.033 Y-14.560 E17.87822
G1 X11.381 Y-14.449 E17.88908
G1 X11.365 Y16.870 E18.81898
G1 X9.450 Y16.843 E18.87587
G1 X8.552 Y19.577 E18.96132
G1 X-8.032 Y19.698 E19.45375
G1 X-8.945 Y16.831 E19.54310
G1 X-10.916 Y16.831 E19.60161
G1 X-10.944 Y17.013 E19.60707
G1 X-10.880 Y17.033 E19.60905
G1 X-10.815 Y27.457 E19.91857
G1 X-9.179 Y27.499 E19.96715
G1 X-7.993 Y24.618 E20.05967
G1 X8.414 Y24.618 E20.54682
G1 X9.551 Y27.511 E20.63913
G1 X11.360 Y27.503 E20.69282
G1 X11.358 Y32.150 E20.83081
G1 X11.400 Y32.550 F5400.000
G1 X12.157 Y33.005 F5400.000
G1 X12.157 Y33.005 F5400.000
G1 X12.637 Y33.005 F5400.000
G1 X12.640 Y26.700 F5400.000
G1 X12.156 Y25.734 F5400.000
G1 X11.321 Y24.902 F5400.000
G1 X10.966 Y23.029 F5400.000
G1 X10.719 Y22.179 F5400.000
G1 X11.077 Y21.011 F5400.000
G1 X11.324 Y19.470 F5400.000
G1 X12.151 Y18.655 F5400.000
G1 X12.645 Y17.681 F5400.000
G1 X12.662 Y-15.034 F5400.000
G1 X12.405 Y-15.737 F5400.000
G1 X11.724 Y-16.669 F5400.000
G1 X11.014 Y-16.432 F5400.000
G1 X10.197 Y-15.868 F5400.000
G1 X9.443 Y-14.806 F5400.000
G1 X-1.984 Y1.319 F5400.000
G1 X-2.830 Y1.903 F5400.000
G1 X-4.631 Y2.507 F5400.000
G1 X-7.757 Y2.877 F5400.000
G1 X-8.563 Y5.398 F5400.000
G1 X-12.240 Y5.387 F5400.000
G1 X-12.681 Y4.646 F5400.000
G1 F900
G1 X-29.280 Y-4.306 E21.39075
G1 X-12.623 Y-13.888 E21.96131
G1 X-12.681 Y4.593 E22.51005
G1 X-13.036 Y4.049 F5400.000
G1 F720
G1 X-28.546 Y-4.316 E23.03326
G1 X-12.982 Y-13.270 E23.56639
G1 X-13.036 Y3.996 E24.07903
G1 X-13.146 Y4.381 F5400.000
G1 X-12.240 Y5.387 F5400.000
G1 X-12.240 Y5.387 F5400.000
G1 X-8.563 Y5.398 F5400.000
G1 X-7.757 Y2.877 F5400.000
G1 X-8.104 Y0.477 F5400.000
G1 X-8.090 Y-14.642 F5400.000
G1 X-9.583 Y-19.591 F5400.000
G1 X-10.280 Y-20.742 F5400.000
G1 X-6.931 Y-24.485 F5400.000
G1 X6.270 Y-33.950 F5400.000
G1 X12.006 Y-46.343 F5400.000
G1 X12.629 Y-47.177 F5400.000
G1 X13.356 Y-47.789 F5400.000
G1 X14.906 Y-47.659 F5400.000
G1 X15.302 Y-47.877 F5400.000
G1 F900
G1 X14.145 Y-49.229 E24.13187
G1 X23.977 Y-57.620 E24.51567
G1 X25.116 Y-56.290 E24.56763
G1 X15.342 Y-47.911 E24.94986
G1 X15.341 Y-48.381 F5400.000
G1 F900
G1 X14.649 Y-49.189 E24.98148
G1 X23.938 Y-57.117 E25.34407
G1 X24.612 Y-56.329 E25.37485
G1 X15.381 Y-48.415 E25.73588
G1 X15.082 Y-48.146 F5400.000
G1 X14.906 Y-47.659 F5400.000
G1 X14.906 Y-47.659 F5400.000
G1 X13.356 Y-47.789 F5400.000
G1 X13.470 Y-49.235 F5400.000
G1 X13.499 Y-49.303 F5400.000
G1 X15.000 Y-50.582 F5400.000
G1 X22.628 Y-57.067 F5400.000
G1 X24.020 Y-58.251 F5400.000
G1 X24.040 Y-58.256 F5400.000
G1 X25.650 Y-58.127 F5400.000
G1 X25.846 Y-58.291 F5400.000
G1 X26.587 Y-57.402 F5400.000
G1 X27.169 Y-57.578 F5400.000
G1 X27.186 Y-57.413 F5400.000
G1 X27.202 Y-57.302 F5400.000
G1 X27.379 Y-56.412 F5400.000
G1 X27.401 Y-56.323 F5400.000
G1 X27.663 Y-55.459 F5400.000
G1 X28.109 Y-55.594 F5400.000
G1 X28.520 Y-55.765 F5400.000
G1 F900
G1 X28.284 Y-56.545 E25.76009
G1 X28.204 Y-57.357 E25.78430
G1 X28.284 Y-58.168 E25.80852
G1 X28.520 Y-58.949 E25.83273
G1 X28.905 Y-59.668 E25.85694
G1 X29.422 Y-60.298 E25.88115
G1 X30.052 Y-60.815 E25.90536
G1 X30.772 Y-61.200 E25.92958
G1 X31.552 Y-61.437 E25.95379
G1 X32.350 Y-61.515 E25.97759
G1 X33.174 Y-61.437 E26.00218
G1 X33.955 Y-61.200 E26.02642
G1 X34.674 Y-60.815 E26.05063
G1 X35.305 Y-60.298 E26.07484
G1 X35.822 Y-59.668 E26.09905
G1 X36.207 Y-58.949 E26.12326
G1 X36.443 Y-58.168 E26.14748
G1 X36.523 Y-57.357 E26.17169
G1 X36.443 Y-56.545 E26.19590
G1 X36.207 Y-55.765 E26.22011
G1 X35.822 Y-55.046 E26.24432
G1 X35.305 Y-54.415 E26.26854
G1 X34.674 Y-53.898 E26.29275
G1 X33.955 Y-53.514 E26.31696
G1 X33.175 Y-53.277 E26.34117
G1 X32.363 Y-53.197 E26.36539
G1 X31.552 Y-53.277 E26.38960
G1 X30.772 Y-53.514 E26.41381
G1 X30.052 Y-53.898 E26.43802
G1 X29.422 Y-54.415 E26.46223
G1 X28.905 Y-55.046 E26.48645
G1 X28.545 Y-55.718 E26.50910
G1 X28.852 Y-55.902 F5400.000
G1 F900
G1 X28.635 Y-56.615 E26.53122
G1 X28.562 Y-57.357 E26.55335
G1 X28.635 Y-58.098 E26.57547
G1 X28.852 Y-58.811 E26.59759
G1 X29.203 Y-59.468 E26.61972
G1 X29.676 Y-60.044 E26.64184
G1 X30.252 Y-60.517 E26.66396
G1 X30.909 Y-60.868 E26.68609
G1 X31.622 Y-61.085 E26.70821
G1 X32.350 Y-61.156 E26.72994
G1 X33.105 Y-61.085 E26.75244
G1 X33.818 Y-60.868 E26.77457
G1 X34.475 Y-60.517 E26.79670
G1 X35.051 Y-60.044 E26.81882
G1 X35.524 Y-59.468 E26.84094
G1 X35.875 Y-58.811 E26.86307
G1 X36.091 Y-58.098 E26.88519
G1 X36.164 Y-57.357 E26.90731
G1 X36.091 Y-56.615 E26.92944
G1 X35.875 Y-55.902 E26.95156
G1 X35.524 Y-55.245 E26.97369
G1 X35.051 Y-54.669 E26.99581
G1 X34.475 Y-54.196 E27.01793
G1 X33.818 Y-53.845 E27.04006
G1 X33.105 Y-53.629 E27.06218
G1 X32.363 Y-53.556 E27.08430
G1 X31.622 Y-53.629 E27.10643
G1 X30.909 Y-53.845 E27.12855
G1 X30.252 Y-54.196 E27.15067
G1 X29.676 Y-54.669 E27.17280
G1 X29.203 Y-55.245 E27.19492
G1 X28.877 Y-55.856 E27.21549
G1 X28.505 Y-55.948 F5400.000
G1 X26.749 Y-61.982 F5400.000
G1 F900
G1 X25.875 Y-61.717 E27.24261
G1 X24.966 Y-61.627 E27.26973
G1 X24.057 Y-61.717 E27.29685
G1 X23.183 Y-61.982 E27.32398
G1 X22.377 Y-62.413 E27.35110
G1 X21.671 Y-62.992 E27.37822
G1 X21.092 Y-63.698 E27.40534
G1 X20.661 Y-64.504 E27.43246
G1 X20.396 Y-65.378 E27.45959
G1 X20.306 Y-66.287 E27.48671
G1 X20.396 Y-67.196 E27.51383
G1 X20.661 Y-68.070 E27.54095
G1 X21.092 Y-68.876 E27.56808
G1 X21.671 Y-69.582 E27.59520
G1 X22.377 Y-70.162 E27.62232
G1 X23.183 Y-70.592 E27.64944
G1 X24.057 Y-70.857 E27.67656
G1 X24.951 Y-70.945 E27.70322
G1 X25.874 Y-70.858 E27.73077
G1 X26.749 Y-70.592 E27.75792
G1 X27.555 Y-70.162 E27.78505
G1 X28.261 Y-69.582 E27.81217
G1 X28.841 Y-68.876 E27.83929
G1 X29.271 Y-68.070 E27.86641
G1 X29.536 Y-67.196 E27.89353
G1 X29.626 Y-66.287 E27.92066
G1 X29.536 Y-65.378 E27.94778
G1 X29.271 Y-64.504 E27.97490
G1 X28.841 Y-63.698 E28.00202
G1 X28.261 Y-62.992 E28.02915
G1 X27.555 Y-62.413 E28.05627
G1 X26.796 Y-62.007 E28.08183
G1 X26.612 Y-62.314 F5400.000
G1 F900
G1 X25.805 Y-62.069 E28.10687
G1 X24.966 Y-61.986 E28.13190
G1 X24.127 Y-62.069 E28.15693
G1 X23.320 Y-62.314 E28.18197
G1 X22.577 Y-62.711 E28.20700
G1 X21.925 Y-63.246 E28.23204
G1 X21.390 Y-63.898 E28.25707
G1 X20.993 Y-64.641 E28.28210
G1 X20.748 Y-65.448 E28.30714
G1 X20.665 Y-66.287 E28.33217
G1 X20.748 Y-67.126 E28.35720
