; generated by Slic3r 1.3.0-dev on 2016-01-29 at 16:42:43

; external perimeters extrusion width = 0.35mm
; perimeters extrusion width = 0.48mm
; infill extrusion width = 0.48mm
; solid infill extrusion width = 0.48mm
; top infill extrusion width = 0.48mm

M107
G28
G92 X0 Y0 Z0 E0
G1 F5000 Y30 X30
G1 X220
G1 F100 E10

G28
G92 X0 Y0 Z0
G1 F4000 X101 Y127
G92 X0 Y0 Z0 E0
G21 ; set units to millimeters
G90 ; use absolute coordinates
M82 ; use absolute distances for extrusion
G92 E0
G1 E-0.70000 F1500.00000
G92 E0
G1 Z0.200 F5400.000
G1 Z0.400 F5400.000
G1 X-41.300 Y-11.072 F5400.000
G1 Z0.200 F5400.000
G1 E0.70000 F1500.00000
G1 F1800
G1 X18.140 Y-74.001 E3.27018
G1 X18.925 Y-74.774 E3.30288
G1 X19.700 Y-75.397 E3.33240
G1 X20.455 Y-75.890 E3.35918
G1 X21.337 Y-76.349 E3.38870
G1 X22.174 Y-76.685 E3.41547
G1 X23.128 Y-76.963 E3.44499
G1 X24.015 Y-77.129 E3.47176
G1 X24.534 Y-77.199 E3.48733
G1 X33.454 Y-77.932 E3.75306
G1 X33.924 Y-77.949 E3.76703
G1 X34.924 Y-77.938 E3.79672
G1 X35.912 Y-77.830 E3.82624
G1 X36.891 Y-77.624 E3.85592
G1 X37.839 Y-77.325 E3.88544
G1 X38.758 Y-76.933 E3.91512
G1 X39.630 Y-76.454 E3.94465
G1 X40.455 Y-75.890 E3.97434
G1 X41.217 Y-75.251 E4.00384
G1 X41.893 Y-74.560 E4.03255
G1 X42.538 Y-73.761 E4.06304
G1 X43.085 Y-72.924 E4.09273
G1 X43.544 Y-72.042 E4.12224
G1 X43.916 Y-71.114 E4.15194
G1 X44.194 Y-70.160 E4.18145
G1 X44.379 Y-69.177 E4.21114
G1 X44.465 Y-68.187 E4.24064
G1 X44.455 Y-67.187 E4.27033
G1 X44.371 Y-66.325 E4.29605
G1 X18.599 Y73.795 E8.52619
G1 X17.854 Y75.656 E8.58570
G1 X16.447 Y77.083 E8.64520
G1 X14.596 Y77.853 E8.70471
G1 X12.592 Y77.846 E8.76422
G1 X10.198 Y76.628 E8.84397
G1 X-28.994 Y40.952 E10.41754
G1 X-29.829 Y39.970 E10.45581
G1 X-30.341 Y39.137 E10.48485
G1 X-30.795 Y38.312 E10.51282
G1 X-31.205 Y37.462 E10.54082
G1 X-31.556 Y36.581 E10.56899
G1 X-44.022 Y-1.834 E11.76812
G1 X-44.214 Y-2.481 E11.78817
G1 X-44.397 Y-3.439 E11.81714
G1 X-44.444 Y-3.942 E11.83214
G1 X-44.419 Y-5.097 E11.86643
G1 X-44.354 Y-5.574 E11.88072
G1 X-44.144 Y-6.479 E11.90831
G1 X-43.984 Y-6.964 E11.92347
G1 X-43.726 Y-7.597 E11.94378
G1 X-43.490 Y-8.081 E11.95976
G1 X-43.245 Y-8.525 E11.97483
G1 X-42.952 Y-8.999 E11.99135
G1 X-42.738 Y-9.317 E12.00275
G1 X-42.225 Y-10.006 E12.02824
G1 X-41.722 Y-10.608 E12.05153
G1 X-41.336 Y-11.034 E12.06861
G1 X-41.040 Y-10.827 F5400.000
G1 F1800
G1 X18.400 Y-73.756 E14.63879
G1 X19.175 Y-74.519 E14.67107
G1 X19.895 Y-75.098 E14.69851
G1 X20.651 Y-75.591 E14.72529
G1 X21.470 Y-76.017 E14.75273
G1 X22.307 Y-76.353 E14.77950
G1 X23.194 Y-76.612 E14.80694
G1 X24.081 Y-76.778 E14.83371
G1 X24.564 Y-76.843 E14.84819
G1 X33.483 Y-77.576 E15.11391
G1 X33.920 Y-77.592 E15.12690
G1 X34.920 Y-77.581 E15.15659
G1 X35.839 Y-77.480 E15.18403
G1 X36.817 Y-77.275 E15.21372
G1 X37.699 Y-76.997 E15.24115
G1 X38.618 Y-76.604 E15.27084
G1 X39.429 Y-76.160 E15.29828
G1 X40.254 Y-75.595 E15.32797
G1 X40.961 Y-75.001 E15.35540
G1 X41.637 Y-74.311 E15.38409
G1 X42.239 Y-73.566 E15.41252
G1 X42.786 Y-72.729 E15.44221
G1 X43.212 Y-71.909 E15.46964
G1 X43.585 Y-70.981 E15.49934
G1 X43.844 Y-70.094 E15.52677
G1 X44.028 Y-69.111 E15.55646
G1 X44.108 Y-68.191 E15.58389
G1 X44.098 Y-67.191 E15.61357
G1 X44.020 Y-66.390 E15.63748
G1 X18.248 Y73.731 E19.86762
G1 X17.517 Y75.519 E19.92497
G1 X16.130 Y76.863 E19.98233
G1 X14.320 Y77.539 E20.03968
G1 X12.391 Y77.431 E20.09704
G1 X10.438 Y76.364 E20.16312
G1 X-28.753 Y40.688 E21.73669
G1 X-29.530 Y39.775 E21.77227
G1 X-30.031 Y38.960 E21.80069
G1 X-30.476 Y38.151 E21.82812
G1 X-30.881 Y37.313 E21.85573
G1 X-31.216 Y36.469 E21.88270
G1 X-43.682 Y-1.944 E23.08178
G1 X-43.871 Y-2.582 E23.10154
G1 X-44.042 Y-3.473 E23.12847
G1 X-44.089 Y-3.975 E23.14346
G1 X-44.065 Y-5.049 E23.17534
G1 X-44.000 Y-5.525 E23.18962
G1 X-43.805 Y-6.367 E23.21528
G1 X-43.645 Y-6.852 E23.23043
G1 X-43.405 Y-7.441 E23.24931
G1 X-43.169 Y-7.924 E23.26529
G1 X-42.941 Y-8.338 E23.27930
G1 X-42.648 Y-8.811 E23.29583
G1 X-41.949 Y-9.779 E23.33128
G1 X-41.457 Y-10.368 E23.35408
G1 X-41.076 Y-10.788 E23.37092
G1 X-40.781 Y-10.582 F5400.000
G1 F1800
G1 X18.660 Y-73.511 E25.94110
G1 X19.424 Y-74.264 E25.97297
G1 X20.091 Y-74.799 E25.99833
G1 X20.846 Y-75.291 E26.02511
G1 X21.603 Y-75.686 E26.05047
G1 X22.440 Y-76.022 E26.07724
G1 X23.260 Y-76.261 E26.10260
G1 X24.146 Y-76.427 E26.12938
G1 X24.593 Y-76.487 E26.14276
G1 X33.512 Y-77.220 E26.40848
G1 X33.917 Y-77.235 E26.42049
G1 X34.916 Y-77.224 E26.45017
G1 X35.766 Y-77.131 E26.47554
G1 X36.744 Y-76.925 E26.50522
G1 X37.558 Y-76.668 E26.53058
G1 X38.478 Y-76.276 E26.56027
G1 X39.227 Y-75.865 E26.58563
G1 X40.052 Y-75.300 E26.61532
G1 X40.706 Y-74.752 E26.64067
G1 X41.382 Y-74.061 E26.66936
G1 X41.940 Y-73.371 E26.69571
G1 X42.487 Y-72.534 E26.72540
G1 X42.881 Y-71.776 E26.75075
G1 X43.254 Y-70.848 E26.78045
G1 X43.493 Y-70.028 E26.80580
G1 X43.677 Y-69.045 E26.83549
G1 X43.751 Y-68.195 E26.86085
G1 X43.741 Y-67.195 E26.89053
G1 X43.669 Y-66.454 E26.91263
G1 X17.897 Y73.666 E31.14277
G1 X17.180 Y75.378 E31.19788
G1 X15.815 Y76.637 E31.25300
G1 X14.051 Y77.213 E31.30811
G1 X12.206 Y77.002 E31.36322
G1 X10.679 Y76.100 E31.41591
G1 X-28.513 Y40.424 E32.98948
G1 X-29.259 Y39.536 E33.02390
G1 X-29.720 Y38.782 E33.05015
G1 X-30.158 Y37.989 E33.07704
G1 X-30.556 Y37.164 E33.10427
G1 X-30.877 Y36.357 E33.13003
G1 X-43.343 Y-2.054 E34.32906
G1 X-43.529 Y-2.682 E34.34852
G1 X-43.686 Y-3.506 E34.37341
G1 X-43.733 Y-4.008 E34.38840
G1 X-43.712 Y-5.000 E34.41787
G1 X-43.647 Y-5.477 E34.43215
G1 X-43.466 Y-6.255 E34.45586
G1 X-43.306 Y-6.740 E34.47101
G1 X-43.084 Y-7.284 E34.48847
G1 X-42.848 Y-7.768 E34.50445
G1 X-42.345 Y-8.623 E34.53391
G1 X-41.673 Y-9.552 E34.56794
G1 X-41.192 Y-10.128 E34.59024
G1 X-40.816 Y-10.543 E34.60686
G1 E33.90686 F1500.00000
G92 E0
G1 Z0.400 F5400.000
G1 X30.296 Y-60.414 F5400.000
G1 Z0.200 F5400.000
G1 E0.70000 F1500.00000
G1 F900
G1 X30.550 Y-61.009 E0.71921
G1 X30.915 Y-61.543 E0.73843
G1 X31.378 Y-61.996 E0.75764
G1 X31.920 Y-62.349 E0.77685
G1 X32.520 Y-62.590 E0.79607
G1 X33.136 Y-62.706 E0.81466
G1 X33.803 Y-62.703 E0.83446
G1 X34.437 Y-62.570 E0.85370
G1 X35.032 Y-62.316 E0.87291
G1 X35.566 Y-61.950 E0.89212
G1 X36.019 Y-61.488 E0.91134
G1 X36.372 Y-60.946 E0.93055
G1 X36.613 Y-60.345 E0.94976
G1 X36.733 Y-59.709 E0.96898
G1 X36.726 Y-59.062 E0.98819
G1 X36.592 Y-58.429 E1.00740
G1 X36.338 Y-57.834 E1.02662
G1 X35.973 Y-57.300 E1.04583
G1 X35.510 Y-56.847 E1.06504
G1 X34.969 Y-56.493 E1.08426
G1 X34.368 Y-56.252 E1.10347
G1 X33.732 Y-56.133 E1.12268
G1 X33.085 Y-56.140 E1.14190
G1 X32.452 Y-56.273 E1.16111
G1 X31.857 Y-56.527 E1.18032
G1 X31.322 Y-56.893 E1.19954
G1 X30.870 Y-57.355 E1.21875
G1 X30.516 Y-57.897 E1.23796
G1 X30.275 Y-58.498 E1.25718
G1 X30.156 Y-59.134 E1.27639
G1 X30.163 Y-59.781 E1.29560
G1 X30.285 Y-60.363 E1.31326
G1 X30.060 Y-60.672 F5400.000
G1 E0.61326 F1500.00000
G92 E0
G1 Z0.400 F5400.000
G1 X29.529 Y-60.656 F5400.000
G1 X35.630 Y-62.875 F5400.000
G1 X34.283 Y-62.967 F5400.000
G1 Z0.200 F5400.000
G1 E0.70000 F1500.00000
G1 F900
G1 X34.304 Y-63.160 E0.70577
G1 X34.720 Y-63.155 E0.71812
G1 X35.618 Y-63.324 E0.74524
G1 X36.466 Y-63.664 E0.77237
G1 X36.671 Y-63.798 E0.77963
G1 X36.793 Y-63.684 E0.78461
G1 X35.916 Y-62.103 E0.83828
G1 X35.797 Y-62.225 E0.84334
G1 X35.204 Y-62.630 E0.86464
G1 X34.545 Y-62.912 E0.88594
G1 X34.334 Y-62.956 E0.89232
G1 E0.19232 F1500.00000
G92 E0
G1 Z0.400 F5400.000
G1 X35.630 Y-62.875 F5400.000
G1 X0.399 Y42.305 F5400.000
G1 X0.545 Y43.000 F5400.000
G1 Z0.200 F5400.000
G1 E0.70000 F1500.00000
G1 F900
G1 X11.219 Y51.826 E1.11123
G1 X11.212 Y67.177 E1.56703
G1 X-8.296 Y49.097 E2.35674
G1 X-6.156 Y46.957 E2.44660
G1 X-5.432 Y47.260 E2.46992
G1 X-4.767 Y47.406 E2.49012
G1 X-4.019 Y47.431 E2.51234
G1 X-3.449 Y47.336 E2.52950
G1 X-2.905 Y47.128 E2.54679
G1 X-2.381 Y46.821 E2.56484
G1 X-1.884 Y46.434 E2.58353
G1 X-1.424 Y45.992 E2.60247
G1 X-1.009 Y45.521 E2.62111
G1 X-0.645 Y45.048 E2.63882
G1 X-0.094 Y44.213 E2.66853
G1 X0.197 Y43.692 E2.68626
G1 X0.521 Y43.047 E2.70768
G1 X0.662 Y43.561 F5400.000
G1 F720
G1 X10.862 Y51.994 E3.10063
G1 X10.855 Y66.359 E3.52716
G1 X-7.781 Y49.087 E4.28160
G1 X-6.073 Y47.379 E4.35333
G1 X-5.540 Y47.602 E4.37049
G1 X-4.812 Y47.762 E4.39262
G1 X-3.995 Y47.789 E4.41687
G1 X-3.355 Y47.683 E4.43614
G1 X-2.750 Y47.451 E4.45538
G1 X-2.180 Y47.117 E4.47501
G1 X-1.650 Y46.704 E4.49495
G1 X-1.166 Y46.239 E4.51488
G1 X-0.733 Y45.748 E4.53431
G1 X-0.356 Y45.259 E4.55265
G1 X-0.039 Y44.798 E4.56925
G1 X0.213 Y44.395 E4.58339
G1 X0.639 Y43.608 E4.60995
G1 X0.867 Y43.277 F5400.000
G1 X-1.089 Y36.582 F5400.000
G1 F900
G1 X-0.986 Y37.937 E4.65029
G1 X-0.974 Y38.506 E4.66719
G1 X-0.991 Y39.152 E4.68637
G1 X-1.053 Y39.846 E4.70707
G1 X-1.176 Y40.557 E4.72850
G1 X-1.381 Y41.256 E4.75010
G1 X-1.695 Y41.911 E4.77167
G1 X-2.154 Y42.481 E4.79341
G1 X-2.787 Y42.896 E4.81588
G1 X-3.561 Y43.072 E4.83946
G1 X-4.266 Y43.034 E4.86043
G1 X-4.876 Y42.846 E4.87937
G1 X-5.392 Y42.527 E4.89737
G1 X-5.807 Y42.112 E4.91479
G1 X-6.128 Y41.634 E4.93190
G1 X-6.370 Y41.116 E4.94887
G1 X-6.548 Y40.576 E4.96574
G1 X-6.673 Y40.029 E4.98240
G1 X-6.756 Y39.489 E4.99863
G1 X-6.806 Y38.965 E5.01426
G1 X-6.831 Y38.053 E5.04134
G1 X-6.762 Y36.655 E5.08291
G1 X-1.141 Y36.583 E5.24982
G1 X-1.419 Y36.944 F5400.000
G1 F900
G1 X-1.342 Y37.954 E5.27991
G1 X-1.331 Y38.505 E5.29627
G1 X-1.348 Y39.131 E5.31487
G1 X-1.407 Y39.800 E5.33480
G1 X-1.524 Y40.476 E5.35518
G1 X-1.715 Y41.127 E5.37532
G1 X-1.999 Y41.719 E5.39480
G1 X-2.397 Y42.213 E5.41365
G1 X-2.929 Y42.562 E5.43253
G1 X-3.592 Y42.713 E5.45271
G1 X-4.203 Y42.679 E5.47090
G1 X-4.727 Y42.518 E5.48718
G1 X-5.169 Y42.245 E5.50259
G1 X-5.530 Y41.885 E5.51774
G1 X-5.816 Y41.458 E5.53300
G1 X-6.037 Y40.984 E5.54852
G1 X-6.203 Y40.480 E5.56427
G1 X-6.322 Y39.962 E5.58005
G1 X-6.402 Y39.445 E5.59558
G1 X-6.449 Y38.943 E5.61056
G1 X-6.474 Y38.057 E5.63687
G1 X-6.422 Y37.008 E5.66807
G1 X-1.472 Y36.944 E5.81506
G1 X-1.070 Y36.925 F5400.000
G1 X1.185 Y36.582 F5400.000
G1 F900
G1 X11.227 Y36.516 E6.11323
G1 X11.222 Y47.171 E6.42959
G1 X1.185 Y39.498 E6.80470
G1 X1.185 Y36.634 E6.88973
G1 X1.542 Y36.937 F5400.000
G1 F900
G1 X10.870 Y36.876 E7.16668
G1 X10.865 Y46.449 E7.45093
G1 X1.542 Y39.322 E7.79937
G1 X1.542 Y36.989 E7.86862
G1 X1.451 Y36.599 F5400.000
G1 X11.229 Y32.445 F5400.000
G1 F900
G1 X-8.992 Y32.386 E8.46900
G1 X-9.070 Y35.279 E8.55494
G1 X-9.070 Y37.798 E8.62974
G1 X-9.038 Y39.108 E8.66865
G1 X-8.976 Y40.391 E8.70678
G1 X-8.881 Y41.596 E8.74265
G1 X-8.746 Y42.669 E8.77476
G1 X-8.571 Y43.554 E8.80155
G1 X-8.391 Y44.101 E8.81864
G1 X-8.227 Y44.488 E8.83111
G1 X-8.006 Y44.928 E8.84575
G1 X-7.728 Y45.392 E8.86181
G1 X-7.392 Y45.855 E8.87880
G1 X-6.877 Y46.425 E8.90160
G1 X-8.946 Y48.494 E8.98850
G1 X-24.417 Y34.156 E9.61478
G1 X10.407 Y-15.096 E11.40573
G1 X11.253 Y-14.826 E11.43210
G1 X11.237 Y17.116 E12.38051
G1 X9.222 Y17.088 E12.44035
G1 X8.326 Y19.817 E12.52563
G1 X-8.778 Y19.942 E13.03348
G1 X-9.692 Y17.072 E13.12290
G1 X-11.007 Y17.072 E13.16197
G1 X-10.945 Y26.993 E13.45654
G1 X-9.901 Y27.020 E13.48755
G1 X-8.717 Y24.145 E13.57987
G1 X8.172 Y24.145 E14.08135
G1 X9.309 Y27.037 E14.17362
G1 X11.232 Y27.028 E14.23071
G1 X11.229 Y32.393 E14.38998
G1 X10.872 Y32.087 F5400.000
G1 F720
G1 X-9.335 Y32.028 E14.98996
G1 X-9.427 Y35.275 E15.08643
G1 X-9.427 Y37.803 E15.16147
G1 X-9.394 Y39.121 E15.20063
G1 X-9.333 Y40.414 E15.23906
G1 X-9.236 Y41.632 E15.27533
G1 X-9.099 Y42.726 E15.30806
G1 X-8.917 Y43.645 E15.33588
G1 X-8.726 Y44.226 E15.35405
G1 X-8.552 Y44.637 E15.36730
G1 X-8.320 Y45.100 E15.38268
G1 X-8.026 Y45.589 E15.39961
G1 X-7.669 Y46.080 E15.41763
G1 X-7.369 Y46.412 E15.43092
G1 X-8.956 Y47.999 E15.49753
G1 X-23.944 Y34.107 E16.10432
G1 X10.547 Y-14.676 E17.87822
G1 X10.896 Y-14.565 E17.88907
G1 X10.880 Y16.754 E18.81898
G1 X8.964 Y16.727 E18.87587
G1 X8.067 Y19.461 E18.96132
G1 X-8.518 Y19.583 E19.45374
G1 X-9.431 Y16.715 E19.54310
G1 X-11.401 Y16.715 E19.60161
G1 X-11.429 Y16.897 E19.60707
G1 X-11.366 Y16.917 E19.60904
G1 X-11.300 Y27.341 E19.91857
G1 X-9.664 Y27.383 E19.96715
G1 X-8.478 Y24.502 E20.05967
G1 X7.929 Y24.502 E20.54682
G1 X9.066 Y27.395 E20.63913
G1 X10.874 Y27.387 E20.69282
G1 X10.872 Y32.035 E20.83081
G1 X10.914 Y32.435 F5400.000
G1 X11.672 Y32.889 F5400.000
G1 X11.672 Y32.889 F5400.000
G1 X12.152 Y32.890 F5400.000
G1 X12.155 Y26.584 F5400.000
G1 X11.671 Y25.618 F5400.000
G1 X10.835 Y24.786 F5400.000
G1 X10.481 Y22.913 F5400.000
G1 X10.234 Y22.064 F5400.000
G1 X10.592 Y20.895 F5400.000
G1 X10.839 Y19.354 F5400.000
G1 X11.666 Y18.539 F5400.000
G1 X12.160 Y17.565 F5400.000
G1 X12.176 Y-15.150 F5400.000
G1 X11.920 Y-15.853 F5400.000
G1 X11.238 Y-16.785 F5400.000
G1 X10.529 Y-16.548 F5400.000
G1 X9.711 Y-15.984 F5400.000
G1 X8.625 Y-14.451 F5400.000
G1 X8.625 Y-14.451 F5400.000
G1 X-2.469 Y1.204 F5400.000
G1 X-3.315 Y1.788 F5400.000
G1 X-5.117 Y2.392 F5400.000
G1 X-8.242 Y2.761 F5400.000
G1 X-9.048 Y5.282 F5400.000
G1 X-12.725 Y5.271 F5400.000
G1 X-13.166 Y4.530 F5400.000
G1 F900
G1 X-29.765 Y-4.421 E21.39075
G1 X-13.109 Y-14.004 E21.96130
G1 X-13.166 Y4.478 E22.51004
G1 X-13.521 Y3.933 F5400.000
G1 F720
G1 X-29.031 Y-4.432 E23.03326
G1 X-13.468 Y-13.385 E23.56638
G1 X-13.521 Y3.880 E24.07903
G1 X-13.630 Y4.266 F5400.000
G1 X-4.026 Y0.032 F5400.000
G1 F900
G1 X-3.181 Y0.301 E24.10534
G1 X12.954 Y-22.416 E24.93267
G1 X13.103 Y-22.369 E24.93732
G1 X13.055 Y71.618 E27.72792
G1 X-25.144 Y36.845 E29.26167
G1 X-25.613 Y36.066 E29.28866
G1 X-25.936 Y35.448 E29.30936
G1 X-26.218 Y34.796 E29.33045
G1 X-26.312 Y34.509 E29.33943
G1 X-26.369 Y34.259 E29.34703
G1 X-26.385 Y34.069 E29.35269
G1 X-26.367 Y33.900 E29.35772
G1 X-26.315 Y33.683 E29.36437
G1 X-26.233 Y33.439 E29.37199
G1 X-25.994 Y32.895 E29.38965
G1 X-25.724 Y32.390 E29.40665
G1 X-25.307 Y31.717 E29.43017
G1 X-14.688 Y16.812 E29.97354
G1 X-36.374 Y-0.633 E30.79991
G1 X-36.883 Y-1.115 E30.82071
G1 X-37.556 Y-1.840 E30.85009
G1 X-37.890 Y-2.255 E30.86593
G1 X-38.204 Y-2.698 E30.88202
G1 X-38.472 Y-3.149 E30.89761
G1 X-38.675 Y-3.594 E30.91213
G1 X-38.798 Y-4.014 E30.92513
G1 X-38.834 Y-4.399 E30.93661
G1 X-38.785 Y-4.761 E30.94746
G1 X-38.652 Y-5.162 E30.95998
G1 X-38.445 Y-5.586 E30.97401
G1 X-38.178 Y-6.018 E30.98907
G1 X-37.869 Y-6.440 E31.00461
G1 X-37.542 Y-6.837 E31.01988
G1 X-36.891 Y-7.532 E31.04816
G1 X-36.396 Y-7.999 E31.06836
G1 X13.288 Y-50.277 E33.00535
G1 X13.288 Y-50.105 E33.01046
G1 X22.197 Y-58.188 E33.36761
G1 X25.320 Y-63.423 E33.54861
G1 X25.714 Y-63.418 E33.56029
G1 X26.515 Y-63.569 E33.58450
G1 X27.272 Y-63.873 E33.60872
G1 X27.955 Y-64.318 E33.63293
G1 X28.538 Y-64.889 E33.65714
G1 X28.998 Y-65.562 E33.68135
G1 X29.318 Y-66.312 E33.70557
G1 X29.486 Y-67.110 E33.72978
G1 X29.488 Y-67.322 E33.73608
G1 X29.682 Y-67.339 E33.74185
G1 X29.840 Y-66.493 E33.76739
G1 X30.181 Y-65.646 E33.79451
G1 X30.680 Y-64.881 E33.82163
G1 X31.319 Y-64.228 E33.84876
G1 X32.073 Y-63.712 E33.87588
G1 X32.913 Y-63.353 E33.90300
G1 X33.382 Y-63.255 E33.91725
G1 X33.362 Y-63.062 E33.92300
G1 X33.103 Y-63.063 E33.93067
G1 X32.420 Y-62.935 E33.95132
G1 X31.754 Y-62.668 E33.97262
G1 X31.153 Y-62.276 E33.99392
G1 X30.641 Y-61.774 E34.01522
G1 X30.236 Y-61.182 E34.03653
G1 X29.954 Y-60.522 E34.05783
G1 X29.806 Y-59.820 E34.07913
G1 X29.801 Y-59.330 E34.09368
G1 X23.477 Y-56.802 E34.29588
G1 X18.109 Y-51.933 E34.51107
G1 X13.280 Y-43.024 E34.81196
G1 X13.264 Y-29.819 E35.20403
G1 X-4.050 Y-19.462 E35.80305
G1 X-4.026 Y-0.020 E36.38030
G1 E35.68030 F1500.00000
G92 E0
G1 Z0.400 F5400.000
G1 X-4.469 Y0.356 F5400.000
G1 X29.514 Y-69.493 F5400.000
G1 X29.485 Y-67.977 F5400.000
G1 Z0.200 F5400.000
G1 E0.70000 F1500.00000
G1 F900
G1 X29.344 Y-68.727 E0.72263
G1 X29.041 Y-69.483 E0.74685
G1 X28.595 Y-70.166 E0.77106
G1 X28.191 Y-70.579 E0.78819
G1 X30.895 Y-71.157 E0.87029
G1 X30.971 Y-71.015 E0.87507
G1 X30.744 Y-70.793 E0.88451
G1 X30.229 Y-70.039 E0.91163
G1 X29.870 Y-69.198 E0.93876
G1 X29.682 Y-68.305 E0.96588
G1 X29.679 Y-67.994 E0.97509
G1 X29.537 Y-67.982 E0.97930
G1 X30.039 Y-68.266 F5400.000
G1 F900
G1 X30.212 Y-69.091 E1.00433
