; generated by Slic3r 1.3.0-dev on 2016-01-31 at 12:59:28

; external perimeters extrusion width = 0.35mm
; perimeters extrusion width = 0.48mm
; infill extrusion width = 0.48mm
; solid infill extrusion width = 0.48mm
; top infill extrusion width = 0.48mm

M107
G28
G92 X0 Y0 Z0 E0
G1 F5000 Y30 X30
G1 X220
G1 F100 E10

G28
G92 X0 Y0 Z0
G1 F4000 X101 Y127
G92 X0 Y0 Z0 E0
G21 ; set units to millimeters
G90 ; use absolute coordinates
M82 ; use absolute distances for extrusion
G92 E0
G1 E-0.70000 F1500.00000
G92 E0
G1 Z0.200 F5400.000
G1 Z0.400 F5400.000
G1 X-10.487 Y41.241 F5400.000
G1 Z0.200 F5400.000
G1 E0.70000 F1500.00000
G1 F1800
G1 X-74.427 Y-16.459 E3.25717
G1 X-74.950 Y-17.007 E3.27964
G1 X-75.784 Y-18.023 E3.31868
G1 X-76.336 Y-18.850 E3.34820
G1 X-76.956 Y-20.009 E3.38724
G1 X-77.336 Y-20.928 E3.41675
G1 X-77.718 Y-22.186 E3.45579
G1 X-77.912 Y-23.161 E3.48530
G1 X-78.041 Y-24.469 E3.52435
G1 X-78.041 Y-25.463 E3.55386
G1 X-77.912 Y-26.772 E3.59289
G1 X-77.718 Y-27.747 E3.62241
G1 X-77.336 Y-29.005 E3.66145
G1 X-76.956 Y-29.923 E3.69096
G1 X-76.336 Y-31.083 E3.73000
G1 X-75.784 Y-31.909 E3.75951
G1 X-74.950 Y-32.926 E3.79855
G1 X-74.247 Y-33.629 E3.82807
G1 X-64.174 Y-41.756 E4.21235
G1 X-63.384 Y-42.278 E4.24048
G1 X-62.252 Y-42.883 E4.27858
G1 X-61.334 Y-43.264 E4.30809
G1 X-60.106 Y-43.636 E4.34619
G1 X-59.131 Y-43.830 E4.37571
G1 X-57.854 Y-43.956 E4.41382
G1 X-56.860 Y-43.956 E4.44333
G1 X-55.583 Y-43.830 E4.48143
G1 X-55.127 Y-43.764 E4.49509
G1 X73.946 Y-19.078 E8.39692
G1 X75.802 Y-18.320 E8.45642
G1 X77.218 Y-16.902 E8.51593
G1 X77.975 Y-15.046 E8.57544
G1 X77.954 Y-13.042 E8.63495
G1 X76.744 Y-10.683 E8.71367
G1 X41.068 Y28.508 E10.28724
G1 X40.088 Y29.342 E10.32545
G1 X39.254 Y29.854 E10.35451
G1 X38.427 Y30.310 E10.38252
G1 X37.578 Y30.720 E10.41053
G1 X36.696 Y31.070 E10.43870
G1 X-1.718 Y43.536 E11.63782
G1 X-2.365 Y43.728 E11.65787
G1 X-3.324 Y43.912 E11.68686
G1 X-3.826 Y43.959 E11.70184
G1 X-4.982 Y43.934 E11.73615
G1 X-5.458 Y43.869 E11.75042
G1 X-6.364 Y43.659 E11.77802
G1 X-6.848 Y43.499 E11.79317
G1 X-7.482 Y43.241 E11.81348
G1 X-7.965 Y43.005 E11.82946
G1 X-8.410 Y42.759 E11.84453
G1 X-9.201 Y42.252 E11.87245
G1 X-9.890 Y41.739 E11.89794
G1 X-10.447 Y41.275 E11.91948
G1 X-10.248 Y40.975 F5400.000
G1 F1800
G1 X-74.188 Y-16.724 E14.47665
G1 X-74.673 Y-17.233 E14.49754
G1 X-75.508 Y-18.249 E14.53658
G1 X-76.021 Y-19.018 E14.56402
G1 X-76.641 Y-20.177 E14.60306
G1 X-76.994 Y-21.031 E14.63050
G1 X-77.376 Y-22.289 E14.66953
G1 X-77.556 Y-23.196 E14.69697
G1 X-77.685 Y-24.504 E14.73601
G1 X-77.685 Y-25.428 E14.76344
G1 X-77.556 Y-26.737 E14.80248
G1 X-77.376 Y-27.643 E14.82991
G1 X-76.994 Y-28.901 E14.86896
G1 X-76.641 Y-29.755 E14.89639
G1 X-76.021 Y-30.914 E14.93543
G1 X-75.508 Y-31.683 E14.96286
G1 X-74.689 Y-32.681 E15.00119
G1 X-74.020 Y-33.352 E15.02934
G1 X-63.950 Y-41.478 E15.41352
G1 X-63.216 Y-41.963 E15.43967
G1 X-62.084 Y-42.568 E15.47777
G1 X-61.230 Y-42.922 E15.50521
G1 X-60.002 Y-43.295 E15.54330
G1 X-59.096 Y-43.475 E15.57074
G1 X-57.819 Y-43.601 E15.60885
G1 X-56.895 Y-43.601 E15.63628
G1 X-55.618 Y-43.475 E15.67438
G1 X-55.194 Y-43.414 E15.68709
G1 X73.879 Y-18.727 E19.58891
G1 X75.662 Y-17.983 E19.64626
G1 X76.997 Y-16.587 E19.70361
G1 X77.659 Y-14.773 E19.76097
G1 X77.539 Y-12.845 E19.81832
G1 X76.480 Y-10.924 E19.88345
G1 X40.804 Y28.268 E21.45702
G1 X39.893 Y29.043 E21.49253
G1 X39.077 Y29.544 E21.52098
G1 X38.266 Y29.991 E21.54844
G1 X37.429 Y30.395 E21.57606
G1 X36.585 Y30.731 E21.60303
G1 X-1.828 Y43.197 E22.80211
G1 X-2.466 Y43.386 E22.82186
G1 X-3.357 Y43.556 E22.84880
G1 X-3.859 Y43.603 E22.86378
G1 X-4.934 Y43.580 E22.89568
G1 X-5.410 Y43.515 E22.90995
G1 X-6.251 Y43.320 E22.93560
G1 X-6.736 Y43.160 E22.95076
G1 X-7.325 Y42.920 E22.96964
G1 X-7.809 Y42.684 E22.98562
G1 X-8.222 Y42.456 E22.99962
G1 X-8.991 Y41.964 E23.02674
G1 X-9.663 Y41.464 E23.05161
G1 X-10.208 Y41.010 E23.07267
G1 X-10.009 Y40.710 F5400.000
G1 F1800
G1 X-73.948 Y-16.989 E25.62984
G1 X-74.397 Y-17.460 E25.64915
G1 X-75.232 Y-18.476 E25.68819
G1 X-75.706 Y-19.186 E25.71355
G1 X-76.326 Y-20.346 E25.75259
G1 X-76.653 Y-21.135 E25.77795
G1 X-77.034 Y-22.393 E25.81698
G1 X-77.201 Y-23.231 E25.84234
G1 X-77.330 Y-24.539 E25.88138
G1 X-77.330 Y-25.393 E25.90674
G1 X-77.201 Y-26.702 E25.94577
G1 X-77.034 Y-27.539 E25.97113
G1 X-76.653 Y-28.798 E26.01017
G1 X-76.326 Y-29.587 E26.03553
G1 X-75.706 Y-30.746 E26.07457
G1 X-75.232 Y-31.456 E26.09992
G1 X-74.413 Y-32.454 E26.13825
G1 X-73.794 Y-33.076 E26.16432
G1 X-63.726 Y-41.200 E26.54840
G1 X-63.047 Y-41.649 E26.57257
G1 X-61.916 Y-42.253 E26.61067
G1 X-61.126 Y-42.580 E26.63603
G1 X-59.898 Y-42.953 E26.67413
G1 X-59.061 Y-43.119 E26.69949
G1 X-57.784 Y-43.245 E26.73759
G1 X-56.930 Y-43.245 E26.76295
G1 X-55.653 Y-43.119 E26.80105
G1 X-55.261 Y-43.063 E26.81279
G1 X73.812 Y-18.377 E30.71461
G1 X75.519 Y-17.648 E30.76972
G1 X76.768 Y-16.274 E30.82484
G1 X77.332 Y-14.505 E30.87995
G1 X77.108 Y-12.663 E30.93507
G1 X76.216 Y-11.164 E30.98685
G1 X40.540 Y28.027 E32.56042
G1 X39.698 Y28.744 E32.59325
G1 X38.899 Y29.234 E32.62108
G1 X38.105 Y29.672 E32.64800
G1 X37.279 Y30.071 E32.67523
G1 X36.473 Y30.392 E32.70100
G1 X-1.938 Y42.857 E33.90002
G1 X-2.566 Y43.043 E33.91947
G1 X-3.390 Y43.201 E33.94438
G1 X-3.892 Y43.248 E33.95936
G1 X-4.885 Y43.226 E33.98884
G1 X-5.361 Y43.161 E34.00311
G1 X-6.139 Y42.981 E34.02682
G1 X-6.624 Y42.821 E34.04197
G1 X-7.168 Y42.599 E34.05943
G1 X-8.034 Y42.152 E34.08834
G1 X-8.781 Y41.675 E34.11466
G1 X-9.436 Y41.188 E34.13890
G1 X-9.969 Y40.745 E34.15948
G1 E33.45948 F1500.00000
G92 E0
G1 Z0.400 F5400.000
G1 X-13.888 Y12.623 F5400.000
G1 Z0.200 F5400.000
G1 E0.70000 F1500.00000
G1 F900
G1 X4.646 Y12.681 E1.25030
G1 X-4.306 Y29.280 E1.81024
G1 X-13.862 Y12.669 E2.37923
G1 X-13.270 Y12.982 F5400.000
G1 F720
G1 X4.049 Y13.036 E2.89344
G1 X-4.316 Y28.546 E3.41665
G1 X-13.243 Y13.028 E3.94822
G1 X-13.329 Y12.637 F5400.000
G1 X-13.633 Y13.954 F5400.000
G1 X-13.633 Y13.954 F5400.000
G1 X-17.745 Y16.319 F5400.000
G1 X-18.930 Y14.637 F5400.000
G1 X-14.655 Y12.178 F5400.000
G1 X-14.642 Y8.090 F5400.000
G1 X0.477 Y8.104 F5400.000
G1 X2.877 Y7.757 F5400.000
G1 X2.507 Y4.631 F5400.000
G1 X1.903 Y2.830 F5400.000
G1 X1.319 Y1.984 F5400.000
G1 X-15.868 Y-10.197 F5400.000
G1 X-15.500 Y-10.718 F5400.000
G1 X-14.980 Y-10.892 F5400.000
G1 F900
G1 X-14.710 Y-11.739 E3.97459
G1 X17.232 Y-11.722 E4.92300
G1 X17.203 Y-9.707 E4.98284
G1 X19.932 Y-8.811 E5.06812
G1 X20.057 Y8.293 E5.57598
G1 X17.188 Y9.206 E5.66539
G1 X17.188 Y10.522 E5.70446
G1 X27.109 Y10.460 E5.99903
G1 X27.136 Y9.416 E6.03005
G1 X24.261 Y8.232 E6.12237
G1 X24.261 Y-8.658 E6.62384
G1 X27.153 Y-9.794 E6.71612
G1 X27.144 Y-11.717 E6.77321
G1 X32.561 Y-11.714 E6.93404
G1 X32.502 Y8.506 E7.53442
G1 X35.395 Y8.585 E7.62036
G1 X37.914 Y8.584 E7.69515
G1 X39.224 Y8.552 E7.73406
G1 X40.507 Y8.491 E7.77220
G1 X41.711 Y8.395 E7.80806
G1 X42.785 Y8.261 E7.84018
G1 X43.670 Y8.085 E7.86697
G1 X44.217 Y7.905 E7.88406
G1 X44.603 Y7.742 E7.89653
G1 X45.044 Y7.521 E7.91117
G1 X45.508 Y7.243 E7.92722
G1 X45.971 Y6.906 E7.94421
G1 X46.540 Y6.391 E7.96702
G1 X48.610 Y8.461 E8.05392
G1 X34.272 Y23.931 E8.68020
G1 X-14.937 Y-10.862 E10.46958
G1 X-14.560 Y-11.033 F5400.000
G1 F720
G1 X-14.449 Y-11.381 E10.48044
G1 X16.870 Y-11.365 E11.41035
G1 X16.843 Y-9.450 E11.46723
G1 X19.577 Y-8.552 E11.55269
G1 X19.698 Y8.032 E12.04511
G1 X16.831 Y8.945 E12.13446
G1 X16.831 Y10.916 E12.19297
G1 X17.013 Y10.944 E12.19843
G1 X17.033 Y10.880 E12.20041
G1 X27.457 Y10.815 E12.50994
G1 X27.499 Y9.179 E12.55852
G1 X24.618 Y7.993 E12.65104
G1 X24.618 Y-8.414 E13.13819
G1 X27.511 Y-9.551 E13.23049
G1 X27.503 Y-11.360 E13.28419
G1 X32.203 Y-11.358 E13.42374
G1 X32.144 Y8.850 E14.02372
G1 X35.391 Y8.942 E14.12018
G1 X37.919 Y8.941 E14.19522
G1 X39.237 Y8.909 E14.23438
G1 X40.530 Y8.847 E14.27281
G1 X41.748 Y8.750 E14.30908
G1 X42.842 Y8.613 E14.34182
G1 X43.760 Y8.431 E14.36963
G1 X44.342 Y8.240 E14.38780
G1 X44.753 Y8.066 E14.40105
G1 X45.216 Y7.834 E14.41644
G1 X45.705 Y7.541 E14.43336
G1 X46.196 Y7.184 E14.45139
G1 X46.528 Y6.884 E14.46467
G1 X48.114 Y8.470 E14.53128
G1 X34.222 Y23.459 E15.13807
G1 X-14.517 Y-11.003 E16.91041
G1 X-14.881 Y-11.172 F5400.000
G1 X-15.500 Y-10.718 F5400.000
G1 X-15.500 Y-10.718 F5400.000
G1 X-15.868 Y-10.197 F5400.000
G1 X1.319 Y1.984 F5400.000
G1 X1.903 Y2.830 F5400.000
G1 X2.507 Y4.631 F5400.000
G1 X2.877 Y7.757 F5400.000
G1 X0.477 Y8.104 F5400.000
G1 X-14.642 Y8.090 F5400.000
G1 X-19.591 Y9.583 F5400.000
G1 X-20.742 Y10.280 F5400.000
G1 X-24.485 Y6.931 F5400.000
G1 X-33.950 Y-6.270 F5400.000
G1 X-46.343 Y-12.006 F5400.000
G1 X-47.177 Y-12.629 F5400.000
G1 X-47.789 Y-13.356 F5400.000
G1 X-47.659 Y-14.906 F5400.000
G1 X-47.877 Y-15.302 F5400.000
G1 F900
G1 X-49.229 Y-14.145 E16.96325
G1 X-57.620 Y-23.977 E17.34705
G1 X-56.290 Y-25.116 E17.39901
G1 X-47.911 Y-15.342 E17.78124
G1 X-48.381 Y-15.341 F5400.000
G1 F900
G1 X-49.189 Y-14.649 E17.81286
G1 X-57.117 Y-23.938 E18.17545
G1 X-56.329 Y-24.612 E18.20623
G1 X-48.415 Y-15.381 E18.56726
G1 X-48.148 Y-15.080 F5400.000
G1 X-47.659 Y-14.906 F5400.000
G1 X-47.659 Y-14.906 F5400.000
G1 X-47.789 Y-13.356 F5400.000
G1 X-49.235 Y-13.470 F5400.000
G1 X-49.303 Y-13.499 F5400.000
G1 X-50.582 Y-15.000 F5400.000
G1 X-58.251 Y-24.020 F5400.000
G1 X-58.256 Y-24.040 F5400.000
G1 X-58.127 Y-25.641 F5400.000
G1 X-58.127 Y-25.641 F5400.000
G1 X-58.127 Y-25.650 F5400.000
G1 X-58.291 Y-25.846 F5400.000
G1 X-58.723 Y-26.608 F5400.000
G1 X-59.433 Y-27.074 F5400.000
G1 X-59.605 Y-27.200 F5400.000
G1 X-59.648 Y-27.235 F5400.000
G1 X-60.427 Y-26.575 F5400.000
G1 X-60.942 Y-26.626 F5400.000
G1 X-60.758 Y-24.759 F5400.000
G1 X-60.902 Y-24.451 F5400.000
G1 X-60.938 Y-24.419 F5400.000
G1 X-60.985 Y-23.941 F5400.000
G1 X-60.988 Y-23.912 F5400.000
G1 X-60.996 Y-23.884 F5400.000
G1 X-61.287 Y-22.926 F5400.000
G1 X-61.296 Y-22.899 F5400.000
G1 X-61.309 Y-22.873 F5400.000
G1 X-61.781 Y-21.990 F5400.000
G1 X-62.043 Y-22.130 F5400.000
G1 X-62.413 Y-22.377 F5400.000
G1 F900
G1 X-62.992 Y-21.671 E18.59438
G1 X-63.698 Y-21.092 E18.62151
G1 X-64.504 Y-20.661 E18.64863
G1 X-65.378 Y-20.396 E18.67575
G1 X-66.287 Y-20.306 E18.70287
G1 X-67.196 Y-20.396 E18.72999
G1 X-68.070 Y-20.661 E18.75712
G1 X-68.876 Y-21.092 E18.78424
G1 X-69.582 Y-21.671 E18.81136
G1 X-70.162 Y-22.377 E18.83848
G1 X-70.592 Y-23.183 E18.86561
G1 X-70.857 Y-24.057 E18.89273
G1 X-70.947 Y-24.966 E18.91985
G1 X-70.857 Y-25.875 E18.94697
G1 X-70.592 Y-26.749 E18.97410
G1 X-70.162 Y-27.555 E19.00122
G1 X-69.582 Y-28.261 E19.02834
G1 X-68.876 Y-28.841 E19.05546
G1 X-68.070 Y-29.271 E19.08258
G1 X-67.196 Y-29.536 E19.10971
G1 X-66.303 Y-29.624 E19.13637
G1 X-65.379 Y-29.537 E19.16391
G1 X-64.504 Y-29.271 E19.19107
G1 X-63.698 Y-28.841 E19.21819
G1 X-62.992 Y-28.261 E19.24531
G1 X-62.413 Y-27.555 E19.27243
G1 X-61.982 Y-26.749 E19.29955
G1 X-61.701 Y-25.821 E19.32836
G1 X-61.628 Y-24.962 E19.35395
G1 X-61.717 Y-24.057 E19.38095
G1 X-61.982 Y-23.183 E19.40808
G1 X-62.388 Y-22.424 E19.43364
G1 X-62.711 Y-22.577 F5400.000
G1 F900
G1 X-63.246 Y-21.925 E19.45867
G1 X-63.898 Y-21.390 E19.48371
G1 X-64.641 Y-20.993 E19.50874
G1 X-65.448 Y-20.748 E19.53377
G1 X-66.287 Y-20.665 E19.55881
G1 X-67.126 Y-20.748 E19.58384
G1 X-67.933 Y-20.993 E19.60888
G1 X-68.677 Y-21.390 E19.63391
G1 X-69.328 Y-21.925 E19.65894
G1 X-69.863 Y-22.577 E19.68398
G1 X-70.261 Y-23.320 E19.70901
G1 X-70.506 Y-24.127 E19.73405
G1 X-70.588 Y-24.966 E19.75908
G1 X-70.506 Y-25.805 E19.78411
G1 X-70.261 Y-26.612 E19.80915
G1 X-69.863 Y-27.356 E19.83418
G1 X-69.328 Y-28.007 E19.85921
G1 X-68.677 Y-28.542 E19.88425
G1 X-67.933 Y-28.940 E19.90928
G1 X-67.126 Y-29.184 E19.93432
G1 X-66.302 Y-29.266 E19.95891
G1 X-65.448 Y-29.185 E19.98437
G1 X-64.641 Y-28.940 E20.00941
G1 X-63.898 Y-28.542 E20.03444
G1 X-63.246 Y-28.007 E20.05948
G1 X-62.711 Y-27.356 E20.08451
G1 X-62.314 Y-26.612 E20.10955
G1 X-62.053 Y-25.753 E20.13618
G1 X-61.986 Y-24.965 E20.15969
G1 X-62.069 Y-24.127 E20.18468
G1 X-62.314 Y-23.320 E20.20971
G1 X-62.686 Y-22.623 E20.23319
G1 X-62.556 Y-22.263 F5400.000
G1 X-59.668 Y-28.905 F5400.000
G1 F900
G1 X-60.298 Y-29.422 E20.25740
G1 X-60.815 Y-30.052 E20.28161
G1 X-61.200 Y-30.772 E20.30582
G1 X-61.437 Y-31.552 E20.33004
G1 X-61.516 Y-32.363 E20.35425
G1 X-61.437 Y-33.175 E20.37846
G1 X-61.200 Y-33.955 E20.40267
G1 X-60.815 Y-34.674 E20.42688
G1 X-60.298 Y-35.305 E20.45110
G1 X-59.668 Y-35.822 E20.47531
G1 X-58.949 Y-36.207 E20.49952
G1 X-58.168 Y-36.443 E20.52373
G1 X-57.370 Y-36.522 E20.54753
G1 X-56.546 Y-36.444 E20.57212
G1 X-55.765 Y-36.207 E20.59636
G1 X-55.046 Y-35.822 E20.62057
G1 X-54.415 Y-35.305 E20.64478
G1 X-53.898 Y-34.674 E20.66900
G1 X-53.514 Y-33.955 E20.69321
G1 X-53.277 Y-33.175 E20.71742
G1 X-53.197 Y-32.363 E20.74163
G1 X-53.277 Y-31.552 E20.76585
G1 X-53.514 Y-30.772 E20.79006
G1 X-53.898 Y-30.052 E20.81427
G1 X-54.415 Y-29.422 E20.83848
G1 X-55.046 Y-28.905 E20.86269
G1 X-55.765 Y-28.520 E20.88691
G1 X-56.545 Y-28.284 E20.91112
G1 X-57.357 Y-28.204 E20.93533
G1 X-58.168 Y-28.284 E20.95954
G1 X-58.949 Y-28.520 E20.98375
G1 X-59.621 Y-28.880 E21.00641
G1 X-59.468 Y-29.203 F5400.000
G1 F900
G1 X-60.044 Y-29.676 E21.02853
G1 X-60.517 Y-30.252 E21.05065
G1 X-60.868 Y-30.909 E21.07278
G1 X-61.085 Y-31.622 E21.09490
G1 X-61.158 Y-32.363 E21.11702
G1 X-61.085 Y-33.105 E21.13915
G1 X-60.868 Y-33.818 E21.16127
G1 X-60.517 Y-34.475 E21.18339
G1 X-60.044 Y-35.051 E21.20552
G1 X-59.468 Y-35.524 E21.22764
G1 X-58.811 Y-35.875 E21.24977
G1 X-58.098 Y-36.091 E21.27189
G1 X-57.370 Y-36.163 E21.29362
G1 X-56.615 Y-36.091 E21.31612
G1 X-55.902 Y-35.875 E21.33825
G1 X-55.245 Y-35.524 E21.36038
G1 X-54.669 Y-35.051 E21.38250
G1 X-54.196 Y-34.475 E21.40462
G1 X-53.845 Y-33.818 E21.42675
G1 X-53.629 Y-33.105 E21.44887
G1 X-53.556 Y-32.363 E21.47099
G1 X-53.629 Y-31.622 E21.49312
G1 X-53.845 Y-30.909 E21.51524
G1 X-54.196 Y-30.252 E21.53736
G1 X-54.669 Y-29.676 E21.55949
G1 X-55.245 Y-29.203 E21.58161
G1 X-55.902 Y-28.852 E21.60374
G1 X-56.615 Y-28.635 E21.62586
G1 X-57.357 Y-28.562 E21.64798
G1 X-58.098 Y-28.635 E21.67011
G1 X-58.811 Y-28.852 E21.69223
G1 X-59.422 Y-29.178 E21.71279
G1 X-59.782 Y-29.048 F5400.000
G1 X-59.915 Y-28.535 F5400.000
G1 X-59.915 Y-28.535 F5400.000
G1 X-60.406 Y-27.616 F5400.000
G1 X-59.648 Y-27.235 F5400.000
G1 X-59.605 Y-27.200 F5400.000
G1 X-59.433 Y-27.074 F5400.000
G1 X-58.723 Y-26.608 F5400.000
G1 X-58.291 Y-25.846 F5400.000
G1 X-58.127 Y-25.650 F5400.000
G1 X-58.127 Y-25.641 F5400.000
G1 X-58.127 Y-25.641 F5400.000
G1 X-58.256 Y-24.040 F5400.000
G1 X-58.251 Y-24.020 F5400.000
G1 X-50.582 Y-15.000 F5400.000
G1 X-49.303 Y-13.499 F5400.000
G1 X-49.235 Y-13.470 F5400.000
G1 X-47.789 Y-13.356 F5400.000
G1 X-47.177 Y-12.629 F5400.000
G1 X-46.343 Y-12.006 F5400.000
G1 X-33.950 Y-6.270 F5400.000
G1 X-24.485 Y6.931 F5400.000
G1 X-20.742 Y10.280 F5400.000
G1 X-19.591 Y9.583 F5400.000
G1 X-14.642 Y8.090 F5400.000
G1 X0.477 Y8.104 F5400.000
G1 X2.877 Y7.757 F5400.000
G1 X2.507 Y4.631 F5400.000
G1 X1.903 Y2.830 F5400.000
G1 X1.319 Y1.984 F5400.000
G1 X-15.868 Y-10.197 F5400.000
G1 X-16.432 Y-11.014 F5400.000
G1 X-16.669 Y-11.724 F5400.000
G1 X-15.737 Y-12.405 F5400.000
G1 X-15.034 Y-12.662 F5400.000
G1 X17.681 Y-12.645 F5400.000
G1 X18.655 Y-12.151 F5400.000
G1 X19.470 Y-11.324 F5400.000
G1 X21.011 Y-11.077 F5400.000
G1 X22.179 Y-10.719 F5400.000
G1 X23.029 Y-10.966 F5400.000
G1 X24.902 Y-11.321 F5400.000
G1 X25.734 Y-12.156 F5400.000
G1 X26.700 Y-12.640 F5400.000
G1 X33.005 Y-12.637 F5400.000
G1 X33.968 Y-12.154 F5400.000
G1 X34.597 Y-11.523 F5400.000
G1 X35.219 Y-12.149 F5400.000
G1 X36.186 Y-12.155 F5400.000
G1 X36.632 Y-11.712 F5400.000
G1 F900
G1 X47.287 Y-11.707 E22.02915
G1 X39.614 Y-1.670 E22.40427
G1 X36.698 Y-1.670 E22.49086
G1 X36.632 Y-11.660 E22.78746
G1 X36.992 Y-11.355 F5400.000
G1 F900
G1 X46.565 Y-11.350 E23.07171
G1 X39.437 Y-2.027 E23.42015
G1 X37.052 Y-2.027 E23.49096
G1 X36.992 Y-11.303 E23.76636
G1 X36.991 Y-11.705 F5400.000
G1 X36.698 Y0.603 F5400.000
G1 F900
G1 X38.053 Y0.500 E23.80669
