; generated by Slic3r 1.3.0-dev on 2016-01-29 at 15:44:12

; external perimeters extrusion width = 0.35mm
; perimeters extrusion width = 0.48mm
; infill extrusion width = 0.48mm
; solid infill extrusion width = 0.48mm
; top infill extrusion width = 0.48mm

M107
G28
G92 X0 Y0 Z0 E0
G1 F5000 Y30 X30
G1 X220
G1 F100 E10

G28
G92 X0 Y0 Z0
G1 F4000 X101 Y127
G92 X0 Y0 Z0 E0
G21 ; set units to millimeters
G90 ; use absolute coordinates
M82 ; use absolute distances for extrusion
G92 E0
G1 E-0.70000 F1500.00000
G92 E0
G1 Z0.200 F5400.000
G1 Z0.400 F5400.000
G1 X-38.668 Y-10.772 F5400.000
G1 Z0.200 F5400.000
G1 E0.70000 F1500.00000
G1 F1800
G1 X26.341 Y-75.950 E3.43327
G1 X26.714 Y-76.289 E3.44824
G1 X27.358 Y-76.817 E3.47298
G1 X28.185 Y-77.369 E3.50250
G1 X28.920 Y-77.762 E3.52723
G1 X29.838 Y-78.143 E3.55675
G1 X30.636 Y-78.385 E3.58150
G1 X31.610 Y-78.578 E3.61101
G1 X32.440 Y-78.660 E3.63575
G1 X33.434 Y-78.660 E3.66526
G1 X34.263 Y-78.578 E3.69001
G1 X35.238 Y-78.385 E3.71951
G1 X36.035 Y-78.143 E3.74425
G1 X36.954 Y-77.762 E3.77377
G1 X37.689 Y-77.369 E3.79851
G1 X38.515 Y-76.817 E3.82803
G1 X39.159 Y-76.288 E3.85278
G1 X39.862 Y-75.586 E3.88228
G1 X40.390 Y-74.942 E3.90701
G1 X40.943 Y-74.115 E3.93653
G1 X41.336 Y-73.380 E3.96128
G1 X41.716 Y-72.462 E3.99079
G1 X41.958 Y-71.665 E4.01552
G1 X42.152 Y-70.690 E4.04504
G1 X42.233 Y-69.860 E4.06978
G1 X42.233 Y-68.866 E4.09930
G1 X42.120 Y-67.783 E4.13163
G1 X20.835 Y74.364 E8.39923
G1 X20.152 Y76.249 E8.45873
G1 X18.793 Y77.721 E8.51824
G1 X16.969 Y78.553 E8.57775
G1 X14.966 Y78.612 E8.63726
G1 X12.406 Y77.363 E8.72183
G1 X-26.786 Y41.687 E10.29540
G1 X-27.650 Y40.661 E10.33525
G1 X-28.133 Y39.872 E10.36269
G1 X-28.587 Y39.047 E10.39067
G1 X-28.997 Y38.198 E10.41867
G1 X-29.348 Y37.316 E10.44684
G1 X-41.814 Y-1.098 E11.64596
G1 X-42.006 Y-1.746 E11.66602
G1 X-42.189 Y-2.704 E11.69499
G1 X-42.236 Y-3.207 E11.70998
G1 X-42.211 Y-4.362 E11.74429
G1 X-42.146 Y-4.839 E11.75857
G1 X-41.937 Y-5.744 E11.78615
G1 X-41.776 Y-6.228 E11.80131
G1 X-41.518 Y-6.862 E11.82162
G1 X-41.282 Y-7.346 E11.83761
G1 X-41.037 Y-7.790 E11.85267
G1 X-40.530 Y-8.582 E11.88059
G1 X-40.199 Y-9.035 E11.89724
G1 X-39.668 Y-9.694 E11.92237
G1 X-39.166 Y-10.257 E11.94477
G1 X-38.705 Y-10.734 E11.96447
G1 X-38.415 Y-10.519 F5400.000
G1 F1800
G1 X26.594 Y-75.698 E14.69774
G1 X26.941 Y-76.013 E14.71166
G1 X27.585 Y-76.541 E14.73640
G1 X28.353 Y-77.055 E14.76384
G1 X29.088 Y-77.447 E14.78857
G1 X29.942 Y-77.801 E14.81601
G1 X30.739 Y-78.043 E14.84076
G1 X31.645 Y-78.223 E14.86819
G1 X32.475 Y-78.305 E14.89293
G1 X33.399 Y-78.305 E14.92037
G1 X34.228 Y-78.223 E14.94511
G1 X35.134 Y-78.043 E14.97254
G1 X35.931 Y-77.801 E14.99728
G1 X36.785 Y-77.447 E15.02472
G1 X37.520 Y-77.054 E15.04946
G1 X38.289 Y-76.541 E15.07690
G1 X38.933 Y-76.012 E15.10164
G1 X39.586 Y-75.359 E15.12907
G1 X40.114 Y-74.715 E15.15380
G1 X40.628 Y-73.947 E15.18124
G1 X41.021 Y-73.212 E15.20599
G1 X41.374 Y-72.358 E15.23342
G1 X41.616 Y-71.561 E15.25816
G1 X41.796 Y-70.655 E15.28560
G1 X41.878 Y-69.825 E15.31034
G1 X41.878 Y-68.901 E15.33777
G1 X41.767 Y-67.836 E15.36957
G1 X20.482 Y74.311 E19.63717
G1 X19.810 Y76.123 E19.69452
G1 X18.469 Y77.513 E19.75187
G1 X16.683 Y78.248 E19.80923
G1 X14.751 Y78.205 E19.86658
G1 X12.646 Y77.099 E19.93718
G1 X-26.545 Y41.423 E21.51075
G1 X-27.351 Y40.466 E21.54790
G1 X-27.823 Y39.695 E21.57474
G1 X-28.269 Y38.886 E21.60217
G1 X-28.673 Y38.048 E21.62979
G1 X-29.008 Y37.204 E21.65675
G1 X-41.474 Y-1.208 E22.85583
G1 X-41.663 Y-1.846 E22.87558
G1 X-41.834 Y-2.737 E22.90252
G1 X-41.881 Y-3.240 E22.91751
G1 X-41.857 Y-4.314 E22.94940
G1 X-41.792 Y-4.790 E22.96368
G1 X-41.598 Y-5.632 E22.98932
G1 X-41.437 Y-6.116 E23.00448
G1 X-41.197 Y-6.705 E23.02336
G1 X-40.961 Y-7.189 E23.03934
G1 X-40.733 Y-7.602 E23.05335
G1 X-40.241 Y-8.371 E23.08046
G1 X-39.911 Y-8.824 E23.09712
G1 X-39.392 Y-9.467 E23.12162
G1 X-38.901 Y-10.017 E23.14353
G1 X-38.452 Y-10.482 E23.16271
G1 X-38.163 Y-10.267 F5400.000
G1 F1800
G1 X26.846 Y-75.445 E25.89598
G1 X27.167 Y-75.737 E25.90885
G1 X27.811 Y-76.265 E25.93358
G1 X28.522 Y-76.740 E25.95895
G1 X29.256 Y-77.132 E25.98368
G1 X30.045 Y-77.459 E26.00904
G1 X30.843 Y-77.701 E26.03379
G1 X31.680 Y-77.868 E26.05914
G1 X32.510 Y-77.949 E26.08389
G1 X33.364 Y-77.949 E26.10924
G1 X34.193 Y-77.868 E26.13398
G1 X35.030 Y-77.701 E26.15933
G1 X35.828 Y-77.459 E26.18407
G1 X36.617 Y-77.132 E26.20943
G1 X37.352 Y-76.740 E26.23418
G1 X38.062 Y-76.265 E26.25954
G1 X38.706 Y-75.736 E26.28428
G1 X39.310 Y-75.133 E26.30963
G1 X39.838 Y-74.489 E26.33436
G1 X40.313 Y-73.778 E26.35973
G1 X40.706 Y-73.043 E26.38447
G1 X41.033 Y-72.254 E26.40982
G1 X41.274 Y-71.457 E26.43456
G1 X41.441 Y-70.620 E26.45992
G1 X41.523 Y-69.790 E26.48466
G1 X41.523 Y-68.936 E26.51002
G1 X41.414 Y-67.889 E26.54128
G1 X20.129 Y74.259 E30.80888
G1 X19.469 Y75.994 E30.86399
G1 X18.147 Y77.297 E30.91911
G1 X16.403 Y77.931 E30.97422
G1 X14.552 Y77.782 E31.02934
G1 X12.887 Y76.835 E31.08622
G1 X-26.305 Y41.159 E32.65979
G1 X-27.051 Y40.271 E32.69424
G1 X-27.513 Y39.518 E32.72047
G1 X-27.950 Y38.725 E32.74736
G1 X-28.348 Y37.899 E32.77458
G1 X-28.669 Y37.093 E32.80035
G1 X-41.135 Y-1.319 E33.99938
G1 X-41.321 Y-1.947 E34.01884
G1 X-41.478 Y-2.770 E34.04373
G1 X-41.525 Y-3.273 E34.05872
G1 X-41.504 Y-4.266 E34.08820
G1 X-41.439 Y-4.742 E34.10247
G1 X-41.259 Y-5.520 E34.12617
G1 X-41.098 Y-6.004 E34.14133
G1 X-40.877 Y-6.549 E34.15878
G1 X-40.640 Y-7.032 E34.17476
G1 X-40.430 Y-7.414 E34.18771
G1 X-39.953 Y-8.161 E34.21402
G1 X-39.622 Y-8.614 E34.23067
G1 X-39.117 Y-9.240 E34.25456
G1 X-38.636 Y-9.778 E34.27597
G1 X-38.199 Y-10.230 E34.29464
G1 E33.59464 F1500.00000
G92 E0
G1 Z0.400 F5400.000
G1 X29.699 Y-70.007 F5400.000
G1 Z0.200 F5400.000
G1 E0.70000 F1500.00000
G1 F900
G1 X29.887 Y-70.627 E0.71921
G1 X30.192 Y-71.197 E0.73843
G1 X30.603 Y-71.697 E0.75764
G1 X31.103 Y-72.108 E0.77685
G1 X31.673 Y-72.413 E0.79607
G1 X32.293 Y-72.601 E0.81528
G1 X32.916 Y-72.662 E0.83387
G1 X33.580 Y-72.601 E0.85368
G1 X34.200 Y-72.413 E0.87291
G1 X34.771 Y-72.108 E0.89212
G1 X35.271 Y-71.697 E0.91133
G1 X35.681 Y-71.197 E0.93055
G1 X35.986 Y-70.627 E0.94976
G1 X36.188 Y-69.961 E0.97042
G1 X36.237 Y-69.362 E0.98826
G1 X36.174 Y-68.719 E1.00743
G1 X35.986 Y-68.100 E1.02664
G1 X35.681 Y-67.529 E1.04585
G1 X35.271 Y-67.029 E1.06507
G1 X34.771 Y-66.619 E1.08428
G1 X34.200 Y-66.314 E1.10349
G1 X33.581 Y-66.126 E1.12271
G1 X32.937 Y-66.062 E1.14192
G1 X32.293 Y-66.126 E1.16113
G1 X31.673 Y-66.314 E1.18035
G1 X31.103 Y-66.619 E1.19956
G1 X30.603 Y-67.029 E1.21877
G1 X30.192 Y-67.529 E1.23799
G1 X29.887 Y-68.100 E1.25720
G1 X29.699 Y-68.719 E1.27641
G1 X29.636 Y-69.363 E1.29563
G1 X29.694 Y-69.955 E1.31328
G1 X29.436 Y-70.238 F5400.000
G1 X29.759 Y-66.795 F5400.000
G1 X29.759 Y-66.795 F5400.000
G1 X29.755 Y-66.232 F5400.000
G1 X29.759 Y-66.126 F5400.000
G1 X29.768 Y-66.032 F5400.000
G1 X14.670 Y-48.228 F5400.000
G1 X14.484 Y-47.905 F5400.000
G1 X13.549 Y-45.361 F5400.000
G1 X13.445 Y-45.110 F5400.000
G1 X7.993 Y-33.331 F5400.000
G1 X-5.209 Y-23.865 F5400.000
G1 X-8.557 Y-20.122 F5400.000
G1 X-7.861 Y-18.971 F5400.000
G1 X-6.367 Y-14.023 F5400.000
G1 X-6.381 Y1.096 F5400.000
G1 X-6.034 Y3.497 F5400.000
G1 X-2.909 Y3.127 F5400.000
G1 X-1.107 Y2.523 F5400.000
G1 X-0.261 Y1.939 F5400.000
G1 X10.833 Y-13.716 F5400.000
G1 X10.833 Y-13.716 F5400.000
G1 X11.919 Y-15.249 F5400.000
G1 X12.440 Y-14.880 F5400.000
G1 X12.615 Y-14.360 F5400.000
G1 F900
G1 X13.461 Y-14.091 E1.33965
G1 X13.445 Y17.851 E2.28806
G1 X11.430 Y17.823 E2.34790
G1 X10.534 Y20.552 E2.43318
G1 X-6.570 Y20.677 E2.94103
G1 X-7.484 Y17.807 E3.03045
G1 X-8.800 Y17.807 E3.06952
G1 X-8.737 Y27.729 E3.36409
G1 X-7.693 Y27.755 E3.39511
G1 X-6.509 Y24.880 E3.48743
G1 X10.380 Y24.880 E3.98890
G1 X11.517 Y27.773 E4.08118
G1 X13.440 Y27.764 E4.13827
G1 X13.437 Y33.180 E4.29909
G1 X-6.781 Y33.121 E4.89940
G1 X-6.842 Y34.908 E4.95247
G1 X-6.871 Y37.239 E5.02169
G1 X-6.830 Y39.846 E5.09912
G1 X-6.768 Y41.127 E5.13718
G1 X-6.673 Y42.331 E5.17305
G1 X-6.538 Y43.404 E5.20516
G1 X-6.363 Y44.289 E5.23195
G1 X-6.183 Y44.836 E5.24904
G1 X-6.020 Y45.223 E5.26151
G1 X-5.799 Y45.664 E5.27615
G1 X-5.521 Y46.128 E5.29221
G1 X-5.184 Y46.590 E5.30920
G1 X-4.787 Y47.029 E5.32675
G1 X-4.331 Y47.421 E5.34464
G1 X-3.811 Y47.749 E5.36288
G1 X-3.224 Y47.995 E5.38178
G1 X-2.559 Y48.141 E5.40199
G1 X-1.811 Y48.166 E5.42421
G1 X-1.241 Y48.072 E5.44136
G1 X-0.697 Y47.864 E5.45866
G1 X-0.173 Y47.556 E5.47671
G1 X0.324 Y47.169 E5.49540
G1 X0.784 Y46.727 E5.51434
G1 X1.199 Y46.256 E5.53298
G1 X1.560 Y45.788 E5.55052
G1 X2.116 Y44.944 E5.58056
G1 X2.773 Y43.753 E5.62095
G1 X13.427 Y52.561 E6.03139
G1 X13.419 Y67.912 E6.48718
G1 X-22.209 Y34.891 E7.92950
G1 X12.584 Y-14.317 E9.71888
G1 X12.755 Y-13.941 F5400.000
G1 F720
G1 X13.104 Y-13.830 E9.72974
G1 X13.088 Y17.489 E10.65964
G1 X11.172 Y17.462 E10.71653
G1 X10.275 Y20.197 E10.80198
G1 X-6.310 Y20.318 E11.29440
G1 X-7.223 Y17.450 E11.38375
G1 X-9.193 Y17.450 E11.44227
G1 X-9.221 Y17.632 E11.44773
G1 X-9.158 Y17.652 E11.44971
G1 X-9.092 Y28.077 E11.75924
G1 X-7.456 Y28.119 E11.80782
G1 X-6.270 Y25.237 E11.90034
G1 X10.137 Y25.237 E12.38749
G1 X11.274 Y28.131 E12.47979
G1 X13.082 Y28.123 E12.53349
G1 X13.080 Y32.822 E12.67303
G1 X-7.126 Y32.763 E13.27299
G1 X-7.199 Y34.899 E13.33645
G1 X-7.228 Y37.239 E13.40593
G1 X-7.187 Y39.858 E13.48368
G1 X-7.125 Y41.149 E13.52208
G1 X-7.028 Y42.367 E13.55836
G1 X-6.891 Y43.461 E13.59109
G1 X-6.709 Y44.380 E13.61890
G1 X-6.518 Y44.962 E13.63707
G1 X-6.344 Y45.373 E13.65032
G1 X-6.112 Y45.836 E13.66571
G1 X-5.819 Y46.325 E13.68264
G1 X-5.461 Y46.816 E13.70066
G1 X-5.037 Y47.285 E13.71944
G1 X-4.543 Y47.709 E13.73878
G1 X-3.976 Y48.067 E13.75869
G1 X-3.332 Y48.337 E13.77943
G1 X-2.604 Y48.497 E13.80156
G1 X-1.787 Y48.524 E13.82581
G1 X-1.147 Y48.418 E13.84509
G1 X-0.542 Y48.187 E13.86433
G1 X0.028 Y47.852 E13.88395
G1 X0.558 Y47.440 E13.90389
G1 X1.042 Y46.974 E13.92382
G1 X1.475 Y46.483 E13.94325
G1 X1.851 Y45.996 E13.96153
G1 X2.422 Y45.128 E13.99238
G1 X2.878 Y44.302 E14.02039
G1 X13.070 Y52.729 E14.41305
G1 X13.063 Y67.095 E14.83958
G1 X-21.736 Y34.842 E16.24834
G1 X12.725 Y-13.898 E18.02068
G1 X12.895 Y-14.262 F5400.000
G1 X12.440 Y-14.880 F5400.000
G1 X12.440 Y-14.880 F5400.000
G1 X11.919 Y-15.249 F5400.000
G1 X10.833 Y-13.716 F5400.000
G1 X10.833 Y-13.716 F5400.000
G1 X-0.261 Y1.939 F5400.000
G1 X-1.107 Y2.523 F5400.000
G1 X-2.909 Y3.127 F5400.000
G1 X-6.034 Y3.497 F5400.000
G1 X-6.381 Y1.096 F5400.000
G1 X-6.367 Y-14.023 F5400.000
G1 X-10.455 Y-14.036 F5400.000
G1 X-10.901 Y-13.268 F5400.000
G1 F900
G1 X-10.958 Y5.265 E18.57097
G1 X-27.557 Y-3.686 E19.13091
G1 X-10.946 Y-13.242 E19.69990
G1 X-11.260 Y-12.650 F5400.000
G1 F720
G1 X-11.313 Y4.668 E20.21410
G1 X-26.823 Y-3.696 E20.73731
G1 X-11.305 Y-12.624 E21.26888
G1 X-10.915 Y-12.710 F5400.000
G1 X-12.383 Y-12.927 F5400.000
G1 X-12.383 Y-12.927 F5400.000
G1 X-14.740 Y-17.025 F5400.000
G1 X-12.915 Y-18.310 F5400.000
G1 X-10.455 Y-14.036 F5400.000
G1 X-6.367 Y-14.023 F5400.000
G1 X-6.381 Y1.096 F5400.000
G1 X-6.034 Y3.497 F5400.000
G1 X-2.909 Y3.127 F5400.000
G1 X-1.107 Y2.523 F5400.000
G1 X-0.261 Y1.939 F5400.000
G1 X10.833 Y-13.716 F5400.000
G1 X10.833 Y-13.716 F5400.000
G1 X11.919 Y-15.249 F5400.000
G1 X12.737 Y-15.813 F5400.000
G1 X13.446 Y-16.050 F5400.000
G1 X14.128 Y-15.117 F5400.000
G1 X14.384 Y-14.415 F5400.000
G1 X14.368 Y18.301 F5400.000
G1 X13.874 Y19.274 F5400.000
G1 X13.047 Y20.089 F5400.000
G1 X12.800 Y21.631 F5400.000
G1 X12.442 Y22.799 F5400.000
G1 X12.689 Y23.649 F5400.000
G1 X13.043 Y25.522 F5400.000
G1 X13.878 Y26.354 F5400.000
G1 X14.363 Y27.319 F5400.000
G1 X14.360 Y33.625 F5400.000
G1 X13.877 Y34.587 F5400.000
G1 X13.246 Y35.216 F5400.000
G1 X12.563 Y35.218 F5400.000
G1 X2.939 Y35.235 F5400.000
G1 X2.231 Y35.313 F5400.000
G1 X1.475 Y35.229 F5400.000
G1 X0.508 Y35.234 F5400.000
G1 X0.508 Y35.234 F5400.000
G1 X-4.716 Y35.260 F5400.000
G1 X-4.955 Y35.498 F5400.000
G1 X-4.937 Y36.952 F5400.000
G1 X-4.554 Y37.390 F5400.000
G1 F900
G1 X1.119 Y37.318 E21.43734
G1 X1.222 Y38.672 E21.47767
G1 X1.234 Y39.242 E21.49458
G1 X1.217 Y39.887 E21.51376
G1 X1.155 Y40.582 E21.53445
G1 X1.032 Y41.293 E21.55588
G1 X0.827 Y41.991 E21.57749
G1 X0.513 Y42.646 E21.59906
G1 X0.054 Y43.216 E21.62080
G1 X-0.579 Y43.632 E21.64326
G1 X-1.353 Y43.807 E21.66684
G1 X-2.059 Y43.769 E21.68781
G1 X-2.668 Y43.581 E21.70676
G1 X-3.184 Y43.263 E21.72476
G1 X-3.599 Y42.848 E21.74218
G1 X-3.920 Y42.369 E21.75928
G1 X-4.162 Y41.851 E21.77625
G1 X-4.340 Y41.312 E21.79312
G1 X-4.465 Y40.765 E21.80978
G1 X-4.548 Y40.225 E21.82601
G1 X-4.598 Y39.700 E21.84165
G1 X-4.623 Y38.789 E21.86872
G1 X-4.557 Y37.443 E21.90873
G1 X-4.214 Y37.743 F5400.000
G1 F900
G1 X0.789 Y37.679 E22.05728
G1 X0.866 Y38.690 E22.08737
G1 X0.877 Y39.241 E22.10373
G1 X0.860 Y39.867 E22.12233
G1 X0.801 Y40.535 E22.14226
G1 X0.684 Y41.212 E22.16265
G1 X0.493 Y41.863 E22.18279
G1 X0.209 Y42.454 E22.20227
G1 X-0.189 Y42.949 E22.22111
G1 X-0.721 Y43.298 E22.24000
G1 X-1.384 Y43.448 E22.26017
G1 X-1.995 Y43.415 E22.27836
G1 X-2.519 Y43.253 E22.29465
G1 X-2.961 Y42.981 E22.31006
G1 X-3.322 Y42.620 E22.32520
G1 X-3.608 Y42.193 E22.34046
G1 X-3.829 Y41.719 E22.35598
G1 X-3.995 Y41.216 E22.37173
G1 X-4.114 Y40.698 E22.38751
G1 X-4.194 Y40.181 E22.40304
G1 X-4.241 Y39.678 E22.41802
G1 X-4.266 Y38.793 E22.44433
G1 X-4.217 Y37.796 E22.47397
G1 X-4.215 Y37.393 F5400.000
G1 X3.393 Y37.317 F5400.000
G1 F900
G1 X13.435 Y37.252 E22.77213
G1 X13.430 Y47.907 E23.08849
G1 X3.393 Y40.233 E23.46360
G1 X3.393 Y37.370 E23.54863
G1 X3.750 Y37.672 F5400.000
G1 F900
G1 X13.078 Y37.611 E23.82558
G1 X13.073 Y47.184 E24.10983
G1 X3.750 Y40.057 E24.45826
G1 X3.750 Y37.724 E24.52752
G1 X3.659 Y37.334 F5400.000
G1 X2.950 Y36.877 F5400.000
G1 X2.950 Y36.877 F5400.000
G1 X2.939 Y35.235 F5400.000
G1 X12.563 Y35.218 F5400.000
G1 X13.246 Y35.216 F5400.000
G1 X13.877 Y34.587 F5400.000
G1 X14.360 Y33.625 F5400.000
G1 X14.363 Y27.319 F5400.000
G1 X13.878 Y26.354 F5400.000
G1 X13.043 Y25.522 F5400.000
G1 X12.689 Y23.649 F5400.000
G1 X12.442 Y22.799 F5400.000
G1 X12.800 Y21.631 F5400.000
G1 X13.047 Y20.089 F5400.000
G1 X13.874 Y19.274 F5400.000
G1 X14.368 Y18.301 F5400.000
G1 X14.384 Y-14.415 F5400.000
G1 X14.128 Y-15.117 F5400.000
G1 X13.446 Y-16.050 F5400.000
G1 X12.737 Y-15.813 F5400.000
G1 X11.919 Y-15.249 F5400.000
G1 X10.833 Y-13.716 F5400.000
G1 X10.833 Y-13.716 F5400.000
G1 X-0.261 Y1.939 F5400.000
G1 X-1.107 Y2.523 F5400.000
G1 X-2.909 Y3.127 F5400.000
G1 X-6.034 Y3.497 F5400.000
G1 X-6.840 Y6.018 F5400.000
G1 X-11.981 Y10.867 F5400.000
G1 X-11.330 Y15.517 F5400.000
G1 X-11.327 Y15.541 F5400.000
G1 X-11.179 Y16.596 F5400.000
G1 X-11.876 Y17.464 F5400.000
G1 X-12.480 Y17.547 F5400.000
G1 F900
G1 X-34.166 Y0.102 E25.35388
G1 X-34.675 Y-0.379 E25.37469
G1 X-35.348 Y-1.105 E25.40407
G1 X-35.682 Y-1.520 E25.41990
G1 X-35.996 Y-1.962 E25.43599
G1 X-36.264 Y-2.414 E25.45158
G1 X-36.467 Y-2.859 E25.46610
G1 X-36.590 Y-3.279 E25.47910
G1 X-36.626 Y-3.664 E25.49058
G1 X-36.577 Y-4.026 E25.50143
G1 X-36.444 Y-4.426 E25.51395
G1 X-36.237 Y-4.851 E25.52798
G1 X-35.970 Y-5.282 E25.54305
G1 X-35.661 Y-5.705 E25.55859
G1 X-35.335 Y-6.102 E25.57386
G1 X-34.683 Y-6.797 E25.60213
G1 X-34.188 Y-7.263 E25.62233
G1 X12.092 Y-46.645 E27.42660
G1 X29.793 Y-67.519 E28.23922
G1 X29.894 Y-67.330 E28.24559
G1 X30.349 Y-66.775 E28.26690
G1 X30.903 Y-66.320 E28.28820
G1 X31.141 Y-66.193 E28.29619
G1 X15.494 Y-47.741 E29.01451
G1 X15.472 Y-29.083 E29.56849
G1 X-1.842 Y-18.727 E30.16751
G1 X-1.818 Y0.767 E30.74632
G1 X-0.973 Y1.036 E30.77264
G1 X15.162 Y-21.681 E31.59997
G1 X15.311 Y-21.634 E31.60462
G1 X15.263 Y72.353 E34.39521
G1 X-22.937 Y37.580 E35.92896
G1 X-23.405 Y36.801 E35.95596
G1 X-23.728 Y36.183 E35.97665
G1 X-24.010 Y35.531 E35.99775
G1 X-24.104 Y35.244 E36.00673
G1 X-24.161 Y34.994 E36.01433
G1 X-24.177 Y34.804 E36.01999
G1 X-24.159 Y34.636 E36.02502
G1 X-24.107 Y34.418 E36.03167
G1 X-24.025 Y34.175 E36.03929
G1 X-23.786 Y33.630 E36.05695
G1 X-23.516 Y33.125 E36.07395
