; generated by Slic3r 1.3.0-dev on 2016-01-29 at 15:11:40

; external perimeters extrusion width = 0.35mm
; perimeters extrusion width = 0.59mm
; infill extrusion width = 0.98mm
; solid infill extrusion width = 0.59mm
; top infill extrusion width = 0.59mm

M107
G28
G92 X0 Y0 Z0 E0
G1 F5000 Y30 X30
G1 X220
G1 F100 E10

G28
G92 X0 Y0 Z0
G1 F4000 X101 Y127
G92 X0 Y0 Z0 E0
G21 ; set units to millimeters
G90 ; use absolute coordinates
M82 ; use absolute distances for extrusion
G92 E0
G1 E-0.70000 F1500.00000
G92 E0
G1 Z0.200 F5400.000
G1 Z0.400 F5400.000
G1 X-38.668 Y-10.772 F5400.000
G1 Z0.200 F5400.000
G1 E0.70000 F1500.00000
G1 F1800
G1 X26.341 Y-75.950 E3.43327
G1 X26.714 Y-76.289 E3.44824
G1 X27.358 Y-76.817 E3.47298
G1 X28.185 Y-77.369 E3.50250
G1 X28.920 Y-77.762 E3.52723
G1 X29.838 Y-78.143 E3.55675
G1 X30.636 Y-78.385 E3.58150
G1 X31.610 Y-78.578 E3.61101
G1 X32.440 Y-78.660 E3.63575
G1 X33.434 Y-78.660 E3.66526
G1 X34.263 Y-78.578 E3.69001
G1 X35.238 Y-78.385 E3.71951
G1 X36.035 Y-78.143 E3.74425
G1 X36.954 Y-77.762 E3.77377
G1 X37.689 Y-77.369 E3.79851
G1 X38.515 Y-76.817 E3.82803
G1 X39.159 Y-76.288 E3.85278
G1 X39.862 Y-75.586 E3.88228
G1 X40.390 Y-74.942 E3.90701
G1 X40.943 Y-74.115 E3.93653
G1 X41.336 Y-73.380 E3.96128
G1 X41.716 Y-72.462 E3.99079
G1 X41.958 Y-71.665 E4.01552
G1 X42.152 Y-70.690 E4.04504
G1 X42.233 Y-69.860 E4.06978
G1 X42.233 Y-68.866 E4.09930
G1 X42.120 Y-67.783 E4.13163
G1 X20.835 Y74.364 E8.39923
G1 X20.152 Y76.249 E8.45873
G1 X18.793 Y77.721 E8.51824
G1 X16.969 Y78.553 E8.57775
G1 X14.966 Y78.612 E8.63726
G1 X12.406 Y77.363 E8.72183
G1 X-26.786 Y41.687 E10.29540
G1 X-27.650 Y40.661 E10.33525
G1 X-28.133 Y39.872 E10.36269
G1 X-28.587 Y39.047 E10.39067
G1 X-28.997 Y38.198 E10.41867
G1 X-29.348 Y37.316 E10.44684
G1 X-41.814 Y-1.098 E11.64596
G1 X-42.006 Y-1.746 E11.66602
G1 X-42.189 Y-2.704 E11.69499
G1 X-42.236 Y-3.207 E11.70998
G1 X-42.211 Y-4.362 E11.74429
G1 X-42.146 Y-4.839 E11.75857
G1 X-41.937 Y-5.744 E11.78615
G1 X-41.776 Y-6.228 E11.80131
G1 X-41.518 Y-6.862 E11.82162
G1 X-41.282 Y-7.346 E11.83761
G1 X-41.037 Y-7.790 E11.85267
G1 X-40.530 Y-8.582 E11.88059
G1 X-40.199 Y-9.035 E11.89724
G1 X-39.668 Y-9.694 E11.92237
G1 X-39.166 Y-10.257 E11.94477
G1 X-38.705 Y-10.734 E11.96447
G1 X-38.415 Y-10.519 F5400.000
G1 F1800
G1 X26.594 Y-75.698 E14.69774
G1 X26.941 Y-76.013 E14.71166
G1 X27.585 Y-76.541 E14.73640
G1 X28.353 Y-77.055 E14.76384
G1 X29.088 Y-77.447 E14.78857
G1 X29.942 Y-77.801 E14.81601
G1 X30.739 Y-78.043 E14.84076
G1 X31.645 Y-78.223 E14.86819
G1 X32.475 Y-78.305 E14.89293
G1 X33.399 Y-78.305 E14.92037
G1 X34.228 Y-78.223 E14.94511
G1 X35.134 Y-78.043 E14.97254
G1 X35.931 Y-77.801 E14.99728
G1 X36.785 Y-77.447 E15.02472
G1 X37.520 Y-77.054 E15.04946
G1 X38.289 Y-76.541 E15.07690
G1 X38.933 Y-76.012 E15.10164
G1 X39.586 Y-75.359 E15.12907
G1 X40.114 Y-74.715 E15.15380
G1 X40.628 Y-73.947 E15.18124
G1 X41.021 Y-73.212 E15.20599
G1 X41.374 Y-72.358 E15.23342
G1 X41.616 Y-71.561 E15.25816
G1 X41.796 Y-70.655 E15.28560
G1 X41.878 Y-69.825 E15.31034
G1 X41.878 Y-68.901 E15.33777
G1 X41.767 Y-67.836 E15.36957
G1 X20.482 Y74.311 E19.63717
G1 X19.810 Y76.123 E19.69452
G1 X18.469 Y77.513 E19.75187
G1 X16.683 Y78.248 E19.80923
G1 X14.751 Y78.205 E19.86658
G1 X12.646 Y77.099 E19.93718
G1 X-26.545 Y41.423 E21.51075
G1 X-27.351 Y40.466 E21.54790
G1 X-27.823 Y39.695 E21.57474
G1 X-28.269 Y38.886 E21.60217
G1 X-28.673 Y38.048 E21.62979
G1 X-29.008 Y37.204 E21.65675
G1 X-41.474 Y-1.208 E22.85583
G1 X-41.663 Y-1.846 E22.87558
G1 X-41.834 Y-2.737 E22.90252
G1 X-41.881 Y-3.240 E22.91751
G1 X-41.857 Y-4.314 E22.94940
G1 X-41.792 Y-4.790 E22.96368
G1 X-41.598 Y-5.632 E22.98932
G1 X-41.437 Y-6.116 E23.00448
G1 X-41.197 Y-6.705 E23.02336
G1 X-40.961 Y-7.189 E23.03934
G1 X-40.733 Y-7.602 E23.05335
G1 X-40.241 Y-8.371 E23.08046
G1 X-39.911 Y-8.824 E23.09712
G1 X-39.392 Y-9.467 E23.12162
G1 X-38.901 Y-10.017 E23.14353
G1 X-38.452 Y-10.482 E23.16271
G1 X-38.163 Y-10.267 F5400.000
G1 F1800
G1 X26.846 Y-75.445 E25.89598
G1 X27.167 Y-75.737 E25.90885
G1 X27.811 Y-76.265 E25.93358
G1 X28.522 Y-76.740 E25.95895
G1 X29.256 Y-77.132 E25.98368
G1 X30.045 Y-77.459 E26.00904
G1 X30.843 Y-77.701 E26.03379
G1 X31.680 Y-77.868 E26.05914
G1 X32.510 Y-77.949 E26.08389
G1 X33.364 Y-77.949 E26.10924
G1 X34.193 Y-77.868 E26.13398
G1 X35.030 Y-77.701 E26.15933
G1 X35.828 Y-77.459 E26.18407
G1 X36.617 Y-77.132 E26.20943
G1 X37.352 Y-76.740 E26.23418
G1 X38.062 Y-76.265 E26.25954
G1 X38.706 Y-75.736 E26.28428
G1 X39.310 Y-75.133 E26.30963
G1 X39.838 Y-74.489 E26.33436
G1 X40.313 Y-73.778 E26.35973
G1 X40.706 Y-73.043 E26.38447
G1 X41.033 Y-72.254 E26.40982
G1 X41.274 Y-71.457 E26.43456
G1 X41.441 Y-70.620 E26.45992
G1 X41.523 Y-69.790 E26.48466
G1 X41.523 Y-68.936 E26.51002
G1 X41.414 Y-67.889 E26.54128
G1 X20.129 Y74.259 E30.80888
G1 X19.469 Y75.994 E30.86399
G1 X18.147 Y77.297 E30.91911
G1 X16.403 Y77.931 E30.97422
G1 X14.552 Y77.782 E31.02934
G1 X12.887 Y76.835 E31.08622
G1 X-26.305 Y41.159 E32.65979
G1 X-27.051 Y40.271 E32.69424
G1 X-27.513 Y39.518 E32.72047
G1 X-27.950 Y38.725 E32.74736
G1 X-28.348 Y37.899 E32.77458
G1 X-28.669 Y37.093 E32.80035
G1 X-41.135 Y-1.319 E33.99938
G1 X-41.321 Y-1.947 E34.01884
G1 X-41.478 Y-2.770 E34.04373
G1 X-41.525 Y-3.273 E34.05872
G1 X-41.504 Y-4.266 E34.08820
G1 X-41.439 Y-4.742 E34.10247
G1 X-41.259 Y-5.520 E34.12617
G1 X-41.098 Y-6.004 E34.14133
G1 X-40.877 Y-6.549 E34.15878
G1 X-40.640 Y-7.032 E34.17476
G1 X-40.430 Y-7.414 E34.18771
G1 X-39.953 Y-8.161 E34.21402
G1 X-39.622 Y-8.614 E34.23067
G1 X-39.117 Y-9.240 E34.25456
G1 X-38.636 Y-9.778 E34.27597
G1 X-38.199 Y-10.230 E34.29464
G1 E33.59464 F1500.00000
G92 E0
G1 Z0.400 F5400.000
G1 X29.699 Y-70.007 F5400.000
G1 Z0.200 F5400.000
G1 E0.70000 F1500.00000
G1 F900
G1 X29.887 Y-70.627 E0.71921
G1 X30.192 Y-71.197 E0.73843
G1 X30.602 Y-71.697 E0.75764
G1 X31.103 Y-72.108 E0.77685
G1 X31.673 Y-72.413 E0.79607
G1 X32.293 Y-72.601 E0.81528
G1 X32.916 Y-72.662 E0.83387
G1 X33.580 Y-72.601 E0.85368
G1 X34.200 Y-72.413 E0.87291
G1 X34.771 Y-72.108 E0.89212
G1 X35.271 Y-71.697 E0.91134
G1 X35.681 Y-71.197 E0.93055
G1 X35.986 Y-70.627 E0.94976
G1 X36.188 Y-69.961 E0.97042
G1 X36.237 Y-69.362 E0.98827
G1 X36.174 Y-68.719 E1.00743
G1 X35.986 Y-68.100 E1.02664
G1 X35.681 Y-67.529 E1.04586
G1 X35.271 Y-67.029 E1.06507
G1 X34.771 Y-66.619 E1.08428
G1 X34.200 Y-66.314 E1.10350
G1 X33.581 Y-66.126 E1.12271
G1 X32.937 Y-66.062 E1.14192
G1 X32.293 Y-66.126 E1.16114
G1 X31.673 Y-66.314 E1.18035
G1 X31.103 Y-66.619 E1.19956
G1 X30.602 Y-67.029 E1.21878
G1 X30.192 Y-67.529 E1.23799
G1 X29.887 Y-68.100 E1.25720
G1 X29.699 Y-68.719 E1.27642
G1 X29.636 Y-69.363 E1.29563
G1 X29.694 Y-69.955 E1.31329
G1 X29.436 Y-70.238 F5400.000
G1 X29.759 Y-66.795 F5400.000
G1 X29.759 Y-66.795 F5400.000
G1 X29.755 Y-66.232 F5400.000
G1 X29.759 Y-66.126 F5400.000
G1 X29.768 Y-66.032 F5400.000
G1 X14.670 Y-48.228 F5400.000
G1 X14.484 Y-47.905 F5400.000
G1 X13.549 Y-45.361 F5400.000
G1 X13.445 Y-45.110 F5400.000
G1 X7.993 Y-33.331 F5400.000
G1 X-5.209 Y-23.865 F5400.000
G1 X-8.557 Y-20.122 F5400.000
G1 X-7.861 Y-18.971 F5400.000
G1 X-6.367 Y-14.023 F5400.000
G1 X-6.381 Y1.096 F5400.000
G1 X-6.034 Y3.497 F5400.000
G1 X-2.909 Y3.127 F5400.000
G1 X-1.107 Y2.523 F5400.000
G1 X-0.261 Y1.939 F5400.000
G1 X10.833 Y-13.716 F5400.000
G1 X10.833 Y-13.716 F5400.000
G1 X11.919 Y-15.249 F5400.000
G1 X12.440 Y-14.880 F5400.000
G1 X12.474 Y-14.780 F5400.000
G1 F900
G1 X13.818 Y-14.352 E1.35517
G1 X13.802 Y18.214 E2.32209
G1 X11.687 Y18.184 E2.38488
G1 X10.793 Y20.907 E2.46999
G1 X-6.831 Y21.036 E2.99328
G1 X-7.745 Y18.165 E3.08275
G1 X-8.440 Y18.165 E3.10340
G1 X-8.382 Y27.380 E3.37703
G1 X-7.930 Y27.392 E3.39048
G1 X-6.749 Y24.523 E3.48260
G1 X10.624 Y24.523 E3.99840
G1 X11.760 Y27.414 E4.09064
G1 X13.797 Y27.405 E4.15112
G1 X13.794 Y33.539 E4.33324
G1 X-6.436 Y33.479 E4.93389
G1 X-6.485 Y34.916 E4.97657
G1 X-6.514 Y37.238 E5.04552
G1 X-6.473 Y39.835 E5.12264
G1 X-6.412 Y41.104 E5.16037
G1 X-6.317 Y42.295 E5.19582
G1 X-6.185 Y43.347 E5.22732
G1 X-6.017 Y44.198 E5.25309
G1 X-5.848 Y44.711 E5.26909
G1 X-5.695 Y45.073 E5.28078
G1 X-5.485 Y45.492 E5.29468
G1 X-5.222 Y45.930 E5.30986
G1 X-4.906 Y46.365 E5.32582
G1 X-4.538 Y46.773 E5.34214
G1 X-4.118 Y47.134 E5.35858
G1 X-3.646 Y47.431 E5.37516
G1 X-3.116 Y47.653 E5.39222
G1 X-2.514 Y47.785 E5.41049
G1 X-1.834 Y47.808 E5.43069
G1 X-1.335 Y47.725 E5.44572
G1 X-0.852 Y47.541 E5.46107
G1 X-0.374 Y47.260 E5.47754
G1 X0.090 Y46.899 E5.49498
G1 X0.526 Y46.480 E5.51294
G1 X0.923 Y46.029 E5.53080
G1 X1.269 Y45.581 E5.54759
G1 X1.810 Y44.759 E5.57682
G1 X2.669 Y43.203 E5.62958
G1 X13.784 Y52.393 E6.05782
G1 X13.776 Y68.729 E6.54287
G1 X-22.681 Y34.941 E8.01874
G1 X12.444 Y-14.737 E9.82517
G1 X12.615 Y-14.360 F5400.000
G1 F900
G1 X13.461 Y-14.091 E9.85154
G1 X13.445 Y17.851 E10.79995
G1 X11.430 Y17.823 E10.85979
G1 X10.534 Y20.552 E10.94507
G1 X-6.570 Y20.677 E11.45293
G1 X-7.484 Y17.808 E11.54234
G1 X-8.800 Y17.808 E11.58141
G1 X-8.737 Y27.729 E11.87598
G1 X-7.693 Y27.755 E11.90700
G1 X-6.509 Y24.880 E11.99932
G1 X10.380 Y24.880 E12.50079
G1 X11.517 Y27.772 E12.59306
G1 X13.440 Y27.764 E12.65015
G1 X13.437 Y33.181 E12.81098
G1 X-6.781 Y33.121 E13.41129
G1 X-6.842 Y34.908 E13.46436
G1 X-6.871 Y37.239 E13.53357
G1 X-6.830 Y39.846 E13.61101
G1 X-6.768 Y41.127 E13.64907
G1 X-6.673 Y42.331 E13.68494
G1 X-6.538 Y43.404 E13.71705
G1 X-6.363 Y44.289 E13.74384
G1 X-6.183 Y44.836 E13.76093
G1 X-6.020 Y45.223 E13.77340
G1 X-5.799 Y45.664 E13.78804
G1 X-5.520 Y46.128 E13.80410
G1 X-5.184 Y46.590 E13.82109
G1 X-4.787 Y47.029 E13.83864
G1 X-4.331 Y47.421 E13.85653
G1 X-3.811 Y47.749 E13.87477
G1 X-3.224 Y47.995 E13.89367
G1 X-2.559 Y48.141 E13.91388
G1 X-1.811 Y48.166 E13.93610
G1 X-1.241 Y48.072 E13.95325
G1 X-0.697 Y47.864 E13.97055
G1 X-0.173 Y47.556 E13.98859
G1 X0.324 Y47.169 E14.00728
G1 X0.784 Y46.727 E14.02623
G1 X1.199 Y46.256 E14.04487
G1 X1.560 Y45.788 E14.06241
G1 X2.116 Y44.944 E14.09244
G1 X2.773 Y43.752 E14.13283
G1 X13.427 Y52.561 E14.54328
G1 X13.419 Y67.912 E14.99907
G1 X-22.209 Y34.891 E16.44139
G1 X12.584 Y-14.317 E18.23078
G1 X12.755 Y-13.941 F5400.000
G1 F720
G1 X13.104 Y-13.830 E18.24163
G1 X13.088 Y17.489 E19.17154
G1 X11.172 Y17.462 E19.22842
G1 X10.275 Y20.197 E19.31388
G1 X-6.310 Y20.318 E19.80630
G1 X-7.223 Y17.450 E19.89566
G1 X-9.193 Y17.450 E19.95417
G1 X-9.221 Y17.632 E19.95963
G1 X-9.158 Y17.652 E19.96160
G1 X-9.092 Y28.077 E20.27113
G1 X-7.456 Y28.119 E20.31971
G1 X-6.270 Y25.237 E20.41223
G1 X10.137 Y25.237 E20.89938
G1 X11.274 Y28.131 E20.99168
G1 X13.082 Y28.122 E21.04538
G1 X13.080 Y32.822 E21.18492
G1 X-7.126 Y32.763 E21.78488
G1 X-7.199 Y34.899 E21.84834
G1 X-7.228 Y37.239 E21.91782
G1 X-7.186 Y39.858 E21.99557
G1 X-7.125 Y41.149 E22.03397
G1 X-7.028 Y42.367 E22.07025
G1 X-6.891 Y43.461 E22.10298
G1 X-6.709 Y44.380 E22.13079
G1 X-6.518 Y44.962 E22.14896
G1 X-6.344 Y45.373 E22.16221
G1 X-6.112 Y45.836 E22.17760
G1 X-5.819 Y46.325 E22.19453
G1 X-5.461 Y46.816 E22.21255
G1 X-5.037 Y47.285 E22.23133
G1 X-4.543 Y47.709 E22.25067
G1 X-3.976 Y48.067 E22.27058
G1 X-3.332 Y48.337 E22.29132
G1 X-2.604 Y48.497 E22.31345
G1 X-1.787 Y48.524 E22.33770
G1 X-1.147 Y48.418 E22.35697
G1 X-0.542 Y48.187 E22.37621
G1 X0.028 Y47.852 E22.39584
G1 X0.558 Y47.440 E22.41578
G1 X1.042 Y46.974 E22.43571
G1 X1.475 Y46.483 E22.45514
G1 X1.850 Y45.996 E22.47342
G1 X2.422 Y45.128 E22.50426
G1 X2.878 Y44.302 E22.53228
G1 X13.070 Y52.729 E22.92494
G1 X13.063 Y67.095 E23.35147
G1 X-21.736 Y34.842 E24.76024
G1 X12.725 Y-13.898 E26.53258
G1 X12.895 Y-14.262 F5400.000
G1 X12.440 Y-14.880 F5400.000
G1 X12.440 Y-14.880 F5400.000
G1 X11.919 Y-15.249 F5400.000
G1 X10.833 Y-13.716 F5400.000
G1 X10.833 Y-13.716 F5400.000
G1 X-0.261 Y1.939 F5400.000
G1 X-1.107 Y2.523 F5400.000
G1 X-2.909 Y3.127 F5400.000
G1 X-6.034 Y3.497 F5400.000
G1 X-6.381 Y1.096 F5400.000
G1 X-6.367 Y-14.023 F5400.000
G1 X-10.455 Y-14.036 F5400.000
G1 X-10.542 Y-13.887 F5400.000
G1 F900
G1 X-10.603 Y5.863 E27.11897
G1 X-28.291 Y-3.676 E27.71564
G1 X-10.587 Y-13.861 E28.32206
G1 X-10.901 Y-13.268 F5400.000
G1 F900
G1 X-10.958 Y5.265 E28.87236
G1 X-27.557 Y-3.686 E29.43230
G1 X-10.946 Y-13.242 E30.00130
G1 X-11.260 Y-12.650 F5400.000
G1 F720
G1 X-11.313 Y4.668 E30.51550
G1 X-26.823 Y-3.696 E31.03871
G1 X-11.305 Y-12.624 E31.57028
G1 X-10.915 Y-12.710 F5400.000
G1 X-12.383 Y-12.927 F5400.000
G1 X-12.383 Y-12.927 F5400.000
G1 X-14.740 Y-17.025 F5400.000
G1 X-12.915 Y-18.310 F5400.000
G1 X-10.455 Y-14.036 F5400.000
G1 X-6.367 Y-14.023 F5400.000
G1 X-6.381 Y1.096 F5400.000
G1 X-6.034 Y3.497 F5400.000
G1 X-2.909 Y3.127 F5400.000
G1 X-1.107 Y2.523 F5400.000
G1 X-0.261 Y1.939 F5400.000
G1 X10.833 Y-13.716 F5400.000
G1 X10.833 Y-13.716 F5400.000
G1 X11.919 Y-15.249 F5400.000
G1 X12.737 Y-15.813 F5400.000
G1 X13.446 Y-16.050 F5400.000
G1 X14.128 Y-15.117 F5400.000
G1 X14.384 Y-14.415 F5400.000
G1 X14.368 Y18.301 F5400.000
G1 X13.874 Y19.274 F5400.000
G1 X13.047 Y20.089 F5400.000
G1 X12.800 Y21.631 F5400.000
G1 X12.442 Y22.799 F5400.000
G1 X12.689 Y23.649 F5400.000
G1 X13.043 Y25.522 F5400.000
G1 X13.878 Y26.354 F5400.000
G1 X14.363 Y27.319 F5400.000
G1 X14.360 Y33.625 F5400.000
G1 X13.877 Y34.587 F5400.000
G1 X13.246 Y35.216 F5400.000
G1 X12.563 Y35.218 F5400.000
G1 X2.939 Y35.235 F5400.000
G1 X2.231 Y35.313 F5400.000
G1 X1.475 Y35.229 F5400.000
G1 X0.508 Y35.234 F5400.000
G1 X0.508 Y35.234 F5400.000
G1 X-4.716 Y35.260 F5400.000
G1 X-4.955 Y35.498 F5400.000
G1 X-4.937 Y36.952 F5400.000
G1 X-4.894 Y37.038 F5400.000
G1 F900
G1 X1.450 Y36.957 E31.75866
G1 X1.579 Y38.655 E31.80924
G1 X1.592 Y39.243 E31.82669
G1 X1.574 Y39.908 E31.84645
G1 X1.510 Y40.628 E31.86791
G1 X1.380 Y41.374 E31.89039
G1 X1.162 Y42.119 E31.91346
G1 X0.817 Y42.838 E31.93711
G1 X0.296 Y43.484 E31.96175
G1 X-0.437 Y43.965 E31.98780
G1 X-1.323 Y44.167 E32.01478
G1 X-2.122 Y44.123 E32.03853
G1 X-2.817 Y43.909 E32.06013
G1 X-3.407 Y43.545 E32.08073
G1 X-3.876 Y43.075 E32.10042
G1 X-4.232 Y42.545 E32.11937
G1 X-4.494 Y41.983 E32.13779
G1 X-4.684 Y41.408 E32.15578
G1 X-4.816 Y40.832 E32.17332
G1 X-4.903 Y40.269 E32.19025
G1 X-4.954 Y39.722 E32.20654
G1 X-4.981 Y38.785 E32.23438
G1 X-4.897 Y37.090 E32.28477
G1 X-4.554 Y37.390 F5400.000
G1 F900
G1 X1.119 Y37.318 E32.45323
G1 X1.222 Y38.672 E32.49356
G1 X1.234 Y39.242 E32.51047
G1 X1.217 Y39.887 E32.52965
G1 X1.155 Y40.582 E32.55035
G1 X1.032 Y41.293 E32.57178
G1 X0.827 Y41.991 E32.59338
G1 X0.513 Y42.646 E32.61495
G1 X0.054 Y43.216 E32.63669
G1 X-0.579 Y43.632 E32.65916
G1 X-1.353 Y43.807 E32.68274
G1 X-2.059 Y43.769 E32.70371
G1 X-2.668 Y43.581 E32.72265
G1 X-3.184 Y43.263 E32.74065
G1 X-3.599 Y42.848 E32.75807
G1 X-3.920 Y42.369 E32.77518
G1 X-4.162 Y41.851 E32.79215
G1 X-4.340 Y41.312 E32.80902
G1 X-4.465 Y40.765 E32.82568
G1 X-4.548 Y40.225 E32.84191
G1 X-4.598 Y39.700 E32.85754
G1 X-4.623 Y38.789 E32.88462
G1 X-4.557 Y37.443 E32.92463
G1 X-4.214 Y37.743 F5400.000
G1 F900
G1 X0.789 Y37.679 E33.07318
G1 X0.866 Y38.690 E33.10327
G1 X0.877 Y39.241 E33.11963
G1 X0.860 Y39.867 E33.13823
G1 X0.801 Y40.535 E33.15816
G1 X0.684 Y41.212 E33.17855
G1 X0.493 Y41.863 E33.19869
G1 X0.209 Y42.454 E33.21817
G1 X-0.189 Y42.949 E33.23701
G1 X-0.721 Y43.298 E33.25590
G1 X-1.384 Y43.448 E33.27608
G1 X-1.995 Y43.415 E33.29426
G1 X-2.519 Y43.253 E33.31055
G1 X-2.961 Y42.981 E33.32596
G1 X-3.322 Y42.620 E33.34111
G1 X-3.608 Y42.193 E33.35636
G1 X-3.829 Y41.719 E33.37189
G1 X-3.995 Y41.216 E33.38763
G1 X-4.114 Y40.698 E33.40341
G1 X-4.194 Y40.181 E33.41895
G1 X-4.241 Y39.678 E33.43392
G1 X-4.266 Y38.793 E33.46024
G1 X-4.217 Y37.796 E33.48987
G1 X-4.216 Y37.393 F5400.000
G1 X3.036 Y36.962 F5400.000
G1 F900
G1 X13.792 Y36.892 E33.80925
G1 X13.786 Y48.629 E34.15772
G1 X3.036 Y40.410 E34.55952
G1 X3.036 Y37.015 E34.66032
G1 X3.393 Y37.317 F5400.000
G1 F900
G1 X13.435 Y37.252 E34.95848
G1 X13.430 Y47.907 E35.27484
G1 X3.393 Y40.233 E35.64996
G1 X3.393 Y37.370 E35.73499
G1 X3.750 Y37.672 F5400.000
G1 F900
G1 X13.078 Y37.611 E36.01194
G1 X13.073 Y47.184 E36.29619
G1 X3.750 Y40.057 E36.64463
