; generated by Slic3r 1.3.0-dev on 2016-01-29 at 16:02:15

; external perimeters extrusion width = 0.35mm
; perimeters extrusion width = 0.48mm
; infill extrusion width = 0.48mm
; solid infill extrusion width = 0.48mm
; top infill extrusion width = 0.48mm

M107
G28
G92 X0 Y0 Z0 E0
G1 F5000 Y30 X30
G1 X220
G1 F100 E10

G28
G92 X0 Y0 Z0
G1 F4000 X101 Y127
G92 X0 Y0 Z0 E0
G21 ; set units to millimeters
G90 ; use absolute coordinates
M82 ; use absolute distances for extrusion
G92 E0
G1 E-0.70000 F1500.00000
G92 E0
G1 Z0.200 F5400.000
G1 Z0.400 F5400.000
G1 X-44.471 Y-3.598 F5400.000
G1 Z0.200 F5400.000
G1 E0.70000 F1500.00000
G1 F1800
G1 X31.959 Y-82.716 E3.96621
G1 X32.389 Y-83.113 E3.98358
G1 X33.010 Y-83.623 E4.00746
G1 X33.837 Y-84.175 E4.03696
G1 X34.546 Y-84.554 E4.06083
G1 X35.464 Y-84.934 E4.09035
G1 X36.233 Y-85.168 E4.11421
G1 X37.208 Y-85.361 E4.14372
G1 X38.008 Y-85.440 E4.16759
G1 X39.002 Y-85.440 E4.19711
G1 X39.802 Y-85.361 E4.22098
G1 X40.777 Y-85.168 E4.25049
G1 X41.546 Y-84.934 E4.27435
G1 X42.465 Y-84.554 E4.30387
G1 X43.174 Y-84.175 E4.32775
G1 X44.000 Y-83.623 E4.35725
G1 X44.621 Y-83.113 E4.38112
G1 X45.324 Y-82.410 E4.41063
G1 X45.834 Y-81.788 E4.43450
G1 X46.387 Y-80.962 E4.46401
G1 X46.765 Y-80.253 E4.48788
G1 X47.146 Y-79.335 E4.51739
G1 X47.379 Y-78.565 E4.54126
G1 X47.573 Y-77.590 E4.57078
G1 X47.652 Y-76.790 E4.59465
G1 X47.652 Y-75.796 E4.62416
G1 X47.573 Y-74.997 E4.64802
G1 X47.493 Y-74.470 E4.66383
G1 X15.368 Y81.417 E9.38958
G1 X14.583 Y83.261 E9.44909
G1 X13.146 Y84.658 E9.50860
G1 X11.279 Y85.388 E9.56811
G1 X9.276 Y85.338 E9.62762
G1 X6.987 Y84.144 E9.70426
G1 X-32.204 Y48.468 E11.27783
G1 X-33.039 Y47.486 E11.31610
G1 X-33.551 Y46.652 E11.34514
G1 X-34.006 Y45.827 E11.37312
G1 X-34.416 Y44.978 E11.40112
G1 X-34.766 Y44.096 E11.42928
G1 X-47.232 Y5.682 E12.62841
G1 X-47.425 Y5.035 E12.64846
G1 X-47.608 Y4.076 E12.67745
G1 X-47.655 Y3.573 E12.69243
G1 X-47.630 Y2.418 E12.72673
G1 X-47.565 Y1.942 E12.74101
G1 X-47.355 Y1.036 E12.76861
G1 X-47.195 Y0.552 E12.78376
G1 X-46.937 Y-0.082 E12.80408
G1 X-46.701 Y-0.566 E12.82006
G1 X-46.455 Y-1.010 E12.83512
G1 X-46.163 Y-1.483 E12.85164
G1 X-45.948 Y-1.801 E12.86303
G1 X-45.436 Y-2.489 E12.88852
G1 X-44.932 Y-3.092 E12.91183
G1 X-44.507 Y-3.559 E12.93059
G1 X-44.214 Y-3.350 F5400.000
G1 F1800
G1 X32.216 Y-82.468 E16.19680
G1 X32.615 Y-82.837 E16.21295
G1 X33.237 Y-83.347 E16.23682
G1 X34.005 Y-83.860 E16.26425
G1 X34.714 Y-84.239 E16.28812
G1 X35.568 Y-84.593 E16.31556
G1 X36.337 Y-84.826 E16.33942
G1 X37.243 Y-85.006 E16.36685
G1 X38.043 Y-85.085 E16.39072
G1 X38.967 Y-85.085 E16.41816
G1 X39.767 Y-85.006 E16.44203
G1 X40.673 Y-84.826 E16.46946
G1 X41.443 Y-84.593 E16.49333
G1 X42.296 Y-84.239 E16.52077
G1 X43.006 Y-83.860 E16.54464
G1 X43.774 Y-83.347 E16.57207
G1 X44.395 Y-82.837 E16.59593
G1 X45.048 Y-82.183 E16.62337
G1 X45.558 Y-81.562 E16.64723
G1 X46.072 Y-80.794 E16.67467
G1 X46.451 Y-80.085 E16.69854
G1 X46.804 Y-79.231 E16.72598
G1 X47.038 Y-78.462 E16.74985
G1 X47.218 Y-77.555 E16.77728
G1 X47.297 Y-76.755 E16.80116
G1 X47.297 Y-75.831 E16.82858
G1 X47.218 Y-75.032 E16.85244
G1 X47.144 Y-74.542 E16.86715
G1 X15.018 Y81.345 E21.59290
G1 X14.249 Y83.117 E21.65025
G1 X12.834 Y84.431 E21.70760
G1 X11.010 Y85.068 E21.76496
G1 X9.084 Y84.920 E21.82231
G1 X7.228 Y83.880 E21.88549
G1 X-31.964 Y48.203 E23.45906
G1 X-32.743 Y47.286 E23.49481
G1 X-33.241 Y46.475 E23.52306
G1 X-33.687 Y45.666 E23.55049
G1 X-34.091 Y44.828 E23.57810
G1 X-34.427 Y43.985 E23.60507
G1 X-46.893 Y5.572 E24.80415
G1 X-47.082 Y4.934 E24.82390
G1 X-47.252 Y4.043 E24.85084
G1 X-47.299 Y3.540 E24.86583
G1 X-47.276 Y2.467 E24.89771
G1 X-47.211 Y1.990 E24.91199
G1 X-47.016 Y1.148 E24.93764
G1 X-46.856 Y0.664 E24.95280
G1 X-46.616 Y0.075 E24.97168
G1 X-46.380 Y-0.409 E24.98766
G1 X-46.152 Y-0.822 E25.00167
G1 X-45.859 Y-1.295 E25.01819
G1 X-45.160 Y-2.263 E25.05363
G1 X-44.668 Y-2.852 E25.07644
G1 X-44.250 Y-3.311 E25.09486
G1 X-43.958 Y-3.102 F5400.000
G1 F1800
G1 X32.472 Y-82.220 E28.36107
G1 X32.842 Y-82.561 E28.37599
G1 X33.463 Y-83.071 E28.39987
G1 X34.173 Y-83.545 E28.42522
G1 X34.882 Y-83.924 E28.44908
G1 X35.671 Y-84.251 E28.47445
G1 X36.441 Y-84.484 E28.49831
G1 X37.278 Y-84.651 E28.52367
G1 X38.078 Y-84.730 E28.54753
G1 X38.932 Y-84.730 E28.57290
G1 X39.732 Y-84.651 E28.59676
G1 X40.570 Y-84.484 E28.62212
G1 X41.339 Y-84.251 E28.64598
G1 X42.128 Y-83.924 E28.67134
G1 X42.837 Y-83.545 E28.69522
G1 X43.547 Y-83.071 E28.72057
G1 X44.168 Y-82.561 E28.74443
G1 X44.772 Y-81.957 E28.76979
G1 X45.282 Y-81.335 E28.79365
G1 X45.757 Y-80.625 E28.81901
G1 X46.136 Y-79.916 E28.84288
G1 X46.463 Y-79.127 E28.86824
G1 X46.696 Y-78.358 E28.89211
G1 X46.863 Y-77.520 E28.91747
G1 X46.941 Y-76.720 E28.94134
G1 X46.941 Y-75.866 E28.96669
G1 X46.863 Y-75.067 E28.99055
G1 X46.794 Y-74.614 E29.00414
G1 X14.668 Y81.273 E33.72989
G1 X13.915 Y82.969 E33.78500
G1 X12.524 Y84.198 E33.84012
G1 X10.748 Y84.737 E33.89523
G1 X8.908 Y84.487 E33.95035
G1 X7.468 Y83.615 E34.00032
G1 X-31.723 Y47.939 E35.57389
G1 X-32.470 Y47.051 E35.60836
G1 X-32.931 Y46.298 E35.63457
G1 X-33.368 Y45.505 E35.66145
G1 X-33.767 Y44.679 E35.68868
G1 X-34.088 Y43.873 E35.71445
G1 X-46.553 Y5.461 E36.91348
G1 X-46.739 Y4.833 E36.93293
G1 X-46.897 Y4.010 E36.95783
G1 X-46.944 Y3.507 E36.97282
G1 X-46.922 Y2.515 E37.00228
G1 X-46.857 Y2.038 E37.01656
G1 X-46.677 Y1.260 E37.04027
G1 X-46.517 Y0.776 E37.05543
G1 X-46.295 Y0.231 E37.07288
G1 X-46.059 Y-0.252 E37.08886
G1 X-45.555 Y-1.107 E37.11832
G1 X-44.884 Y-2.036 E37.15234
G1 X-44.403 Y-2.613 E37.17466
G1 X-43.993 Y-3.063 E37.19272
G1 E36.49272 F1500.00000
G92 E0
G1 Z0.400 F5400.000
G1 X23.944 Y-63.896 F5400.000
G1 Z0.200 F5400.000
G1 E0.70000 F1500.00000
G1 F900
G1 X24.188 Y-64.703 E0.72503
G1 X24.586 Y-65.447 E0.75007
G1 X25.121 Y-66.098 E0.77510
G1 X25.772 Y-66.633 E0.80013
G1 X26.516 Y-67.031 E0.82517
G1 X27.323 Y-67.275 E0.85020
G1 X28.135 Y-67.355 E0.87442
G1 X29.000 Y-67.276 E0.90024
G1 X29.808 Y-67.031 E0.92529
G1 X30.551 Y-66.633 E0.95032
G1 X31.203 Y-66.098 E0.97536
G1 X31.738 Y-65.447 E1.00039
G1 X32.136 Y-64.703 E1.02542
G1 X32.380 Y-63.896 E1.05046
G1 X32.463 Y-63.057 E1.07549
G1 X32.380 Y-62.218 E1.10053
G1 X32.136 Y-61.411 E1.12556
G1 X31.738 Y-60.668 E1.15059
G1 X31.203 Y-60.016 E1.17563
G1 X30.551 Y-59.481 E1.20066
G1 X29.808 Y-59.083 E1.22569
G1 X29.001 Y-58.839 E1.25073
G1 X28.162 Y-58.756 E1.27576
G1 X27.323 Y-58.839 E1.30080
G1 X26.516 Y-59.083 E1.32583
G1 X25.772 Y-59.481 E1.35086
G1 X25.121 Y-60.016 E1.37590
G1 X24.586 Y-60.668 E1.40093
G1 X24.188 Y-61.411 E1.42597
G1 X23.944 Y-62.218 E1.45100
G1 X23.861 Y-63.057 E1.47603
G1 X23.938 Y-63.844 E1.49951
G1 X23.680 Y-64.127 F5400.000
G1 X24.211 Y-59.863 F5400.000
G1 X24.211 Y-59.863 F5400.000
G1 X24.206 Y-59.163 F5400.000
G1 X24.208 Y-59.085 F5400.000
G1 X9.252 Y-41.447 F5400.000
G1 X9.066 Y-41.125 F5400.000
G1 X8.131 Y-38.581 F5400.000
G1 X8.026 Y-38.330 F5400.000
G1 X2.574 Y-26.550 F5400.000
G1 X-10.627 Y-17.085 F5400.000
G1 X-13.976 Y-13.342 F5400.000
G1 X-13.280 Y-12.191 F5400.000
G1 X-11.786 Y-7.243 F5400.000
G1 X-11.800 Y7.877 F5400.000
G1 X-11.453 Y10.277 F5400.000
G1 X-8.327 Y9.907 F5400.000
G1 X-6.526 Y9.303 F5400.000
G1 X-5.680 Y8.719 F5400.000
G1 X5.414 Y-6.936 F5400.000
G1 X5.414 Y-6.936 F5400.000
G1 X6.501 Y-8.469 F5400.000
G1 X7.021 Y-8.100 F5400.000
G1 X7.196 Y-7.580 F5400.000
G1 F900
G1 X8.042 Y-7.311 E1.52588
G1 X8.026 Y24.632 E2.47429
G1 X6.011 Y24.603 E2.53413
G1 X5.115 Y27.332 E2.61941
G1 X-11.989 Y27.457 E3.12727
G1 X-12.902 Y24.588 E3.21668
G1 X-14.218 Y24.588 E3.25575
G1 X-14.156 Y34.509 E3.55032
G1 X-13.112 Y34.535 E3.58134
G1 X-11.928 Y31.660 E3.67366
G1 X4.962 Y31.660 E4.17513
G1 X6.098 Y34.553 E4.26740
G1 X8.021 Y34.544 E4.32450
G1 X8.018 Y39.961 E4.48533
G1 X-12.200 Y39.901 E5.08563
G1 X-12.261 Y41.688 E5.13870
G1 X-12.289 Y44.019 E5.20792
G1 X-12.248 Y46.626 E5.28535
G1 X-12.187 Y47.907 E5.32341
G1 X-12.091 Y49.111 E5.35928
G1 X-11.957 Y50.184 E5.39140
G1 X-11.781 Y51.069 E5.41818
G1 X-11.602 Y51.616 E5.43527
G1 X-11.438 Y52.003 E5.44774
G1 X-11.217 Y52.444 E5.46238
G1 X-10.939 Y52.908 E5.47844
G1 X-10.602 Y53.370 E5.49543
G1 X-10.206 Y53.809 E5.51298
G1 X-9.749 Y54.202 E5.53087
G1 X-9.230 Y54.530 E5.54911
G1 X-8.642 Y54.775 E5.56801
G1 X-7.978 Y54.921 E5.58822
G1 X-7.229 Y54.946 E5.61044
G1 X-6.660 Y54.852 E5.62759
G1 X-6.116 Y54.644 E5.64489
G1 X-5.591 Y54.336 E5.66293
G1 X-5.095 Y53.949 E5.68163
G1 X-4.635 Y53.507 E5.70057
G1 X-4.220 Y53.036 E5.71921
G1 X-3.859 Y52.568 E5.73675
G1 X-3.303 Y51.724 E5.76678
G1 X-2.645 Y50.533 E5.80717
G1 X8.009 Y59.341 E6.21762
G1 X8.001 Y74.692 E6.67342
G1 X-27.627 Y41.671 E8.11573
G1 X7.166 Y-7.537 E9.90512
G1 X7.337 Y-7.161 F5400.000
G1 F720
G1 X7.685 Y-7.050 E9.91597
G1 X7.669 Y24.269 E10.84588
G1 X5.754 Y24.242 E10.90277
G1 X4.856 Y26.977 E10.98822
G1 X-11.728 Y27.098 E11.48065
G1 X-12.641 Y24.231 E11.57000
G1 X-14.612 Y24.231 E11.62851
G1 X-14.640 Y24.412 E11.63397
G1 X-14.576 Y24.432 E11.63594
G1 X-14.511 Y34.857 E11.94547
G1 X-12.875 Y34.899 E11.99405
G1 X-11.689 Y32.017 E12.08657
G1 X4.718 Y32.017 E12.57372
G1 X5.855 Y34.911 E12.66602
G1 X7.664 Y34.903 E12.71972
G1 X7.661 Y39.603 E12.85927
G1 X-12.545 Y39.543 E13.45922
G1 X-12.618 Y41.679 E13.52268
G1 X-12.647 Y44.019 E13.59216
G1 X-12.605 Y46.638 E13.66991
G1 X-12.543 Y47.930 E13.70832
G1 X-12.447 Y49.148 E13.74459
G1 X-12.309 Y50.241 E13.77732
G1 X-12.127 Y51.160 E13.80513
G1 X-11.936 Y51.742 E13.82331
G1 X-11.762 Y52.153 E13.83656
G1 X-11.530 Y52.616 E13.85194
G1 X-11.237 Y53.105 E13.86887
G1 X-10.880 Y53.596 E13.88689
G1 X-10.456 Y54.065 E13.90567
G1 X-9.962 Y54.490 E13.92501
G1 X-9.395 Y54.847 E13.94492
G1 X-8.750 Y55.117 E13.96566
G1 X-8.022 Y55.277 E13.98779
G1 X-7.206 Y55.305 E14.01204
G1 X-6.566 Y55.198 E14.03132
G1 X-5.960 Y54.967 E14.05056
G1 X-5.390 Y54.632 E14.07018
G1 X-4.861 Y54.220 E14.09012
G1 X-4.377 Y53.754 E14.11005
G1 X-3.944 Y53.264 E14.12948
G1 X-3.568 Y52.776 E14.14776
G1 X-2.997 Y51.908 E14.17861
G1 X-2.541 Y51.082 E14.20662
G1 X7.652 Y59.509 E14.59928
G1 X7.644 Y73.875 E15.02582
G1 X-27.155 Y41.622 E16.43458
G1 X7.306 Y-7.118 E18.20692
G1 X7.476 Y-7.481 F5400.000
G1 X7.021 Y-8.100 F5400.000
G1 X7.021 Y-8.100 F5400.000
G1 X6.501 Y-8.469 F5400.000
G1 X5.414 Y-6.936 F5400.000
G1 X5.414 Y-6.936 F5400.000
G1 X-5.680 Y8.719 F5400.000
G1 X-6.526 Y9.303 F5400.000
G1 X-8.327 Y9.907 F5400.000
G1 X-11.453 Y10.277 F5400.000
G1 X-11.800 Y7.877 F5400.000
G1 X-11.786 Y-7.243 F5400.000
G1 X-15.874 Y-7.255 F5400.000
G1 X-16.319 Y-6.488 F5400.000
G1 F900
G1 X-16.377 Y12.046 E18.75722
G1 X-32.976 Y3.094 E19.31716
G1 X-16.365 Y-6.462 E19.88615
G1 X-16.678 Y-5.870 F5400.000
G1 F720
G1 X-16.732 Y11.448 E20.40035
G1 X-32.242 Y3.084 E20.92357
G1 X-16.724 Y-5.844 E21.45514
G1 X-16.333 Y-5.930 F5400.000
G1 X-17.901 Y-6.089 F5400.000
G1 X-17.901 Y-6.089 F5400.000
G1 X-20.254 Y-10.178 F5400.000
G1 X-18.333 Y-11.530 F5400.000
G1 X-15.874 Y-7.255 F5400.000
G1 X-11.786 Y-7.243 F5400.000
G1 X-11.800 Y7.877 F5400.000
G1 X-11.453 Y10.277 F5400.000
G1 X-8.327 Y9.907 F5400.000
G1 X-6.526 Y9.303 F5400.000
G1 X-5.680 Y8.719 F5400.000
G1 X5.414 Y-6.936 F5400.000
G1 X5.414 Y-6.936 F5400.000
G1 X6.501 Y-8.469 F5400.000
G1 X7.318 Y-9.032 F5400.000
G1 X8.028 Y-9.270 F5400.000
G1 X8.709 Y-8.337 F5400.000
G1 X8.966 Y-7.634 F5400.000
G1 X8.949 Y25.081 F5400.000
G1 X8.455 Y26.054 F5400.000
G1 X7.628 Y26.869 F5400.000
G1 X7.381 Y28.411 F5400.000
G1 X7.023 Y29.579 F5400.000
G1 X7.270 Y30.429 F5400.000
G1 X7.625 Y32.302 F5400.000
G1 X8.460 Y33.134 F5400.000
G1 X8.944 Y34.099 F5400.000
G1 X8.941 Y40.405 F5400.000
G1 X8.458 Y41.368 F5400.000
G1 X7.827 Y41.997 F5400.000
G1 X7.144 Y41.998 F5400.000
G1 X-2.479 Y42.015 F5400.000
G1 X-3.188 Y42.093 F5400.000
G1 X-3.943 Y42.010 F5400.000
G1 X-4.910 Y42.014 F5400.000
G1 X-4.910 Y42.014 F5400.000
G1 X-10.135 Y42.040 F5400.000
G1 X-10.374 Y42.278 F5400.000
G1 X-10.355 Y43.732 F5400.000
G1 X-9.973 Y44.171 F5400.000
G1 F900
G1 X-4.299 Y44.098 E21.62360
G1 X-4.196 Y45.452 E21.66393
G1 X-4.184 Y46.022 E21.68084
G1 X-4.201 Y46.668 E21.70002
G1 X-4.263 Y47.362 E21.72071
G1 X-4.386 Y48.073 E21.74214
G1 X-4.591 Y48.771 E21.76375
G1 X-4.906 Y49.426 E21.78532
G1 X-5.365 Y49.996 E21.80706
G1 X-5.997 Y50.412 E21.82953
G1 X-6.772 Y50.588 E21.85310
G1 X-7.477 Y50.549 E21.87407
G1 X-8.087 Y50.361 E21.89302
G1 X-8.603 Y50.043 E21.91102
G1 X-9.017 Y49.628 E21.92844
G1 X-9.338 Y49.149 E21.94555
G1 X-9.580 Y48.632 E21.96251
G1 X-9.758 Y48.092 E21.97938
G1 X-9.884 Y47.545 E21.99605
G1 X-9.967 Y47.005 E22.01227
G1 X-10.016 Y46.480 E22.02791
G1 X-10.042 Y45.569 E22.05498
G1 X-9.975 Y44.223 E22.09500
G1 X-9.633 Y44.523 F5400.000
G1 F900
G1 X-4.630 Y44.459 E22.24355
G1 X-4.553 Y45.470 E22.27364
G1 X-4.541 Y46.021 E22.29000
G1 X-4.558 Y46.647 E22.30860
G1 X-4.618 Y47.315 E22.32853
G1 X-4.735 Y47.992 E22.34891
G1 X-4.926 Y48.643 E22.36905
G1 X-5.210 Y49.234 E22.38853
G1 X-5.608 Y49.729 E22.40738
G1 X-6.139 Y50.078 E22.42626
G1 X-6.802 Y50.228 E22.44644
G1 X-7.414 Y50.195 E22.46463
G1 X-7.938 Y50.033 E22.48091
G1 X-8.380 Y49.761 E22.49632
G1 X-8.740 Y49.400 E22.51147
G1 X-9.027 Y48.973 E22.52673
G1 X-9.248 Y48.500 E22.54225
G1 X-9.414 Y47.996 E22.55800
G1 X-9.533 Y47.478 E22.57378
G1 X-9.612 Y46.961 E22.58931
G1 X-9.660 Y46.459 E22.60429
G1 X-9.685 Y45.573 E22.63060
G1 X-9.635 Y44.576 E22.66024
G1 X-9.634 Y44.173 F5400.000
G1 X-2.026 Y44.097 F5400.000
G1 F900
G1 X8.016 Y44.032 E22.95840
G1 X8.011 Y54.687 E23.27476
G1 X-2.026 Y47.014 E23.64988
G1 X-2.026 Y44.150 E23.73491
G1 X-1.669 Y44.452 F5400.000
G1 F900
G1 X7.659 Y44.391 E24.01186
G1 X7.654 Y53.965 E24.29611
G1 X-1.669 Y46.837 E24.64455
G1 X-1.669 Y44.505 E24.71380
G1 X-1.760 Y44.114 F5400.000
G1 X-2.469 Y43.657 F5400.000
G1 X-2.469 Y43.657 F5400.000
G1 X-2.479 Y42.015 F5400.000
G1 X7.144 Y41.998 F5400.000
G1 X7.827 Y41.997 F5400.000
G1 X8.458 Y41.368 F5400.000
G1 X8.941 Y40.405 F5400.000
G1 X8.944 Y34.099 F5400.000
G1 X8.460 Y33.134 F5400.000
G1 X7.625 Y32.302 F5400.000
G1 X7.270 Y30.429 F5400.000
G1 X7.023 Y29.579 F5400.000
G1 X7.381 Y28.411 F5400.000
G1 X7.628 Y26.869 F5400.000
G1 X8.455 Y26.054 F5400.000
G1 X8.949 Y25.081 F5400.000
G1 X8.966 Y-7.634 F5400.000
G1 X8.709 Y-8.337 F5400.000
G1 X8.028 Y-9.270 F5400.000
G1 X7.318 Y-9.032 F5400.000
G1 X6.501 Y-8.469 F5400.000
G1 X5.414 Y-6.936 F5400.000
G1 X5.414 Y-6.936 F5400.000
G1 X-5.680 Y8.719 F5400.000
G1 X-6.526 Y9.303 F5400.000
G1 X-8.327 Y9.907 F5400.000
G1 X-11.453 Y10.277 F5400.000
G1 X-12.259 Y12.798 F5400.000
G1 X-17.400 Y17.647 F5400.000
G1 X-16.749 Y22.296 F5400.000
G1 X-16.745 Y22.321 F5400.000
G1 X-16.597 Y23.376 F5400.000
G1 X-17.295 Y24.244 F5400.000
G1 X-17.898 Y24.327 F5400.000
G1 F900
G1 X-39.585 Y6.882 E25.54017
G1 X-40.094 Y6.401 E25.56097
G1 X-40.766 Y5.675 E25.59035
G1 X-41.101 Y5.260 E25.60618
G1 X-41.414 Y4.818 E25.62228
G1 X-41.682 Y4.366 E25.63786
G1 X-41.886 Y3.921 E25.65239
G1 X-42.009 Y3.501 E25.66539
G1 X-42.045 Y3.116 E25.67687
G1 X-41.995 Y2.754 E25.68772
G1 X-41.863 Y2.354 E25.70023
G1 X-41.655 Y1.929 E25.71427
G1 X-41.388 Y1.498 E25.72933
G1 X-41.080 Y1.075 E25.74487
G1 X-40.753 Y0.678 E25.76014
G1 X-40.102 Y-0.017 E25.78841
G1 X-39.606 Y-0.483 E25.80861
G1 X6.673 Y-39.865 E27.61288
G1 X24.217 Y-60.554 E28.41830
G1 X24.867 Y-59.762 E28.44872
G1 X25.546 Y-59.205 E28.47479
G1 X10.076 Y-40.961 E29.18500
G1 X10.053 Y-22.303 E29.73898
G1 X-7.261 Y-11.947 E30.33801
G1 X-7.237 Y7.548 E30.91681
G1 X-6.392 Y7.816 E30.94313
G1 X9.743 Y-14.901 E31.77046
G1 X9.892 Y-14.853 E31.77511
G1 X9.845 Y79.134 E34.56571
G1 X-28.355 Y44.360 E36.09945
G1 X-28.823 Y43.581 E36.12645
G1 X-29.146 Y42.964 E36.14714
G1 X-29.428 Y42.311 E36.16824
G1 X-29.523 Y42.024 E36.17722
G1 X-29.580 Y41.774 E36.18482
G1 X-29.595 Y41.584 E36.19048
G1 X-29.578 Y41.416 E36.19551
G1 X-29.526 Y41.198 E36.20216
G1 X-29.444 Y40.955 E36.20978
G1 X-29.204 Y40.410 E36.22744
G1 X-28.934 Y39.905 E36.24444
G1 X-28.517 Y39.232 E36.26796
G1 X-17.929 Y24.370 E36.80977
G1 E36.10977 F1500.00000
G92 E0
G1 Z0.400 F5400.000
G1 X-17.295 Y24.244 F5400.000
G1 X-17.295 Y24.244 F5400.000
