; generated by Slic3r 1.0.1-dev on 2014-02-15 at 16:14:15

; layer_height = 0.18
; perimeters = 2
; top_solid_layers = 3
; bottom_solid_layers = 2
; fill_density = 0.6
; perimeter_speed = 30
; infill_speed = 60
; travel_speed = 130
; nozzle_diameter = 0.35
; filament_diameter = 1.75
; extrusion_multiplier = 1
; perimeters extrusion width = 0.35mm
; infill extrusion width = 0.57mm
; solid infill extrusion width = 0.57mm
; top infill extrusion width = 0.57mm
; first layer extrusion width = 0.40mm

G21 ; set units to millimeters
M107
M190 S80 ; wait for bed temperature to be reached
M104 S200 ; set temperature
G28
G92 X0 Y0 Z0 E0
G1 F5000 Y30 X30
G1 X220
G1 F100 E10
G28
G92 X0 Y0 Z0
G1 F4000 X101 Y127
G92 X0 Y0 Z0 E0
M106 S255
M109 S200 ; wait for temperature to be reached
G90 ; use absolute coordinates
G92 E0
M82 ; use absolute distances for extrusion
G1 F600.000 E-0.70000
G1 Z0.400 F7800.000
G92 E0
G1 X12.995 Y12.153 F7800.000
G1 Z0.200 F7800.000
G1 E0.70000 F600.000
G1 X12.373 Y14.317 E0.77289 F540.000
G1 X11.040 Y16.132 E0.84578
G1 X9.160 Y17.371 E0.91868
G1 X6.639 Y17.889 E1.00197
G1 X-6.639 Y17.889 E1.43174
G1 X-8.856 Y17.492 E1.50463
G1 X-10.797 Y16.351 E1.57753
G1 X-12.222 Y14.607 E1.65042
G1 X-12.995 Y12.153 E1.73372
G1 X-15.356 Y-10.847 E2.48209
G1 X-15.187 Y-13.093 E2.55498
G1 X-14.250 Y-15.141 E2.62787
G1 X-12.661 Y-16.736 E2.70077
G1 X-10.617 Y-17.681 E2.77366
G1 X-9.000 Y-17.889 E2.82642
G1 X9.000 Y-17.889 E3.40905
G1 X11.217 Y-17.492 E3.48194
G1 X13.158 Y-16.351 E3.55483
G1 X14.583 Y-14.607 E3.62772
G1 X15.314 Y-12.477 E3.70061
G1 X15.356 Y-10.847 E3.75338
G1 X13.001 Y12.094 E4.49987
G1 F600.000 E3.79987
G1 Z0.400 F7800.000
G92 E0
G1 X2.950 Y10.700 F7800.000
G1 Z0.200 F7800.000
G1 E0.70000 F600.000
G1 X-2.950 Y10.700 E0.89097 F540.000
G1 X-2.950 Y7.300 E1.00102
G1 X2.950 Y7.300 E1.19199
G1 X2.950 Y10.642 E1.30015
G1 X2.950 Y11.089 F7800.000
G1 X-6.107 Y10.911 F7800.000
G1 X-8.347 Y-10.911 E2.01018 F540.000
G1 X8.347 Y-10.911 E2.55054
G1 X6.107 Y10.911 E3.26057
G1 X3.339 Y10.911 E3.35015
G1 X3.339 Y6.911 E3.47962
G1 X-3.339 Y6.911 E3.69579
G1 X-3.339 Y10.911 E3.82526
G1 X-6.049 Y10.911 E3.91296
G1 X-6.458 Y11.300 F7800.000
G1 X-8.778 Y-11.300 E4.64832 F378.000
G1 X8.778 Y-11.300 E5.21660
G1 X6.458 Y11.300 E5.95196
G1 X-6.400 Y11.300 E6.36815
G1 X-6.287 Y10.950 F7800.000
G1 X-5.832 Y10.648 F7800.000
G1 X-5.874 Y10.606 E6.37009 F1080.000
G1 X-5.275 Y10.648 E6.38980
G1 X-5.938 Y9.985 E6.42058
G1 X-6.002 Y9.363 E6.44107
G1 X-4.717 Y10.648 E6.50068
G1 X-4.159 Y10.648 E6.51898
G1 X-6.066 Y8.741 E6.60743
G1 X-6.130 Y8.120 E6.62792
G1 X-3.602 Y10.648 E6.74518
G1 X-3.602 Y10.090 E6.76347
G1 X-6.193 Y7.498 E6.88369
G1 X-6.257 Y6.876 E6.90418
G1 X-3.602 Y9.532 E7.02735
G1 X-3.602 Y8.974 E7.04565
G1 X-6.321 Y6.255 E7.17178
G1 X-6.385 Y5.633 E7.19228
G1 X-3.602 Y8.416 E7.32137
G1 X-3.602 Y7.858 E7.33967
G1 X-6.449 Y5.012 E7.47172
G1 X-6.513 Y4.390 E7.49222
G1 X-3.602 Y7.301 E7.62724
G1 X-3.602 Y6.743 E7.64553
G1 X-6.576 Y3.768 E7.78351
G1 X-6.640 Y3.147 E7.80400
G1 X-3.138 Y6.648 E7.96643
G1 X-2.581 Y6.648 E7.98473
G1 X-6.704 Y2.525 E8.17599
G1 X-6.768 Y1.903 E8.19648
G1 X-2.023 Y6.648 E8.41658
G1 X-1.465 Y6.648 E8.43488
G1 X-6.832 Y1.282 E8.68381
G1 X-6.895 Y0.660 E8.70430
G1 X-0.907 Y6.648 E8.98207
G1 X-0.349 Y6.648 E9.00037
G1 X-6.959 Y0.038 E9.30697
G1 X-7.023 Y-0.583 E9.32747
G1 X0.209 Y6.648 E9.66290
G1 X0.766 Y6.648 E9.68120
G1 X-7.087 Y-1.205 E10.04547
G1 X-7.151 Y-1.827 E10.06597
G1 X1.324 Y6.648 E10.45908
G1 X1.882 Y6.648 E10.47737
G1 X-7.215 Y-2.448 E10.89932
G1 X-7.278 Y-3.070 E10.91981
G1 X2.440 Y6.648 E11.37059
G1 X2.998 Y6.648 E11.38889
G1 X-7.342 Y-3.692 E11.86850
G1 X-7.406 Y-4.313 E11.88900
G1 X6.027 Y9.120 E12.51208
G1 X5.975 Y9.625 E12.52876
G1 X3.602 Y7.252 E12.63884
G1 X3.602 Y7.810 E12.65714
G1 X5.923 Y10.131 E12.76481
G1 X5.857 Y10.623 E12.78110
G1 X3.602 Y8.368 E12.88572
G1 X3.602 Y8.926 E12.90401
G1 X5.324 Y10.648 E12.98391
G1 X4.766 Y10.648 E13.00221
G1 X3.602 Y9.484 E13.05623
G1 X3.602 Y10.041 E13.07453
G1 X4.209 Y10.648 E13.10268
G1 X3.651 Y10.648 E13.12098
G1 X3.602 Y10.599 E13.12325
G1 X6.079 Y8.614 F7800.000
G1 X-7.470 Y-4.935 E13.75170 F1080.000
G1 X-7.534 Y-5.557 E13.77220
G1 X6.131 Y8.108 E14.40601
G1 X6.183 Y7.602 E14.42269
G1 X-7.597 Y-6.178 E15.06188
G1 X-7.661 Y-6.800 E15.08238
G1 X6.235 Y7.096 E15.72694
G1 X6.287 Y6.590 E15.74362
G1 X-7.725 Y-7.422 E16.39354
G1 X-7.789 Y-8.043 E16.41404
G1 X6.339 Y6.084 E17.06933
G1 X6.390 Y5.578 E17.08601
G1 X-7.853 Y-8.665 E17.74668
G1 X-7.917 Y-9.287 E17.76718
G1 X6.442 Y5.072 E18.43321
G1 X6.494 Y4.566 E18.44989
G1 X-7.980 Y-9.908 E19.12129
G1 X-8.044 Y-10.530 E19.14179
G1 X6.546 Y4.061 E19.81856
G1 X6.598 Y3.555 E19.83524
G1 X-7.605 Y-10.648 E20.49404
G1 X-7.047 Y-10.648 E20.51233
G1 X6.650 Y3.049 E21.14766
G1 X6.702 Y2.543 E21.16434
G1 X-6.489 Y-10.648 E21.77620
G1 X-5.931 Y-10.648 E21.79450
G1 X6.754 Y2.037 E22.38289
G1 X6.806 Y1.531 E22.39957
G1 X-5.373 Y-10.648 E22.96450
G1 X-4.815 Y-10.648 E22.98280
G1 X6.858 Y1.025 E23.52426
G1 X6.910 Y0.519 E23.54094
G1 X-4.258 Y-10.648 E24.05894
G1 X-3.700 Y-10.648 E24.07724
G1 X6.962 Y0.013 E24.57177
G1 X7.014 Y-0.493 E24.58845
G1 X-3.142 Y-10.648 E25.05951
G1 X-2.584 Y-10.648 E25.07781
G1 X7.066 Y-0.998 E25.52541
G1 X7.118 Y-1.504 E25.54209
G1 X-2.026 Y-10.648 E25.96622
G1 X-1.468 Y-10.648 E25.98452
G1 X7.170 Y-2.010 E26.38519
G1 X7.221 Y-2.516 E26.40187
G1 X-0.911 Y-10.648 E26.77907
G1 X-0.353 Y-10.648 E26.79736
G1 X7.273 Y-3.022 E27.15110
G1 X7.325 Y-3.528 E27.16778
G1 X0.205 Y-10.648 E27.49805
G1 X0.763 Y-10.648 E27.51635
G1 X7.377 Y-4.034 E27.82315
G1 X7.429 Y-4.540 E27.83983
G1 X1.321 Y-10.648 E28.12317
G1 X1.879 Y-10.648 E28.14146
G1 X7.481 Y-5.046 E28.40133
G1 X7.533 Y-5.552 E28.41801
G1 X2.436 Y-10.648 E28.65442
G1 X2.994 Y-10.648 E28.67272
G1 X7.585 Y-6.058 E28.88565
G1 X7.637 Y-6.563 E28.90234
G1 X3.552 Y-10.648 E29.09181
G1 X4.110 Y-10.648 E29.11010
G1 X7.689 Y-7.069 E29.27611
G1 X7.741 Y-7.575 E29.29279
G1 X4.668 Y-10.648 E29.43533
G1 X5.226 Y-10.648 E29.45363
G1 X7.793 Y-8.081 E29.57271
G1 X7.845 Y-8.587 E29.58939
G1 X5.783 Y-10.648 E29.68500
G1 X6.341 Y-10.648 E29.70329
G1 X7.897 Y-9.093 E29.77543
G1 X7.949 Y-9.599 E29.79212
G1 X6.899 Y-10.648 E29.84079
G1 X7.457 Y-10.648 E29.85909
G1 X8.001 Y-10.105 E29.88430
G1 X8.052 Y-10.611 E29.90098
G1 X8.015 Y-10.648 E29.90273
G1 X3.054 Y10.964 F7800.000
G1 X3.075 Y10.985 E29.90323 F360.000
G1 X3.054 Y10.964 F7800.000
G1 X2.831 Y11.036 E29.90728 F360.000
G1 X2.760 Y10.964 E29.90903 F360.000
G1 X2.537 Y11.036 E29.91308 F360.000
G1 X2.466 Y10.964 E29.91483 F360.000
G1 X2.243 Y11.036 E29.91888 F360.000
G1 X2.171 Y10.964 E29.92063 F360.000
G1 X1.949 Y11.036 E29.92468 F360.000
G1 X1.877 Y10.964 E29.92643 F360.000
G1 X1.654 Y11.036 E29.93048 F360.000
G1 X1.583 Y10.964 E29.93223 F360.000
G1 X1.360 Y11.036 E29.93628 F360.000
G1 X1.289 Y10.964 E29.93803 F360.000
G1 X1.066 Y11.036 E29.94207 F360.000
G1 X0.994 Y10.964 E29.94383 F360.000
G1 X0.771 Y11.036 E29.94787 F360.000
G1 X0.700 Y10.964 E29.94962 F360.000
G1 X0.477 Y11.036 E29.95367 F360.000
G1 X0.406 Y10.964 E29.95542 F360.000
G1 X0.183 Y11.036 E29.95947 F360.000
G1 X0.111 Y10.964 E29.96122 F360.000
G1 X-0.111 Y11.036 E29.96527 F360.000
G1 X-0.183 Y10.964 E29.96702 F360.000
G1 X-0.406 Y11.036 E29.97107 F360.000
G1 X-0.477 Y10.964 E29.97282 F360.000
G1 X-0.700 Y11.036 E29.97687 F360.000
G1 X-0.771 Y10.964 E29.97862 F360.000
G1 X-0.994 Y11.036 E29.98267 F360.000
G1 X-1.066 Y10.964 E29.98442 F360.000
G1 X-1.289 Y11.036 E29.98846 F360.000
G1 X-1.360 Y10.964 E29.99021 F360.000
G1 X-1.583 Y11.036 E29.99426 F360.000
G1 X-1.654 Y10.964 E29.99601 F360.000
G1 X-1.877 Y11.036 E30.00006 F360.000
G1 X-1.949 Y10.964 E30.00181 F360.000
G1 X-2.171 Y11.036 E30.00586 F360.000
G1 X-2.243 Y10.964 E30.00761 F360.000
G1 X-2.466 Y11.036 E30.01166 F360.000
G1 X-2.537 Y10.964 E30.01341 F360.000
G1 X-2.760 Y11.036 E30.01746 F360.000
G1 X-2.831 Y10.964 E30.01921 F360.000
G1 X-3.075 Y11.015 E30.02351 F360.000
G1 X-3.054 Y11.036 E30.02402 F360.000
M106 S255
G1 F600.000 E29.32402
G1 Z0.580 F7800.000
G92 E0
G1 X-2.925 Y10.675 F7800.000
G1 Z0.380 F7800.000
G1 E0.70000 F600.000
G1 X-2.925 Y7.325 E0.78774 F986.706
G1 X2.925 Y7.325 E0.94097
G1 X2.925 Y10.675 E1.02871
G1 X-2.873 Y10.675 E1.18056
G1 X-3.275 Y10.675 F7800.000
G1 X-6.165 Y10.975 F7800.000
G1 X-8.418 Y-10.975 E1.75851 F986.706
G1 X8.418 Y-10.975 E2.19950
G1 X6.165 Y10.975 E2.77744
G1 X3.275 Y10.975 E2.85314
G1 X3.275 Y6.975 E2.95791
G1 X-3.275 Y6.975 E3.12947
G1 X-3.275 Y10.975 E3.23424
G1 X-6.112 Y10.975 E3.30856
G1 X-6.481 Y11.325 F7800.000
G1 X-8.806 Y-11.325 E3.90493 F690.694
G1 X8.806 Y-11.325 E4.36624
G1 X6.481 Y11.325 E4.96261
G1 X-6.428 Y11.325 E5.30073
G1 X-6.327 Y11.011 F7800.000
G1 X-6.184 Y8.162 F7800.000
G1 X7.599 Y-5.622 E6.09340 F1973.412
G1 X7.687 Y-6.478 E6.12841
G1 X-6.256 Y7.465 E6.93024
G1 X-6.327 Y6.768 E6.95873
G1 X7.775 Y-7.335 E7.76973
G1 X7.863 Y-8.191 E7.80474
G1 X-6.399 Y6.071 E8.62492
G1 X-6.470 Y5.374 E8.65341
G1 X7.951 Y-9.047 E9.48275
G1 X8.039 Y-9.904 E9.51776
G1 X-6.542 Y4.677 E10.35628
G1 X-6.614 Y3.980 E10.38477
G1 X8.069 Y-10.702 E11.22912
G1 X7.305 Y-10.707 E11.26017
G1 X-6.685 Y3.283 E12.06472
G1 X-6.757 Y2.586 E12.09321
G1 X6.537 Y-10.707 E12.85768
G1 X5.768 Y-10.707 E12.88893
G1 X-6.828 Y1.889 E13.61333
G1 X-6.900 Y1.193 E13.64182
G1 X5.000 Y-10.707 E14.32613
G1 X4.231 Y-10.707 E14.35738
G1 X-6.971 Y0.496 E15.00162
G1 X-7.043 Y-0.201 E15.03011
G1 X3.463 Y-10.707 E15.63426
G1 X2.694 Y-10.707 E15.66551
G1 X-7.114 Y-0.898 E16.22959
G1 X-7.186 Y-1.595 E16.25808
G1 X1.926 Y-10.707 E16.78209
G1 X1.157 Y-10.707 E16.81333
G1 X-7.257 Y-2.292 E17.29726
G1 X-7.329 Y-2.989 E17.32575
G1 X0.389 Y-10.707 E17.76959
G1 X-0.379 Y-10.707 E17.80084
G1 X-7.401 Y-3.686 E18.20461
G1 X-7.472 Y-4.383 E18.23310
G1 X-1.148 Y-10.707 E18.59679
G1 X-1.916 Y-10.707 E18.62804
G1 X-7.544 Y-5.080 E18.95165
G1 X-7.615 Y-5.777 E18.98014
G1 X-2.685 Y-10.707 E19.26367
G1 X-3.453 Y-10.707 E19.29492
G1 X-7.687 Y-6.474 E19.53838
G1 X-7.758 Y-7.170 E19.56687
G1 X-4.222 Y-10.707 E19.77024
G1 X-4.990 Y-10.707 E19.80149
G1 X-7.830 Y-7.867 E19.96479
G1 X-7.901 Y-8.564 E19.99328
G1 X-5.759 Y-10.707 E20.11650
G1 X-6.527 Y-10.707 E20.14775
G1 X-7.973 Y-9.261 E20.23089
G1 X-8.044 Y-9.958 E20.25938
G1 X-7.296 Y-10.707 E20.30245
G1 X-8.064 Y-10.707 E20.33369
G1 X-8.116 Y-10.655 E20.33668
G1 X-3.543 Y10.131 F7800.000
G1 X-4.119 Y10.707 E20.36979 F1973.412
G1 X-4.887 Y10.707 E20.40103
G1 X-3.543 Y9.363 E20.47833
G1 X-3.543 Y8.594 E20.50958
G1 X-5.656 Y10.707 E20.63107
G1 X-5.970 Y10.252 E20.65353
G1 X-3.543 Y7.826 E20.79308
G1 X-3.543 Y7.057 E20.82433
G1 X-6.041 Y9.556 E20.96799
G1 X-6.113 Y8.859 E20.99648
G1 X7.511 Y-4.765 E21.77997
G1 X7.423 Y-3.909 E21.81498
G1 X-3.193 Y6.707 E22.42548
G1 X-2.424 Y6.707 E22.45673
G1 X7.336 Y-3.053 E23.01799
G1 X7.248 Y-2.196 E23.05300
G1 X-1.656 Y6.707 E23.56501
G1 X-0.887 Y6.707 E23.59626
G1 X7.160 Y-1.340 E24.05902
G1 X7.072 Y-0.484 E24.09402
G1 X-0.119 Y6.707 E24.50754
G1 X0.650 Y6.707 E24.53878
G1 X6.984 Y0.373 E24.90305
G1 X6.896 Y1.229 E24.93806
G1 X1.418 Y6.707 E25.25307
G1 X2.187 Y6.707 E25.28432
G1 X6.808 Y2.086 E25.55009
G1 X6.720 Y2.942 E25.58509
G1 X2.955 Y6.707 E25.80161
G1 X3.543 Y6.887 E25.82662
G1 X6.632 Y3.798 E26.00427
G1 X6.544 Y4.655 E26.03928
G1 X3.543 Y7.656 E26.21187
G1 X3.543 Y8.424 E26.24312
G1 X6.456 Y5.511 E26.41066
G1 X6.368 Y6.367 E26.44567
G1 X3.543 Y9.193 E26.60815
G1 X3.543 Y9.961 E26.63940
G1 X6.281 Y7.224 E26.79682
G1 X6.193 Y8.080 E26.83183
G1 X3.566 Y10.707 E26.98289
G1 X4.334 Y10.707 E27.01414
G1 X6.105 Y8.937 E27.11595
G1 X6.017 Y9.793 E27.15095
G1 X5.103 Y10.707 E27.20352
G1 X5.871 Y10.707 E27.23477
G1 X5.929 Y10.649 E27.23808
G1 X3.040 Y11.070 F7800.000
G1 X3.020 Y11.090 E27.23846 F657.804
G1 X2.929 Y10.910 E27.24134 F657.804
G1 X2.750 Y11.090 E27.24497 F657.804
G1 X2.659 Y10.910 E27.24784 F657.804
G1 X2.480 Y11.090 E27.25147 F657.804
G1 X2.388 Y10.910 E27.25435 F657.804
G1 X2.209 Y11.090 E27.25797 F657.804
G1 X2.118 Y10.910 E27.26085 F657.804
G1 X1.939 Y11.090 E27.26447 F657.804
G1 X1.847 Y10.910 E27.26735 F657.804
G1 X1.668 Y11.090 E27.27098 F657.804
G1 X1.577 Y10.910 E27.27385 F657.804
G1 X1.398 Y11.090 E27.27748 F657.804
G1 X1.307 Y10.910 E27.28036 F657.804
G1 X1.127 Y11.090 E27.28398 F657.804
G1 X1.036 Y10.910 E27.28686 F657.804
G1 X0.857 Y11.090 E27.29048 F657.804
G1 X0.766 Y10.910 E27.29336 F657.804
G1 X0.587 Y11.090 E27.29699 F657.804
G1 X0.495 Y10.910 E27.29986 F657.804
G1 X0.316 Y11.090 E27.30349 F657.804
G1 X0.225 Y10.910 E27.30637 F657.804
G1 X0.046 Y11.090 E27.30999 F657.804
G1 X-0.046 Y10.910 E27.31287 F657.804
G1 X-0.225 Y11.090 E27.31649 F657.804
G1 X-0.316 Y10.910 E27.31937 F657.804
G1 X-0.495 Y11.090 E27.32300 F657.804
G1 X-0.587 Y10.910 E27.32587 F657.804
G1 X-0.766 Y11.090 E27.32950 F657.804
G1 X-0.857 Y10.910 E27.33238 F657.804
G1 X-1.036 Y11.090 E27.33600 F657.804
G1 X-1.127 Y10.910 E27.33888 F657.804
G1 X-1.307 Y11.090 E27.34250 F657.804
G1 X-1.398 Y10.910 E27.34538 F657.804
G1 X-1.577 Y11.090 E27.34901 F657.804
G1 X-1.668 Y10.910 E27.35188 F657.804
G1 X-1.847 Y11.090 E27.35551 F657.804
G1 X-1.939 Y10.910 E27.35838 F657.804
G1 X-2.118 Y11.090 E27.36201 F657.804
G1 X-2.209 Y10.910 E27.36489 F657.804
G1 X-2.388 Y11.090 E27.36851 F657.804
G1 X-2.480 Y10.910 E27.37139 F657.804
G1 X-2.659 Y11.090 E27.37501 F657.804
G1 X-2.750 Y10.910 E27.37789 F657.804
G1 X-2.929 Y11.090 E27.38152 F657.804
G1 X-3.040 Y10.930 E27.38430 F657.804
G1 X-3.020 Y10.910 E27.38469 F657.804
G1 F600.000 E26.68469
G1 Z0.760 F7800.000
G92 E0
G1 X-2.925 Y10.675 F7800.000
G1 Z0.560 F7800.000
G1 E0.70000 F600.000
G1 X-2.925 Y7.325 E0.78774 F807.664
G1 X2.925 Y7.325 E0.94097
G1 X2.925 Y10.675 E1.02871
G1 X-2.873 Y10.675 E1.18056
G1 X-3.275 Y10.675 F7800.000
G1 X6.165 Y10.975 F7800.000
G1 X3.275 Y10.975 E1.25626 F807.664
G1 X3.275 Y6.975 E1.36103
G1 X-3.275 Y6.975 E1.53259
G1 X-3.275 Y10.975 E1.63736
G1 X-6.165 Y10.975 E1.71305
G1 X-8.418 Y-10.975 E2.29099
G1 X8.418 Y-10.975 E2.73199
G1 X6.170 Y10.923 E3.30856
G1 X6.481 Y11.325 F7800.000
G1 X-6.481 Y11.325 E3.64805 F600.000
G1 X-8.806 Y-11.325 E4.24443
G1 X8.806 Y-11.325 E4.70573
G1 X6.486 Y11.273 E5.30073
G1 X6.184 Y11.140 F7800.000
G1 X4.946 Y10.680 F7800.000
G1 X5.139 Y9.958 E5.33063 F1615.328
G1 X5.536 Y9.851 E5.34709
G1 X5.882 Y8.560 E5.40058
G1 X5.592 Y8.269 E5.41703
G1 X5.938 Y6.977 E5.47052
G1 X6.288 Y6.883 E5.48504
G1 X6.446 Y5.344 E5.54693
G1 X6.390 Y5.288 E5.55010
G1 X6.490 Y4.915 E5.56556
G1 X3.570 Y6.863 F7800.000
G1 X3.700 Y6.378 E5.58567 F1615.328
G1 X3.409 Y6.087 E5.60213
G1 X3.756 Y4.795 E5.65562
G1 X4.153 Y4.688 E5.67208
G1 X4.499 Y3.397 E5.72557
G1 X4.208 Y3.106 E5.74203
G1 X4.554 Y1.814 E5.79552
G1 X4.952 Y1.708 E5.81198
G1 X5.298 Y0.416 E5.86547
G1 X5.007 Y0.125 E5.88192
G1 X5.353 Y-1.167 E5.93541
G1 X5.750 Y-1.273 E5.95187
G1 X6.097 Y-2.565 E6.00536
G1 X5.806 Y-2.856 E6.02182
G1 X6.152 Y-4.148 E6.07531
G1 X6.549 Y-4.254 E6.09177
G1 X6.895 Y-5.546 E6.14526
G1 X6.604 Y-5.837 E6.16172
G1 X6.950 Y-7.128 E6.21521
G1 X7.348 Y-7.235 E6.23167
G1 X7.694 Y-8.527 E6.28516
G1 X7.403 Y-8.818 E6.30162
G1 X7.749 Y-10.109 E6.35511
G1 X8.041 Y-10.187 E6.36718
G1 X7.554 Y-5.446 F7800.000
G1 X7.412 Y-5.407 E6.37308 F1615.328
G1 X7.065 Y-4.116 E6.42657
G1 X7.356 Y-3.825 E6.44303
G1 X7.010 Y-2.533 E6.49652
G1 X6.613 Y-2.427 E6.51297
G1 X6.267 Y-1.135 E6.56647
G1 X6.558 Y-0.844 E6.58292
G1 X6.212 Y0.448 E6.63641
G1 X5.814 Y0.554 E6.65287
G1 X5.468 Y1.846 E6.70636
G1 X5.759 Y2.137 E6.72282
G1 X5.413 Y3.429 E6.77631
G1 X5.015 Y3.535 E6.79277
G1 X4.669 Y4.827 E6.84626
G1 X4.960 Y5.118 E6.86272
G1 X4.614 Y6.409 E6.91621
G1 X4.217 Y6.516 E6.93267
G1 X3.871 Y7.808 E6.98616
G1 X4.162 Y8.099 E7.00262
G1 X3.815 Y9.390 E7.05611
G1 X3.570 Y9.456 E7.06626
G1 X4.392 Y10.680 E7.12523
G1 X4.623 Y9.820 E7.16085
G1 X4.332 Y9.529 E7.17731
G1 X4.678 Y8.237 E7.23080
G1 X5.075 Y8.130 E7.24726
G1 X5.421 Y6.839 E7.30075
G1 X5.130 Y6.548 E7.31720
G1 X5.477 Y5.256 E7.37070
G1 X5.874 Y5.150 E7.38715
G1 X6.220 Y3.858 E7.44064
G1 X5.929 Y3.567 E7.45710
G1 X6.275 Y2.275 E7.51059
