; generated by Slic3r 1.0.1-dev on 2014-02-15 at 14:36:16

; layer_height = 0.18
; perimeters = 2
; top_solid_layers = 3
; bottom_solid_layers = 2
; fill_density = 0.3
; perimeter_speed = 30
; infill_speed = 60
; travel_speed = 130
; nozzle_diameter = 0.35
; filament_diameter = 1.75
; extrusion_multiplier = 1
; perimeters extrusion width = 0.35mm
; infill extrusion width = 0.57mm
; solid infill extrusion width = 0.57mm
; top infill extrusion width = 0.57mm
; first layer extrusion width = 0.40mm

G21 ; set units to millimeters
M107
M190 S80 ; wait for bed temperature to be reached
M104 S200 ; set temperature
G28
G92 X0 Y0 Z0 E0
G1 F5000 Y30 X30
G1 X220
G1 F100 E10
G28
G92 X0 Y0 Z0
G1 F4000 X101 Y127
G92 X0 Y0 Z0 E0
M106 S255
M109 S200 ; wait for temperature to be reached
G90 ; use absolute coordinates
G92 E0
M82 ; use absolute distances for extrusion
G1 F600.000 E-0.70000
G1 Z0.400 F7800.000
G92 E0
G1 X12.995 Y12.153 F7800.000
G1 Z0.200 F7800.000
G1 E0.70000 F600.000
G1 X12.373 Y14.317 E0.77289 F540.000
G1 X11.040 Y16.132 E0.84578
G1 X9.160 Y17.371 E0.91868
G1 X6.639 Y17.889 E1.00197
G1 X-6.639 Y17.889 E1.43174
G1 X-8.856 Y17.492 E1.50463
G1 X-10.797 Y16.351 E1.57753
G1 X-12.222 Y14.607 E1.65042
G1 X-12.995 Y12.153 E1.73372
G1 X-15.356 Y-10.847 E2.48209
G1 X-15.187 Y-13.093 E2.55498
G1 X-14.250 Y-15.141 E2.62787
G1 X-12.661 Y-16.736 E2.70077
G1 X-10.617 Y-17.681 E2.77366
G1 X-9.000 Y-17.889 E2.82642
G1 X9.000 Y-17.889 E3.40905
G1 X11.217 Y-17.492 E3.48194
G1 X13.158 Y-16.351 E3.55483
G1 X14.583 Y-14.607 E3.62772
G1 X15.314 Y-12.477 E3.70061
G1 X15.356 Y-10.847 E3.75338
G1 X13.001 Y12.094 E4.49987
G1 F600.000 E3.79987
G1 Z0.400 F7800.000
G92 E0
G1 X2.950 Y10.700 F7800.000
G1 Z0.200 F7800.000
G1 E0.70000 F600.000
G1 X-2.950 Y10.700 E0.89097 F540.000
G1 X-2.950 Y7.300 E1.00102
G1 X2.950 Y7.300 E1.19199
G1 X2.950 Y10.642 E1.30015
G1 X2.950 Y11.089 F7800.000
G1 F600.000 E0.60015
G1 Z0.400 F7800.000
G92 E0
G1 X-8.347 Y-10.911 F7800.000
G1 Z0.200 F7800.000
G1 E0.70000 F600.000
G1 X8.347 Y-10.911 E1.24036 F540.000
G1 X6.107 Y10.911 E1.95039
G1 X3.339 Y10.911 E2.03997
G1 X3.339 Y6.911 E2.16944
G1 X-3.339 Y6.911 E2.38561
G1 X-3.339 Y10.911 E2.51508
G1 X-6.107 Y10.911 E2.60467
G1 X-8.341 Y-10.853 E3.31280
G1 X-8.778 Y-11.300 F7800.000
G1 X8.778 Y-11.300 E3.88108 F378.000
G1 X6.458 Y11.300 E4.61644
G1 X-6.458 Y11.300 E5.03452
G1 X-8.772 Y-11.242 E5.76799
G1 X-8.435 Y-11.117 F7800.000
G1 X8.015 Y-10.648 F7800.000
G1 X8.052 Y-10.611 E5.76974 F1080.000
G1 X8.001 Y-10.105 E5.78642
G1 X7.457 Y-10.648 E5.81163
G1 X6.899 Y-10.648 E5.82993
G1 X7.949 Y-9.599 E5.87860
G1 X7.897 Y-9.093 E5.89528
G1 X6.341 Y-10.648 E5.96743
G1 X5.783 Y-10.648 E5.98572
G1 X7.845 Y-8.587 E6.08133
G1 X7.793 Y-8.081 E6.09801
G1 X5.226 Y-10.648 E6.21709
G1 X4.668 Y-10.648 E6.23539
G1 X7.741 Y-7.575 E6.37793
G1 X7.689 Y-7.069 E6.39461
G1 X4.110 Y-10.648 E6.56061
G1 X3.552 Y-10.648 E6.57891
G1 X7.637 Y-6.563 E6.76838
G1 X7.585 Y-6.058 E6.78506
G1 X2.994 Y-10.648 E6.99800
G1 X2.436 Y-10.648 E7.01630
G1 X7.533 Y-5.552 E7.25271
G1 X7.481 Y-5.046 E7.26939
G1 X1.879 Y-10.648 E7.52926
G1 X1.321 Y-10.648 E7.54755
G1 X7.429 Y-4.540 E7.83089
G1 X7.377 Y-4.034 E7.84757
G1 X0.763 Y-10.648 E8.15437
G1 X0.205 Y-10.648 E8.17267
G1 X7.325 Y-3.528 E8.50294
G1 X7.273 Y-3.022 E8.51962
G1 X-0.353 Y-10.648 E8.87336
G1 X-0.911 Y-10.648 E8.89165
G1 X7.221 Y-2.516 E9.26885
G1 X7.170 Y-2.010 E9.28553
G1 X-1.468 Y-10.648 E9.68620
G1 X-2.026 Y-10.648 E9.70450
G1 X7.118 Y-1.504 E10.12863
G1 X7.066 Y-0.998 E10.14531
G1 X-2.584 Y-10.648 E10.59291
G1 X-3.142 Y-10.648 E10.61121
G1 X7.014 Y-0.493 E11.08227
G1 X6.962 Y0.013 E11.09895
G1 X-3.700 Y-10.648 E11.59348
G1 X-4.258 Y-10.648 E11.61178
G1 X6.910 Y0.519 E12.12978
G1 X6.858 Y1.025 E12.14646
G1 X-4.815 Y-10.648 E12.68792
G1 X-5.373 Y-10.648 E12.70622
G1 X6.806 Y1.531 E13.27115
G1 X6.754 Y2.037 E13.28783
G1 X-5.931 Y-10.648 E13.87622
G1 X-6.489 Y-10.648 E13.89452
G1 X6.702 Y2.543 E14.50638
G1 X6.650 Y3.049 E14.52306
G1 X-7.047 Y-10.648 E15.15839
G1 X-7.605 Y-10.648 E15.17668
G1 X6.598 Y3.555 E15.83548
G1 X6.546 Y4.061 E15.85216
G1 X-8.044 Y-10.530 E16.52893
G1 X-7.980 Y-9.908 E16.54943
G1 X6.494 Y4.566 E17.22083
G1 X6.442 Y5.072 E17.23751
G1 X-7.917 Y-9.287 E17.90354
G1 X-7.853 Y-8.665 E17.92404
G1 X6.390 Y5.578 E18.58471
G1 X6.339 Y6.084 E18.60139
G1 X-7.789 Y-8.043 E19.25668
G1 X-7.725 Y-7.422 E19.27718
G1 X6.287 Y6.590 E19.92710
G1 X6.235 Y7.096 E19.94378
G1 X-7.661 Y-6.800 E20.58834
G1 X-7.597 Y-6.178 E20.60884
G1 X6.183 Y7.602 E21.24803
G1 X6.131 Y8.108 E21.26471
G1 X-7.534 Y-5.557 E21.89852
G1 X-7.470 Y-4.935 E21.91902
G1 X6.079 Y8.614 E22.54747
G1 X3.602 Y10.599 F7800.000
G1 X3.651 Y10.648 E22.54974 F1080.000
G1 X4.209 Y10.648 E22.56804
G1 X3.602 Y10.041 E22.59619
G1 X3.602 Y9.484 E22.61449
G1 X4.766 Y10.648 E22.66851
G1 X5.324 Y10.648 E22.68681
G1 X3.602 Y8.926 E22.76671
G1 X3.602 Y8.368 E22.78500
G1 X5.857 Y10.623 E22.88962
G1 X5.923 Y10.131 E22.90591
G1 X3.602 Y7.810 E23.01358
G1 X3.602 Y7.252 E23.03188
G1 X5.975 Y9.625 E23.14196
G1 X6.027 Y9.120 E23.15864
G1 X-7.406 Y-4.313 E23.78172
G1 X-7.342 Y-3.692 E23.80222
G1 X2.998 Y6.648 E24.28183
G1 X2.440 Y6.648 E24.30013
G1 X-7.278 Y-3.070 E24.75091
G1 X-7.215 Y-2.448 E24.77140
G1 X1.882 Y6.648 E25.19335
G1 X1.324 Y6.648 E25.21164
G1 X-7.151 Y-1.827 E25.60475
G1 X-7.087 Y-1.205 E25.62525
G1 X0.766 Y6.648 E25.98952
G1 X0.209 Y6.648 E26.00782
G1 X-7.023 Y-0.583 E26.34325
G1 X-6.959 Y0.038 E26.36375
G1 X-0.349 Y6.648 E26.67035
G1 X-0.907 Y6.648 E26.68865
G1 X-6.895 Y0.660 E26.96642
G1 X-6.832 Y1.282 E26.98691
G1 X-1.465 Y6.648 E27.23584
G1 X-2.023 Y6.648 E27.25414
G1 X-6.768 Y1.903 E27.47424
G1 X-6.704 Y2.525 E27.49473
G1 X-2.581 Y6.648 E27.68599
G1 X-3.138 Y6.648 E27.70429
G1 X-6.640 Y3.147 E27.86672
G1 X-6.576 Y3.768 E27.88721
G1 X-3.602 Y6.743 E28.02519
G1 X-3.602 Y7.301 E28.04348
G1 X-6.513 Y4.390 E28.17850
G1 X-6.449 Y5.012 E28.19900
G1 X-3.602 Y7.858 E28.33105
G1 X-3.602 Y8.416 E28.34935
G1 X-6.385 Y5.633 E28.47844
G1 X-6.321 Y6.255 E28.49894
G1 X-3.602 Y8.974 E28.62507
G1 X-3.602 Y9.532 E28.64337
G1 X-6.257 Y6.876 E28.76654
G1 X-6.193 Y7.498 E28.78703
G1 X-3.602 Y10.090 E28.90725
G1 X-3.602 Y10.648 E28.92554
G1 X-6.130 Y8.120 E29.04280
G1 X-6.066 Y8.741 E29.06329
G1 X-4.159 Y10.648 E29.15174
G1 X-4.717 Y10.648 E29.17003
G1 X-6.002 Y9.363 E29.22965
G1 X-5.938 Y9.985 E29.25014
G1 X-5.275 Y10.648 E29.28092
G1 X-5.874 Y10.606 E29.30063
G1 X-5.832 Y10.648 E29.30257
G1 X-3.075 Y11.015 F7800.000
G1 X-2.831 Y10.964 E29.30688 F360.000
G1 X-2.760 Y11.036 E29.30863 F360.000
G1 X-2.537 Y10.964 E29.31268 F360.000
G1 X-2.466 Y11.036 E29.31443 F360.000
G1 X-2.243 Y10.964 E29.31847 F360.000
G1 X-2.171 Y11.036 E29.32023 F360.000
G1 X-1.949 Y10.964 E29.32427 F360.000
G1 X-1.877 Y11.036 E29.32602 F360.000
G1 X-1.654 Y10.964 E29.33007 F360.000
G1 X-1.583 Y11.036 E29.33182 F360.000
G1 X-1.360 Y10.964 E29.33587 F360.000
G1 X-1.289 Y11.036 E29.33762 F360.000
G1 X-1.066 Y10.964 E29.34167 F360.000
G1 X-0.994 Y11.036 E29.34342 F360.000
G1 X-0.771 Y10.964 E29.34747 F360.000
G1 X-0.700 Y11.036 E29.34922 F360.000
G1 X-0.477 Y10.964 E29.35327 F360.000
G1 X-0.406 Y11.036 E29.35502 F360.000
G1 X-0.183 Y10.964 E29.35907 F360.000
G1 X-0.111 Y11.036 E29.36082 F360.000
G1 X0.111 Y10.964 E29.36486 F360.000
G1 X0.183 Y11.036 E29.36661 F360.000
G1 X0.406 Y10.964 E29.37066 F360.000
G1 X0.477 Y11.036 E29.37241 F360.000
G1 X0.700 Y10.964 E29.37646 F360.000
G1 X0.771 Y11.036 E29.37821 F360.000
G1 X0.994 Y10.964 E29.38226 F360.000
G1 X1.066 Y11.036 E29.38401 F360.000
G1 X1.289 Y10.964 E29.38806 F360.000
G1 X1.360 Y11.036 E29.38981 F360.000
G1 X1.583 Y10.964 E29.39386 F360.000
G1 X1.654 Y11.036 E29.39561 F360.000
G1 X1.877 Y10.964 E29.39966 F360.000
G1 X1.949 Y11.036 E29.40141 F360.000
G1 X2.171 Y10.964 E29.40545 F360.000
G1 X2.243 Y11.036 E29.40720 F360.000
G1 X2.466 Y10.964 E29.41125 F360.000
G1 X2.537 Y11.036 E29.41300 F360.000
G1 X2.760 Y10.964 E29.41705 F360.000
G1 X2.831 Y11.036 E29.41880 F360.000
G1 X3.054 Y10.964 E29.42285 F360.000
G1 X3.075 Y10.985 E29.42336 F360.000
G1 X-3.054 Y11.036 F7800.000
G1 X-3.075 Y11.015 E29.42387 F360.000
M106 S255
G1 F600.000 E28.72387
G1 Z0.580 F7800.000
G92 E0
G1 X-2.925 Y10.675 F7800.000
G1 Z0.380 F7800.000
G1 E0.70000 F600.000
G1 X-2.925 Y7.325 E0.78774 F986.706
G1 X2.925 Y7.325 E0.94097
G1 X2.925 Y10.675 E1.02871
G1 X-2.873 Y10.675 E1.18056
G1 X-3.275 Y10.675 F7800.000
G1 X-6.165 Y10.975 F7800.000
G1 X-8.418 Y-10.975 E1.75851 F986.706
G1 X8.418 Y-10.975 E2.19950
G1 X6.165 Y10.975 E2.77744
G1 X3.275 Y10.975 E2.85314
G1 X3.275 Y6.975 E2.95791
G1 X-3.275 Y6.975 E3.12947
G1 X-3.275 Y10.975 E3.23424
G1 X-6.112 Y10.975 E3.30856
G1 X-6.481 Y11.325 F7800.000
G1 X-8.806 Y-11.325 E3.90493 F690.694
G1 X8.806 Y-11.325 E4.36624
G1 X6.481 Y11.325 E4.96261
G1 X-6.428 Y11.325 E5.30073
G1 X-6.327 Y11.011 F7800.000
G1 X-6.184 Y8.162 F7800.000
G1 X7.599 Y-5.622 E6.09340 F1973.412
G1 X7.687 Y-6.478 E6.12841
G1 X-6.256 Y7.465 E6.93024
G1 X-6.327 Y6.768 E6.95873
G1 X7.775 Y-7.335 E7.76973
G1 X7.863 Y-8.191 E7.80474
G1 X-6.399 Y6.071 E8.62492
G1 X-6.470 Y5.374 E8.65341
G1 X7.951 Y-9.047 E9.48275
G1 X8.039 Y-9.904 E9.51776
G1 X-6.542 Y4.677 E10.35628
G1 X-6.614 Y3.980 E10.38477
G1 X8.069 Y-10.702 E11.22912
G1 X7.305 Y-10.707 E11.26017
G1 X-6.685 Y3.283 E12.06472
G1 X-6.757 Y2.586 E12.09321
G1 X6.537 Y-10.707 E12.85768
G1 X5.768 Y-10.707 E12.88893
G1 X-6.828 Y1.889 E13.61333
G1 X-6.900 Y1.193 E13.64182
G1 X5.000 Y-10.707 E14.32613
G1 X4.231 Y-10.707 E14.35738
G1 X-6.971 Y0.496 E15.00162
G1 X-7.043 Y-0.201 E15.03011
G1 X3.463 Y-10.707 E15.63426
G1 X2.694 Y-10.707 E15.66551
G1 X-7.114 Y-0.898 E16.22959
G1 X-7.186 Y-1.595 E16.25808
G1 X1.926 Y-10.707 E16.78209
G1 X1.157 Y-10.707 E16.81333
G1 X-7.257 Y-2.292 E17.29726
G1 X-7.329 Y-2.989 E17.32575
G1 X0.389 Y-10.707 E17.76959
G1 X-0.379 Y-10.707 E17.80084
G1 X-7.401 Y-3.686 E18.20461
G1 X-7.472 Y-4.383 E18.23310
G1 X-1.148 Y-10.707 E18.59679
G1 X-1.916 Y-10.707 E18.62804
G1 X-7.544 Y-5.080 E18.95165
G1 X-7.615 Y-5.777 E18.98014
G1 X-2.685 Y-10.707 E19.26367
G1 X-3.453 Y-10.707 E19.29492
G1 X-7.687 Y-6.474 E19.53838
G1 X-7.758 Y-7.170 E19.56687
G1 X-4.222 Y-10.707 E19.77024
G1 X-4.990 Y-10.707 E19.80149
G1 X-7.830 Y-7.867 E19.96479
G1 X-7.901 Y-8.564 E19.99328
G1 X-5.759 Y-10.707 E20.11650
G1 X-6.527 Y-10.707 E20.14775
G1 X-7.973 Y-9.261 E20.23089
G1 X-8.044 Y-9.958 E20.25938
G1 X-7.296 Y-10.707 E20.30245
G1 X-8.064 Y-10.707 E20.33369
G1 X-8.116 Y-10.655 E20.33668
G1 X-3.543 Y10.131 F7800.000
G1 X-4.119 Y10.707 E20.36979 F1973.412
G1 X-4.887 Y10.707 E20.40103
G1 X-3.543 Y9.363 E20.47833
G1 X-3.543 Y8.594 E20.50958
G1 X-5.656 Y10.707 E20.63107
G1 X-5.970 Y10.252 E20.65353
G1 X-3.543 Y7.826 E20.79308
G1 X-3.543 Y7.057 E20.82433
G1 X-6.041 Y9.556 E20.96799
G1 X-6.113 Y8.859 E20.99648
G1 X7.511 Y-4.765 E21.77997
G1 X7.423 Y-3.909 E21.81498
G1 X-3.193 Y6.707 E22.42548
G1 X-2.424 Y6.707 E22.45673
G1 X7.336 Y-3.053 E23.01799
G1 X7.248 Y-2.196 E23.05300
G1 X-1.656 Y6.707 E23.56501
G1 X-0.887 Y6.707 E23.59626
G1 X7.160 Y-1.340 E24.05902
G1 X7.072 Y-0.484 E24.09402
G1 X-0.119 Y6.707 E24.50754
G1 X0.650 Y6.707 E24.53878
G1 X6.984 Y0.373 E24.90305
G1 X6.896 Y1.229 E24.93806
G1 X1.418 Y6.707 E25.25307
G1 X2.187 Y6.707 E25.28432
G1 X6.808 Y2.086 E25.55009
G1 X6.720 Y2.942 E25.58509
G1 X2.955 Y6.707 E25.80161
G1 X3.543 Y6.887 E25.82662
G1 X6.632 Y3.798 E26.00427
G1 X6.544 Y4.655 E26.03928
G1 X3.543 Y7.656 E26.21187
G1 X3.543 Y8.424 E26.24312
G1 X6.456 Y5.511 E26.41066
G1 X6.368 Y6.367 E26.44567
G1 X3.543 Y9.193 E26.60815
G1 X3.543 Y9.961 E26.63940
G1 X6.281 Y7.224 E26.79682
G1 X6.193 Y8.080 E26.83183
G1 X3.566 Y10.707 E26.98289
G1 X4.334 Y10.707 E27.01414
G1 X6.105 Y8.937 E27.11595
G1 X6.017 Y9.793 E27.15095
G1 X5.103 Y10.707 E27.20352
G1 X5.871 Y10.707 E27.23477
G1 X5.929 Y10.649 E27.23808
G1 X3.040 Y11.070 F7800.000
G1 X3.020 Y11.090 E27.23846 F657.804
G1 X2.929 Y10.910 E27.24134 F657.804
G1 X2.750 Y11.090 E27.24497 F657.804
G1 X2.659 Y10.910 E27.24784 F657.804
G1 X2.480 Y11.090 E27.25147 F657.804
G1 X2.388 Y10.910 E27.25435 F657.804
G1 X2.209 Y11.090 E27.25797 F657.804
G1 X2.118 Y10.910 E27.26085 F657.804
G1 X1.939 Y11.090 E27.26447 F657.804
G1 X1.847 Y10.910 E27.26735 F657.804
G1 X1.668 Y11.090 E27.27098 F657.804
G1 X1.577 Y10.910 E27.27385 F657.804
G1 X1.398 Y11.090 E27.27748 F657.804
G1 X1.307 Y10.910 E27.28036 F657.804
G1 X1.127 Y11.090 E27.28398 F657.804
G1 X1.036 Y10.910 E27.28686 F657.804
G1 X0.857 Y11.090 E27.29048 F657.804
G1 X0.766 Y10.910 E27.29336 F657.804
G1 X0.587 Y11.090 E27.29699 F657.804
G1 X0.495 Y10.910 E27.29986 F657.804
G1 X0.316 Y11.090 E27.30349 F657.804
G1 X0.225 Y10.910 E27.30637 F657.804
G1 X0.046 Y11.090 E27.30999 F657.804
G1 X-0.046 Y10.910 E27.31287 F657.804
G1 X-0.225 Y11.090 E27.31649 F657.804
G1 X-0.316 Y10.910 E27.31937 F657.804
G1 X-0.495 Y11.090 E27.32300 F657.804
G1 X-0.587 Y10.910 E27.32587 F657.804
G1 X-0.766 Y11.090 E27.32950 F657.804
G1 X-0.857 Y10.910 E27.33238 F657.804
G1 X-1.036 Y11.090 E27.33600 F657.804
G1 X-1.127 Y10.910 E27.33888 F657.804
G1 X-1.307 Y11.090 E27.34250 F657.804
G1 X-1.398 Y10.910 E27.34538 F657.804
G1 X-1.577 Y11.090 E27.34901 F657.804
G1 X-1.668 Y10.910 E27.35188 F657.804
G1 X-1.847 Y11.090 E27.35551 F657.804
G1 X-1.939 Y10.910 E27.35838 F657.804
G1 X-2.118 Y11.090 E27.36201 F657.804
G1 X-2.209 Y10.910 E27.36489 F657.804
G1 X-2.388 Y11.090 E27.36851 F657.804
G1 X-2.480 Y10.910 E27.37139 F657.804
G1 X-2.659 Y11.090 E27.37501 F657.804
G1 X-2.750 Y10.910 E27.37789 F657.804
G1 X-2.929 Y11.090 E27.38152 F657.804
G1 X-3.040 Y10.930 E27.38430 F657.804
G1 X-3.020 Y10.910 E27.38469 F657.804
G1 F600.000 E26.68469
G1 Z0.760 F7800.000
G92 E0
G1 X-2.925 Y10.675 F7800.000
G1 Z0.560 F7800.000
G1 E0.70000 F600.000
G1 X-2.925 Y7.325 E0.78774 F658.977
G1 X2.925 Y7.325 E0.94097
G1 X2.925 Y10.675 E1.02871
G1 X-2.873 Y10.675 E1.18056
G1 X-3.275 Y10.675 F7800.000
G1 X6.165 Y10.975 F7800.000
G1 X3.275 Y10.975 E1.25626 F658.977
G1 X3.275 Y6.975 E1.36103
G1 X-3.275 Y6.975 E1.53259
G1 X-3.275 Y10.975 E1.63736
G1 X-6.165 Y10.975 E1.71305
G1 X-8.418 Y-10.975 E2.29099
G1 X8.418 Y-10.975 E2.73199
G1 X6.170 Y10.923 E3.30856
G1 X6.481 Y11.325 F7800.000
G1 X-6.481 Y11.325 E3.64805 F600.000
G1 X-8.806 Y-11.325 E4.24443
G1 X8.806 Y-11.325 E4.70573
G1 X6.486 Y11.273 E5.30073
G1 X6.184 Y11.140 F7800.000
G1 X5.559 Y10.680 F7800.000
G1 X6.046 Y8.861 E5.37605 F1317.953
G1 X5.028 Y7.843 E5.43366
G1 X5.640 Y5.557 E5.52829
G1 X6.446 Y5.341 E5.56169
G1 X6.785 Y2.041 E5.69439
G1 X6.625 Y1.881 E5.70345
G1 X6.911 Y0.812 E5.74771
G1 X1.650 Y6.680 F7800.000
G1 X2.198 Y4.635 E5.83238 F1317.953
G1 X3.589 Y4.262 E5.88998
G1 X4.201 Y1.977 E5.98462
G1 X3.183 Y0.959 E6.04223
G1 X3.795 Y-1.327 E6.13686
G1 X5.187 Y-1.699 E6.19447
G1 X5.799 Y-3.985 E6.28910
G1 X4.781 Y-5.003 E6.34671
G1 X5.393 Y-7.288 E6.44135
G1 X6.784 Y-7.661 E6.49895
G1 X7.396 Y-9.946 E6.59359
G1 X6.663 Y-10.680 E6.63508
G1 X4.457 Y-10.680 E6.72331
G1 X3.858 Y-8.445 E6.81586
G1 X4.877 Y-7.427 E6.87346
G1 X4.264 Y-5.141 E6.96810
G1 X2.873 Y-4.769 E7.02570
G1 X2.261 Y-2.483 E7.12034
G1 X3.279 Y-1.465 E7.17794
G1 X2.667 Y0.820 E7.27258
G1 X1.276 Y1.193 E7.33019
G1 X0.663 Y3.478 E7.42482
G1 X1.682 Y4.497 E7.48243
G1 X1.097 Y6.680 E7.57283
G1 X-1.175 Y6.680 E7.66369
G1 X-1.856 Y5.998 E7.70224
G1 X-1.244 Y3.713 E7.79688
G1 X0.147 Y3.340 E7.85449
G1 X0.759 Y1.055 E7.94912
G1 X-0.259 Y0.036 E8.00673
G1 X0.353 Y-2.249 E8.10136
G1 X1.745 Y-2.622 E8.15897
G1 X2.357 Y-4.907 E8.25361
G1 X1.339 Y-5.925 E8.31121
G1 X1.951 Y-8.210 E8.40585
G1 X3.342 Y-8.583 E8.46345
G1 X3.904 Y-10.680 E8.55027
G1 X0.768 Y-10.680 E8.67570
G1 X0.416 Y-9.367 E8.73006
G1 X1.435 Y-8.349 E8.78766
G1 X0.822 Y-6.064 E8.88230
G1 X-0.569 Y-5.691 E8.93990
G1 X-1.181 Y-3.405 E9.03454
G1 X-0.163 Y-2.387 E9.09214
G1 X-0.775 Y-0.102 E9.18678
G1 X-2.166 Y0.271 E9.24439
G1 X-2.779 Y2.556 E9.33902
G1 X-1.760 Y3.574 E9.39663
G1 X-2.373 Y5.860 E9.49126
G1 X-3.764 Y6.233 E9.54887
G1 X-4.376 Y8.518 E9.64351
G1 X-3.570 Y9.324 E9.68908
G1 X-6.101 Y8.703 E9.79332
G1 X-4.892 Y8.379 E9.84339
G1 X-4.280 Y6.094 E9.93803
