; generated by Slic3r 1.0.1-dev on 2014-02-15 at 13:53:33

; layer_height = 0.3
; perimeters = 2
; top_solid_layers = 3
; bottom_solid_layers = 2
; fill_density = 0.3
; perimeter_speed = 30
; infill_speed = 60
; travel_speed = 130
; nozzle_diameter = 0.35
; filament_diameter = 1.75
; extrusion_multiplier = 1
; perimeters extrusion width = 0.35mm
; infill extrusion width = 0.37mm
; solid infill extrusion width = 0.37mm
; top infill extrusion width = 0.37mm
; first layer extrusion width = 0.40mm

G21 ; set units to millimeters
M107
M190 S110 ; wait for bed temperature to be reached
M104 S200 ; set temperature
G28
G92 X0 Y0 Z0 E0
G1 F5000 Y30 X30
G1 X220
G1 F100 E10
G28
G92 X0 Y0 Z0
G1 F4000 X101 Y127
G92 X0 Y0 Z0 E0
M106 S255
M109 S200 ; wait for temperature to be reached
G90 ; use absolute coordinates
G92 E0
M82 ; use absolute distances for extrusion
G1 F600.000 E-0.70000
G1 Z0.400 F7800.000
G92 E0
G1 X13.822 Y11.930 F7800.000
G1 Z0.200 F7800.000
G1 E0.70000 F600.000
G1 X13.277 Y14.115 E0.77289 F540.000
G1 X12.007 Y15.975 E0.84578
G1 X10.171 Y17.280 E0.91868
G1 X7.447 Y17.889 E1.00903
G1 X-7.447 Y17.889 E1.49112
G1 X-9.664 Y17.492 E1.56401
G1 X-11.605 Y16.351 E1.63691
G1 X-13.030 Y14.607 E1.70980
G1 X-13.822 Y11.930 E1.80015
G1 X-15.375 Y-11.070 E2.54631
G1 X-15.128 Y-13.308 E2.61920
G1 X-14.120 Y-15.322 E2.69209
G1 X-12.476 Y-16.861 E2.76498
G1 X-10.400 Y-17.734 E2.83787
G1 X-9.000 Y-17.889 E2.88348
G1 X9.000 Y-17.889 E3.46610
G1 X11.217 Y-17.492 E3.53899
G1 X13.158 Y-16.351 E3.61188
G1 X14.583 Y-14.607 E3.68478
G1 X15.314 Y-12.477 E3.75767
G1 X15.375 Y-11.070 E3.80327
G1 X13.826 Y11.872 E4.54754
G1 F600.000 E3.84754
G1 Z0.400 F7800.000
G92 E0
G1 X2.950 Y10.700 F7800.000
G1 Z0.200 F7800.000
G1 E0.70000 F600.000
G1 X-2.950 Y10.700 E0.89097 F540.000
G1 X-2.950 Y7.300 E1.00102
G1 X2.950 Y7.300 E1.19199
G1 X2.950 Y10.642 E1.30015
G1 X2.950 Y11.089 F7800.000
G1 X-6.896 Y10.911 F7800.000
G1 X-8.370 Y-10.911 E2.00808 F540.000
G1 X8.370 Y-10.911 E2.54989
G1 X6.896 Y10.911 E3.25781
G1 X3.339 Y10.911 E3.37295
G1 X3.339 Y6.911 E3.50242
G1 X-3.339 Y6.911 E3.71859
G1 X-3.339 Y10.911 E3.84806
G1 X-6.838 Y10.911 E3.96130
G1 X-7.260 Y11.300 F7800.000
G1 X-8.786 Y-11.300 E4.69448 F378.000
G1 X8.786 Y-11.300 E5.26326
G1 X7.260 Y11.300 E5.99644
G1 X-7.202 Y11.300 E6.46454
G1 X-7.081 Y10.954 F7800.000
G1 X-6.613 Y10.648 F7800.000
G1 X-6.654 Y10.608 E6.46640 F1080.000
G1 X-6.694 Y10.014 E6.48574
G1 X-6.060 Y10.648 E6.51490
G1 X-5.507 Y10.648 E6.53289
G1 X-6.734 Y9.421 E6.58933
G1 X-6.774 Y8.828 E6.60867
G1 X-4.953 Y10.648 E6.69240
G1 X-4.400 Y10.648 E6.71040
G1 X-6.814 Y8.235 E6.82141
G1 X-6.854 Y7.641 E6.84075
G1 X-3.847 Y10.648 E6.97906
G1 X-3.602 Y10.340 E6.99187
G1 X-6.894 Y7.048 E7.14329
G1 X-6.934 Y6.455 E7.16263
G1 X-3.602 Y9.787 E7.31589
G1 X-3.602 Y9.234 E7.33388
G1 X-6.974 Y5.862 E7.48899
G1 X-7.014 Y5.268 E7.50833
G1 X-3.602 Y8.680 E7.66528
G1 X-3.602 Y8.127 E7.68327
G1 X-7.054 Y4.675 E7.84206
G1 X-7.094 Y4.082 E7.86140
G1 X-3.602 Y7.574 E8.02203
G1 X-3.602 Y7.021 E8.04003
G1 X-7.134 Y3.489 E8.20250
G1 X-7.174 Y2.895 E8.22184
G1 X-3.421 Y6.648 E8.39446
G1 X-2.868 Y6.648 E8.41245
G1 X-7.214 Y2.302 E8.61236
G1 X-7.254 Y1.709 E8.63170
G1 X-2.315 Y6.648 E8.85890
G1 X-1.762 Y6.648 E8.87689
G1 X-7.294 Y1.116 E9.13137
G1 X-7.334 Y0.522 E9.15071
G1 X-1.209 Y6.648 E9.43248
G1 X-0.656 Y6.648 E9.45047
G1 X-7.374 Y-0.071 E9.75953
G1 X-7.415 Y-0.664 E9.77887
G1 X-0.102 Y6.648 E10.11522
G1 X0.451 Y6.648 E10.13321
G1 X-7.455 Y-1.257 E10.49685
G1 X-7.495 Y-1.851 E10.51619
G1 X1.004 Y6.648 E10.90711
G1 X1.557 Y6.648 E10.92510
G1 X-7.535 Y-2.444 E11.34331
G1 X-7.575 Y-3.037 E11.36265
G1 X2.110 Y6.648 E11.80815
G1 X2.664 Y6.648 E11.82614
G1 X-7.615 Y-3.630 E12.29893
G1 X-7.655 Y-4.224 E12.31827
G1 X3.217 Y6.648 E12.81834
G1 X3.602 Y7.033 F7800.000
G1 X6.687 Y10.118 E12.96023 F1080.000
G1 X6.638 Y10.623 E12.97673
G1 X3.602 Y7.586 E13.11640
G1 X3.602 Y8.140 E13.13439
G1 X6.110 Y10.648 E13.24978
G1 X5.557 Y10.648 E13.26777
G1 X3.602 Y8.693 E13.35771
G1 X3.602 Y9.246 E13.37570
G1 X5.004 Y10.648 E13.44020
G1 X4.451 Y10.648 E13.45819
G1 X3.602 Y9.799 E13.49724
G1 X3.602 Y10.352 E13.51523
G1 X3.898 Y10.648 E13.52884
G1 X6.722 Y9.600 F7800.000
G1 X-7.695 Y-4.817 E14.19197 F1080.000
G1 X-7.735 Y-5.410 E14.21131
G1 X6.757 Y9.081 E14.87789
G1 X6.792 Y8.563 E14.89478
G1 X-7.775 Y-6.003 E15.56481
G1 X-7.815 Y-6.597 E15.58415
G1 X6.827 Y8.045 E16.25763
G1 X6.861 Y7.527 E16.27452
G1 X-7.855 Y-7.190 E16.95146
G1 X-7.895 Y-7.783 E16.97080
G1 X6.896 Y7.009 E17.65119
G1 X6.931 Y6.490 E17.66808
G1 X-7.935 Y-8.376 E18.35192
G1 X-7.975 Y-8.970 E18.37126
G1 X6.966 Y5.972 E19.05855
G1 X7.001 Y5.454 E19.07544
G1 X-8.015 Y-9.563 E19.76618
G1 X-8.055 Y-10.156 E19.78552
G1 X7.036 Y4.936 E20.47971
G1 X7.071 Y4.418 E20.49661
G1 X-7.994 Y-10.648 E21.18960
G1 X-7.441 Y-10.648 E21.20759
G1 X7.106 Y3.899 E21.87674
G1 X7.141 Y3.381 E21.89364
G1 X-6.888 Y-10.648 E22.53896
G1 X-6.335 Y-10.648 E22.55695
G1 X7.176 Y2.863 E23.17843
G1 X7.211 Y2.345 E23.19532
G1 X-5.782 Y-10.648 E23.79297
G1 X-5.228 Y-10.648 E23.81096
G1 X7.246 Y1.827 E24.38477
G1 X7.281 Y1.308 E24.40167
G1 X-4.675 Y-10.648 E24.95164
G1 X-4.122 Y-10.648 E24.96963
G1 X7.316 Y0.790 E25.49577
G1 X7.351 Y0.272 E25.51266
G1 X-3.569 Y-10.648 E26.01496
G1 X-3.016 Y-10.648 E26.03296
G1 X7.386 Y-0.246 E26.51142
G1 X7.421 Y-0.764 E26.52831
G1 X-2.462 Y-10.648 E26.98294
G1 X-1.909 Y-10.648 E27.00093
G1 X7.456 Y-1.283 E27.43173
G1 X7.491 Y-1.801 E27.44862
G1 X-1.356 Y-10.648 E27.85558
G1 X-0.803 Y-10.648 E27.87357
G1 X7.526 Y-2.319 E28.25669
G1 X7.561 Y-2.837 E28.27358
G1 X-0.250 Y-10.648 E28.63287
G1 X0.304 Y-10.648 E28.65086
G1 X7.596 Y-3.355 E28.98631
G1 X7.631 Y-3.874 E29.00320
G1 X0.857 Y-10.648 E29.31481
G1 X1.410 Y-10.648 E29.33280
G1 X7.666 Y-4.392 E29.62058
G1 X7.701 Y-4.910 E29.63747
G1 X1.963 Y-10.648 E29.90141
G1 X2.516 Y-10.648 E29.91940
G1 X7.736 Y-5.428 E30.15951
G1 X7.771 Y-5.946 E30.17640
G1 X3.070 Y-10.648 E30.39267
G1 X3.623 Y-10.648 E30.41066
G1 X7.806 Y-6.465 E30.60309
G1 X7.841 Y-6.983 E30.61998
G1 X4.176 Y-10.648 E30.78858
G1 X4.729 Y-10.648 E30.80657
G1 X7.876 Y-7.501 E30.95133
G1 X7.911 Y-8.019 E30.96822
G1 X5.282 Y-10.648 E31.08914
G1 X5.835 Y-10.648 E31.10713
G1 X7.946 Y-8.537 E31.20422
G1 X7.981 Y-9.056 E31.22111
G1 X6.389 Y-10.648 E31.29436
G1 X6.942 Y-10.648 E31.31235
G1 X8.016 Y-9.574 E31.36177
G1 X8.051 Y-10.092 E31.37866
G1 X7.495 Y-10.648 E31.40424
G1 X8.048 Y-10.648 E31.42223
G1 X8.086 Y-10.610 E31.42397
G1 X3.054 Y10.964 F7800.000
G1 X3.075 Y10.985 E31.42448 F360.000
G1 X3.054 Y10.964 F7800.000
G1 X2.831 Y11.036 E31.42853 F360.000
G1 X2.760 Y10.964 E31.43028 F360.000
G1 X2.537 Y11.036 E31.43433 F360.000
G1 X2.466 Y10.964 E31.43608 F360.000
G1 X2.243 Y11.036 E31.44013 F360.000
G1 X2.171 Y10.964 E31.44188 F360.000
G1 X1.949 Y11.036 E31.44592 F360.000
G1 X1.877 Y10.964 E31.44767 F360.000
G1 X1.654 Y11.036 E31.45172 F360.000
G1 X1.583 Y10.964 E31.45347 F360.000
G1 X1.360 Y11.036 E31.45752 F360.000
G1 X1.289 Y10.964 E31.45927 F360.000
G1 X1.066 Y11.036 E31.46332 F360.000
G1 X0.994 Y10.964 E31.46507 F360.000
G1 X0.771 Y11.036 E31.46912 F360.000
G1 X0.700 Y10.964 E31.47087 F360.000
G1 X0.477 Y11.036 E31.47492 F360.000
G1 X0.406 Y10.964 E31.47667 F360.000
G1 X0.183 Y11.036 E31.48072 F360.000
G1 X0.111 Y10.964 E31.48247 F360.000
G1 X-0.111 Y11.036 E31.48651 F360.000
G1 X-0.183 Y10.964 E31.48827 F360.000
G1 X-0.406 Y11.036 E31.49231 F360.000
G1 X-0.477 Y10.964 E31.49406 F360.000
G1 X-0.700 Y11.036 E31.49811 F360.000
G1 X-0.771 Y10.964 E31.49986 F360.000
G1 X-0.994 Y11.036 E31.50391 F360.000
G1 X-1.066 Y10.964 E31.50566 F360.000
G1 X-1.289 Y11.036 E31.50971 F360.000
G1 X-1.360 Y10.964 E31.51146 F360.000
G1 X-1.583 Y11.036 E31.51551 F360.000
G1 X-1.654 Y10.964 E31.51726 F360.000
G1 X-1.877 Y11.036 E31.52131 F360.000
G1 X-1.949 Y10.964 E31.52306 F360.000
G1 X-2.171 Y11.036 E31.52711 F360.000
G1 X-2.243 Y10.964 E31.52886 F360.000
G1 X-2.466 Y11.036 E31.53290 F360.000
G1 X-2.537 Y10.964 E31.53465 F360.000
G1 X-2.760 Y11.036 E31.53870 F360.000
G1 X-2.831 Y10.964 E31.54045 F360.000
G1 X-3.075 Y11.015 E31.54476 F360.000
G1 X-3.054 Y11.036 E31.54527 F360.000
M106 S255
G1 F600.000 E30.84527
G1 Z0.700 F7800.000
G92 E0
G1 X-2.925 Y10.675 F7800.000
G1 Z0.500 F7800.000
G1 E0.70000 F600.000
G1 X-2.925 Y7.325 E0.84624 F1290.795
G1 X2.925 Y7.325 E1.10162
G1 X2.925 Y10.675 E1.24786
G1 X-2.873 Y10.675 E1.50094
G1 X-3.275 Y10.675 F7800.000
G1 F600.000 E0.80094
G1 Z0.700 F7800.000
G92 E0
G1 X8.438 Y-10.975 F7800.000
G1 Z0.500 F7800.000
G1 E0.70000 F600.000
G1 X6.956 Y10.975 E1.66039 F1290.795
G1 X3.275 Y10.975 E1.82109
G1 X3.275 Y6.975 E1.99571
G1 X-3.275 Y6.975 E2.28164
G1 X-3.275 Y10.975 E2.45626
G1 X-6.956 Y10.975 E2.61696
G1 X-8.438 Y-10.975 E3.57735
G1 X8.386 Y-10.975 E4.31179
G1 X8.813 Y-11.325 F7800.000
G1 X7.284 Y11.325 E5.30280 F903.557
G1 X-7.284 Y11.325 E5.93871
G1 X-8.813 Y-11.325 E6.92972
G1 X8.760 Y-11.325 E7.69686
G1 X8.624 Y-11.030 F7800.000
G1 X-8.181 Y-10.701 F7800.000
G1 X-8.145 Y-10.737 E7.69915 F2581.591
G1 X-7.627 Y-10.737 E7.72289
G1 X-8.148 Y-10.215 E7.75664
G1 X-8.115 Y-9.729 E7.77893
G1 X-7.108 Y-10.737 E7.84412
G1 X-6.589 Y-10.737 E7.86786
G1 X-8.082 Y-9.243 E7.96450
G1 X-8.050 Y-8.757 E7.98679
G1 X-6.070 Y-10.737 E8.11487
G1 X-5.551 Y-10.737 E8.13861
G1 X-8.017 Y-8.271 E8.29815
G1 X-7.984 Y-7.785 E8.32044
G1 X-5.032 Y-10.737 E8.51142
G1 X-4.514 Y-10.737 E8.53516
G1 X-7.951 Y-7.299 E8.75759
G1 X-7.918 Y-6.813 E8.77988
G1 X-3.995 Y-10.737 E9.03376
G1 X-3.476 Y-10.737 E9.05749
G1 X-7.886 Y-6.327 E9.34282
G1 X-7.853 Y-5.841 E9.36511
G1 X-2.957 Y-10.737 E9.68188
G1 X-2.438 Y-10.737 E9.70562
G1 X-7.820 Y-5.355 E10.05384
G1 X-7.787 Y-4.869 E10.07613
G1 X-1.920 Y-10.737 E10.45580
G1 X-1.401 Y-10.737 E10.47954
G1 X-7.754 Y-4.383 E10.89065
G1 X-7.721 Y-3.897 E10.91294
G1 X-0.882 Y-10.737 E11.35551
G1 X-0.363 Y-10.737 E11.37924
G1 X-7.689 Y-3.411 E11.85326
G1 X-7.656 Y-2.925 E11.87554
G1 X0.156 Y-10.737 E12.38100
G1 X0.674 Y-10.737 E12.40474
G1 X-7.623 Y-2.439 E12.94165
G1 X-7.590 Y-1.953 E12.96394
G1 X1.193 Y-10.737 E13.53229
G1 X1.712 Y-10.737 E13.55603
G1 X-7.557 Y-1.467 E14.15583
G1 X-7.525 Y-0.981 E14.17812
G1 X2.231 Y-10.737 E14.80937
G1 X2.750 Y-10.737 E14.83311
G1 X-7.492 Y-0.495 E15.49580
G1 X-7.459 Y-0.009 E15.51809
G1 X3.268 Y-10.737 E16.21224
G1 X3.787 Y-10.737 E16.23597
G1 X-7.426 Y0.477 E16.96157
G1 X-7.393 Y0.963 E16.98385
G1 X4.306 Y-10.737 E17.74089
G1 X4.825 Y-10.737 E17.76463
G1 X-7.361 Y1.449 E18.55312
G1 X-7.328 Y1.935 E18.57541
G1 X5.344 Y-10.737 E19.39534
G1 X5.862 Y-10.737 E19.41908
G1 X-7.295 Y2.421 E20.27046
G1 X-7.262 Y2.907 E20.29275
G1 X6.381 Y-10.737 E21.17558
G1 X6.900 Y-10.737 E21.19932
G1 X-7.229 Y3.393 E22.11360
G1 X-7.196 Y3.879 E22.13589
G1 X7.419 Y-10.737 E23.08161
G1 X7.938 Y-10.737 E23.10535
G1 X-7.164 Y4.365 E24.08252
G1 X-7.131 Y4.851 E24.10481
G1 X8.163 Y-10.444 E25.09447
G1 X8.126 Y-9.887 E25.11999
G1 X-7.098 Y5.337 E26.10510
G1 X-7.065 Y5.823 E26.12739
G1 X8.088 Y-9.331 E27.10794
G1 X8.051 Y-8.774 E27.13346
G1 X-7.032 Y6.309 E28.10946
G1 X-7.000 Y6.795 E28.13175
G1 X8.013 Y-8.218 E29.10319
G1 X7.976 Y-7.662 E29.12871
G1 X-6.967 Y7.281 E30.09560
G1 X-6.934 Y7.767 E30.11789
G1 X7.938 Y-7.105 E31.08023
G1 X7.900 Y-6.549 E31.10574
G1 X-6.901 Y8.253 E32.06353
G1 X-6.868 Y8.739 E32.08582
G1 X7.863 Y-5.993 E33.03905
G1 X7.825 Y-5.436 E33.06456
G1 X-6.836 Y9.225 E34.01324
G1 X-6.803 Y9.711 E34.03553
G1 X7.788 Y-4.880 E34.97965
G1 X7.750 Y-4.323 E35.00517
G1 X-3.310 Y6.737 E35.72084
G1 X-2.791 Y6.737 E35.74458
G1 X7.713 Y-3.767 E36.42425
G1 X7.675 Y-3.211 E36.44976
G1 X-2.272 Y6.737 E37.09343
G1 X-1.753 Y6.737 E37.11717
G1 X7.638 Y-2.654 E37.72484
G1 X7.600 Y-2.098 E37.75035
G1 X-1.235 Y6.737 E38.32202
G1 X-0.716 Y6.737 E38.34576
G1 X7.562 Y-1.542 E38.88142
G1 X7.525 Y-0.985 E38.90694
G1 X-0.197 Y6.737 E39.40660
G1 X0.322 Y6.737 E39.43034
G1 X7.487 Y-0.429 E39.89400
G1 X7.450 Y0.127 E39.91952
G1 X0.841 Y6.737 E40.34718
G1 X1.359 Y6.737 E40.37092
G1 X7.412 Y0.684 E40.76257
G1 X7.375 Y1.240 E40.78809
G1 X1.878 Y6.737 E41.14375
G1 X2.397 Y6.737 E41.16748
G1 X7.337 Y1.797 E41.48714
G1 X7.299 Y2.353 E41.51266
G1 X2.916 Y6.737 E41.79631
G1 X3.435 Y6.737 E41.82005
G1 X7.262 Y2.909 E42.06770
G1 X7.224 Y3.466 E42.09321
G1 X3.513 Y7.177 E42.33334
G1 X3.513 Y7.695 E42.35708
G1 X7.187 Y4.022 E42.59477
G1 X7.149 Y4.578 E42.62028
G1 X3.513 Y8.214 E42.85554
G1 X3.513 Y8.733 E42.87928
G1 X7.112 Y5.135 E43.11211
G1 X7.074 Y5.691 E43.13763
G1 X3.513 Y9.252 E43.36802
G1 X3.513 Y9.771 E43.39176
G1 X7.037 Y6.248 E43.61973
G1 X6.999 Y6.804 E43.64525
G1 X3.513 Y10.289 E43.87078
G1 X3.585 Y10.737 E43.89151
G1 X6.961 Y7.360 E44.10998
G1 X6.924 Y7.917 E44.13549
G1 X4.104 Y10.737 E44.31796
G1 X4.623 Y10.737 E44.34170
G1 X6.886 Y8.473 E44.48817
G1 X6.849 Y9.029 E44.51369
G1 X5.142 Y10.737 E44.62415
G1 X5.660 Y10.737 E44.64789
G1 X6.811 Y9.586 E44.72236
G1 X6.774 Y10.142 E44.74787
G1 X6.179 Y10.737 E44.78634
G1 X6.698 Y10.737 E44.81007
G1 X6.736 Y10.698 E44.81254
G1 X-3.513 Y10.572 F7800.000
G1 X-3.678 Y10.737 E44.82319 F2581.591
G1 X-4.197 Y10.737 E44.84693
G1 X-3.513 Y10.053 E44.89116
G1 X-3.513 Y9.534 E44.91490
G1 X-4.716 Y10.737 E44.99269
G1 X-5.235 Y10.737 E45.01643
G1 X-3.513 Y9.015 E45.12780
G1 X-3.513 Y8.497 E45.15154
G1 X-5.753 Y10.737 E45.29648
G1 X-6.272 Y10.737 E45.32021
G1 X-3.513 Y7.978 E45.49872
G1 X-3.513 Y7.459 E45.52246
G1 X-6.737 Y10.683 E45.73105
G1 X-6.770 Y10.197 E45.75334
G1 X-3.513 Y6.940 E45.96406
G1 X-3.020 Y10.910 F7800.000
G1 X-3.040 Y10.930 E45.96470 F860.530
G1 X-2.929 Y11.090 E45.96934 F860.530
G1 X-2.750 Y10.910 E45.97538 F860.530
G1 X-2.659 Y11.090 E45.98018 F860.530
G1 X-2.480 Y10.910 E45.98622 F860.530
G1 X-2.388 Y11.090 E45.99101 F860.530
G1 X-2.209 Y10.910 E45.99706 F860.530
G1 X-2.118 Y11.090 E46.00185 F860.530
G1 X-1.939 Y10.910 E46.00789 F860.530
G1 X-1.847 Y11.090 E46.01269 F860.530
G1 X-1.668 Y10.910 E46.01873 F860.530
G1 X-1.577 Y11.090 E46.02353 F860.530
G1 X-1.398 Y10.910 E46.02957 F860.530
G1 X-1.307 Y11.090 E46.03436 F860.530
G1 X-1.127 Y10.910 E46.04040 F860.530
G1 X-1.036 Y11.090 E46.04520 F860.530
G1 X-0.857 Y10.910 E46.05124 F860.530
G1 X-0.766 Y11.090 E46.05604 F860.530
G1 X-0.587 Y10.910 E46.06208 F860.530
G1 X-0.495 Y11.090 E46.06687 F860.530
G1 X-0.316 Y10.910 E46.07292 F860.530
G1 X-0.225 Y11.090 E46.07771 F860.530
G1 X-0.046 Y10.910 E46.08375 F860.530
G1 X0.046 Y11.090 E46.08855 F860.530
G1 X0.225 Y10.910 E46.09459 F860.530
G1 X0.316 Y11.090 E46.09939 F860.530
G1 X0.495 Y10.910 E46.10543 F860.530
G1 X0.587 Y11.090 E46.11022 F860.530
G1 X0.766 Y10.910 E46.11627 F860.530
G1 X0.857 Y11.090 E46.12106 F860.530
G1 X1.036 Y10.910 E46.12710 F860.530
G1 X1.127 Y11.090 E46.13190 F860.530
G1 X1.307 Y10.910 E46.13794 F860.530
G1 X1.398 Y11.090 E46.14274 F860.530
G1 X1.577 Y10.910 E46.14878 F860.530
G1 X1.668 Y11.090 E46.15357 F860.530
G1 X1.847 Y10.910 E46.15961 F860.530
G1 X1.939 Y11.090 E46.16441 F860.530
G1 X2.118 Y10.910 E46.17045 F860.530
G1 X2.209 Y11.090 E46.17525 F860.530
G1 X2.388 Y10.910 E46.18129 F860.530
G1 X2.480 Y11.090 E46.18608 F860.530
G1 X2.659 Y10.910 E46.19213 F860.530
G1 X2.750 Y11.090 E46.19692 F860.530
G1 X2.929 Y10.910 E46.20296 F860.530
G1 X3.020 Y11.090 E46.20776 F860.530
G1 X3.040 Y11.070 E46.20840 F860.530
G1 F600.000 E45.50840
G1 Z1.000 F7800.000
G92 E0
G1 X2.925 Y10.675 F7800.000
G1 Z0.800 F7800.000
G1 E0.70000 F600.000
G1 X-2.925 Y10.675 E0.95538 F767.240
G1 X-2.925 Y7.325 E1.10162
G1 X2.925 Y7.325 E1.35699
G1 X2.925 Y10.622 E1.50094
G1 X2.925 Y11.025 F7800.000
G1 X6.956 Y10.975 F7800.000
G1 X3.275 Y10.975 E1.66165 F767.240
G1 X3.275 Y6.975 E1.83626
G1 X-3.275 Y6.975 E2.12219
G1 X-3.275 Y10.975 E2.29681
G1 X-6.956 Y10.975 E2.45752
G1 X-8.438 Y-10.975 E3.41790
G1 X8.438 Y-10.975 E4.15464
G1 X6.960 Y10.923 E5.11273
G1 X7.284 Y11.325 F7800.000
G1 X-7.284 Y11.325 E5.74864 F600.000
G1 X-8.813 Y-11.325 E6.73965
G1 X8.813 Y-11.325 E7.50907
G1 X7.287 Y11.273 E8.49780
G1 X6.984 Y11.143 F7800.000
G1 X5.651 Y10.718 F7800.000
G1 X5.816 Y10.105 E8.52660 F1534.481
G1 X6.762 Y9.851 E8.57106
G1 X6.899 Y8.016 E8.65457
