; generated by PrusaSlicer 2.3.3 on 2021-08-31 at 00:04:20 UTC

; 

; external perimeters extrusion width = 0.39mm
; perimeters extrusion width = 0.39mm
; infill extrusion width = 0.39mm
; solid infill extrusion width = 0.39mm
; top infill extrusion width = 0.35mm
; first layer extrusion width = 0.37mm

M201 X9000 Y9000 Z500 E10000 ; sets maximum accelerations, mm/sec^2
M203 X500 Y500 Z12 E120 ; sets maximum feedrates, mm/sec
M204 P1500 R1500 T1500 ; sets acceleration (P, T) and retract acceleration (R), mm/sec^2
M205 X10.00 Y10.00 Z0.20 E2.50 ; sets the jerk limits, mm/sec
M205 S0 T0 ; sets the minimum extruding and travel feed rate, mm/sec
M107
M190 S38 ; set bed temperature and wait for it to be reached
;TYPE:Custom
M109 S190 ; set temperature and wait for it to be reached START_CUSTOM
G28 ; home all axes
G1 Z1 F5000 ; lift nozzle

;; change mode relative
G91
M83

G1 X210 Y15 F5000 ; move to right
G1 E25  F300      ; extrude some

G1 Z-1.22   F4000 ; lower nozzle
G1 X-25 Y5  F4000 ; wipe nozzle
G1 X10  Y-5 F4000 ; wipe nozzle
G1 X-25 Y5  F4000 ; wipe nozzle
G1 X10  Y-5 F4000 ; wipe nozzle
G1 X-25 Y5  F4000 ; wipe nozzle
G1 X10  Y-5 F4000 ; wipe nozzle
G1 Z1.22    F4000 ; lift nozzle

;; reset mode
M82
G90

G28 ; home all axes
G1 Z5 F5000 ; lift nozzle END_CUSTOM
G21 ; set units to millimeters
G90 ; use absolute coordinates
M82 ; use absolute distances for extrusion
G92 E0
; Filament gcode
;LAYER_CHANGE
;Z:0.32
;HEIGHT:0.32
G1 Z0.220 F4500.000
G1 E-3.00000 F1800.000
G92 E0
G1 X92.993 Y114.525 F4500.000
G1 E3.00000 F1800.000
;TYPE:Skirt
;WIDTH:0.37
G1 F1500.000
G1 X95.171 Y113.360 E3.09155
G1 X97.542 Y112.639 E3.18347
G1 X100.010 Y112.397 E3.27541
G1 X102.451 Y112.639 E3.36638
G1 X104.814 Y113.354 E3.45791
G1 X106.997 Y114.518 E3.54966
G1 X108.905 Y116.084 E3.64121
G1 X110.475 Y117.993 E3.73288
G1 X111.642 Y120.174 E3.82456
G1 X112.360 Y122.538 E3.91618
G1 X112.603 Y125.003 E4.00804
G1 X112.361 Y127.455 E4.09940
G1 X111.645 Y129.819 E4.19102
G1 X110.486 Y131.989 E4.28224
G1 X108.918 Y133.904 E4.37402
G1 X107.015 Y135.469 E4.46537
G1 X104.828 Y136.641 E4.55737
G1 X102.462 Y137.360 E4.64906
G1 X99.997 Y137.603 E4.74093
G1 X97.549 Y137.361 E4.83215
G1 X95.187 Y136.646 E4.92368
G1 X93.013 Y135.487 E5.01503
G1 X91.088 Y133.911 E5.10728
G1 X89.520 Y131.999 E5.19897
G1 X88.356 Y129.820 E5.29058
G1 X87.642 Y127.466 E5.38181
G1 X87.397 Y124.999 E5.47373
G1 X87.638 Y122.556 E5.56478
G1 X88.354 Y120.187 E5.65655
G1 X89.518 Y118.003 E5.74830
G1 X91.084 Y116.095 E5.83985
G1 X92.953 Y114.558 E5.92957
G1 X93.143 Y114.790 F4500.000
G1 F1500.000
G1 X95.281 Y113.641 E6.01956
G1 X97.596 Y112.936 E6.10930
G1 X100.004 Y112.699 E6.19903
G1 X102.387 Y112.934 E6.28782
G1 X104.700 Y113.633 E6.37741
G1 X106.831 Y114.769 E6.46698
G1 X108.693 Y116.298 E6.55632
G1 X110.226 Y118.162 E6.64582
G1 X111.364 Y120.290 E6.73530
G1 X112.064 Y122.598 E6.82472
G1 X112.301 Y125.004 E6.91439
G1 X112.065 Y127.397 E7.00357
G1 X111.366 Y129.705 E7.09299
G1 X110.235 Y131.823 E7.18203
G1 X108.703 Y133.692 E7.27162
G1 X106.846 Y135.219 E7.36079
G1 X104.711 Y136.363 E7.45060
G1 X102.402 Y137.064 E7.54008
G1 X99.996 Y137.301 E7.62975
G1 X97.613 Y137.066 E7.71854
G1 X95.300 Y136.367 E7.80814
G1 X93.179 Y135.236 E7.89730
G1 X91.300 Y133.697 E7.98736
G1 X89.773 Y131.836 E8.07660
G1 X88.636 Y129.710 E8.16602
G1 X87.939 Y127.412 E8.25506
G1 X87.699 Y124.998 E8.34504
G1 X87.934 Y122.613 E8.43389
G1 X88.633 Y120.300 E8.52349
G1 X89.769 Y118.169 E8.61305
G1 X91.298 Y116.307 E8.70239
G1 X93.103 Y114.823 E8.78904
;WIPE_START
G1 F3600.000
G1 X95.281 Y113.641 E7.61190
G1 X97.596 Y112.936 E6.46238
G1 X98.692 Y112.828 E5.93904
;WIPE_END
G1 E5.78904 F1800.000
G92 E0
G1 X97.437 Y121.164 F4500.000
G1 E3.00000 F1800.000
;TYPE:External perimeter
G1 F450.000
G1 X98.235 Y120.738 E3.03353
G1 X99.100 Y120.476 E3.06707
G1 X100.000 Y120.387 E3.10060
G1 X100.900 Y120.476 E3.13414
G1 X101.765 Y120.738 E3.16767
G1 X102.563 Y121.164 E3.20121
G1 X103.262 Y121.738 E3.23474
G1 X103.836 Y122.437 E3.26828
G1 X104.262 Y123.235 E3.30181
G1 X104.524 Y124.100 E3.33535
G1 X104.613 Y125.000 E3.36888
G1 X104.524 Y125.900 E3.40241
G1 X104.262 Y126.765 E3.43595
G1 X103.836 Y127.563 E3.46948
G1 X103.262 Y128.262 E3.50302
G1 X102.563 Y128.836 E3.53655
G1 X101.765 Y129.262 E3.57009
G1 X100.900 Y129.524 E3.60362
G1 X100.000 Y129.613 E3.63716
G1 X99.100 Y129.524 E3.67069
G1 X98.235 Y129.262 E3.70423
G1 X97.437 Y128.836 E3.73776
G1 X96.738 Y128.262 E3.77130
G1 X96.164 Y127.563 E3.80483
G1 X95.738 Y126.765 E3.83836
G1 X95.476 Y125.900 E3.87190
G1 X95.387 Y125.000 E3.90543
G1 X95.476 Y124.100 E3.93897
G1 X95.738 Y123.235 E3.97250
G1 X96.164 Y122.437 E4.00604
G1 X96.738 Y121.738 E4.03957
G1 X97.396 Y121.198 E4.07116
;WIPE_START
G1 F3600.000
G1 X98.235 Y120.738 E3.61712
G1 X99.100 Y120.476 E3.18756
G1 X100.000 Y120.387 E2.75800
G1 X100.900 Y120.476 E2.32844
G1 X101.765 Y120.738 E1.89888
G1 X102.563 Y121.164 E1.46933
G1 X102.967 Y121.496 E1.22116
;WIPE_END
G1 E1.07116 F1800.000
G92 E0
G1 X104.236 Y123.461 F4500.000
G1 E3.00000 F1800.000
;TYPE:Solid infill
;WIDTH:0.371169
G1 F1462.500
G1 X101.774 Y120.999 E3.12962
G1 X101.678 Y120.948 E3.13366
G1 X101.128 Y120.781 E3.15506
G1 X104.219 Y123.872 E3.31778
G1 X104.302 Y124.144 E3.32838
G1 X104.328 Y124.408 E3.33825
G1 X100.592 Y120.672 E3.53493
G1 X100.117 Y120.625 E3.55268
G1 X104.375 Y124.883 E3.77681
G1 X104.386 Y125.000 E3.78119
G1 X104.357 Y125.293 E3.79216
G1 X99.707 Y120.643 E4.03698
G1 X99.317 Y120.681 E4.05155
G1 X104.319 Y125.683 E4.31485
G1 X104.302 Y125.856 E4.32133
G1 X104.246 Y126.038 E4.32842
G1 X98.962 Y120.754 E4.60663
G1 X98.634 Y120.853 E4.61939
G1 X104.147 Y126.366 E4.90964
G1 X104.045 Y126.692 E4.92235
G1 X98.308 Y120.955 E5.22437
G1 X98.029 Y121.104 E5.23614
G1 X103.896 Y126.971 E5.54500
G1 X103.747 Y127.250 E5.55677
G1 X97.750 Y121.253 E5.87246
G1 X97.563 Y121.353 E5.88035
G1 X97.486 Y121.417 E5.88408
G1 X103.583 Y127.514 E6.20508
G1 X103.391 Y127.749 E6.21640
G1 X97.251 Y121.609 E6.53962
G1 X97.016 Y121.802 E6.55093
G1 X103.198 Y127.984 E6.87638
G1 X103.101 Y128.101 E6.88203
G1 X102.984 Y128.198 E6.88769
G1 X96.802 Y122.016 E7.21313
G1 X96.609 Y122.251 E7.22445
G1 X102.749 Y128.391 E7.54767
G1 X102.514 Y128.584 E7.55898
G1 X96.416 Y122.486 E7.87999
G1 X96.353 Y122.563 E7.88371
G1 X96.253 Y122.750 E7.89161
G1 X102.250 Y128.747 E8.20730
G1 X101.971 Y128.896 E8.21906
G1 X96.104 Y123.029 E8.52792
G1 X95.955 Y123.308 E8.53969
G1 X101.692 Y129.045 E8.84171
G1 X101.366 Y129.147 E8.85442
G1 X95.853 Y123.634 E9.14466
G1 X95.754 Y123.962 E9.15743
G1 X101.038 Y129.246 E9.43563
G1 X100.856 Y129.302 E9.44272
G1 X100.683 Y129.319 E9.44920
G1 X95.681 Y124.317 E9.71250
G1 X95.643 Y124.707 E9.72707
G1 X100.293 Y129.357 E9.97188
G1 X100.000 Y129.386 E9.98285
G1 X99.883 Y129.374 E9.98724
G1 X95.626 Y125.117 E10.21135
G1 X95.672 Y125.592 E10.22910
G1 X99.408 Y129.328 E10.42578
G1 X99.144 Y129.302 E10.43564
G1 X98.872 Y129.219 E10.44626
G1 X95.781 Y126.128 E10.60896
G1 X95.948 Y126.678 E10.63036
G1 X95.999 Y126.774 E10.63440
G1 X98.461 Y129.236 E10.76401
;LAYER_CHANGE
;Z:0.62
;HEIGHT:0.3
G1 Z0.520 F4500.000
M104 S180 ; set temperature
M140 S35 ; set bed temperature
G1 X98.379 Y129.504
;TYPE:External perimeter
;WIDTH:0.39
G1 F900.000
G1 X98.162 Y129.438 E10.77256
G1 X97.331 Y128.994 E10.80794
G1 X96.603 Y128.397 E10.84332
G1 X96.006 Y127.669 E10.87870
G1 X95.562 Y126.838 E10.91408
G1 X95.288 Y125.937 E10.94946
G1 X95.196 Y125.000 E10.98484
G1 X95.288 Y124.063 E11.02022
G1 X95.562 Y123.162 E11.05560
G1 X96.006 Y122.331 E11.09098
G1 X96.603 Y121.603 E11.12635
G1 X97.331 Y121.006 E11.16173
G1 X98.162 Y120.562 E11.19711
G1 X99.063 Y120.288 E11.23249
G1 X100.000 Y120.196 E11.26787
G1 X100.907 Y120.285 E11.30212
G1 X101.839 Y120.562 E11.33863
G1 X102.669 Y121.006 E11.37399
G1 X103.397 Y121.603 E11.40937
G1 X103.994 Y122.331 E11.44475
G1 X104.438 Y123.162 E11.48012
G1 X104.712 Y124.063 E11.51550
G1 X104.804 Y125.000 E11.55088
G1 X104.712 Y125.937 E11.58626
G1 X104.438 Y126.838 E11.62164
G1 X103.994 Y127.669 E11.65702
G1 X103.397 Y128.397 E11.69240
G1 X102.669 Y128.994 E11.72778
G1 X101.838 Y129.438 E11.76316
G1 X100.937 Y129.712 E11.79854
G1 X100.000 Y129.804 E11.83392
G1 X99.063 Y129.712 E11.86930
G1 X98.430 Y129.520 E11.89415
;WIPE_START
G1 F3600.000
G1 X98.162 Y129.438 E11.76104
G1 X97.331 Y128.994 E11.31370
G1 X96.603 Y128.397 E10.86636
G1 X96.006 Y127.669 E10.41903
G1 X95.562 Y126.838 E9.97169
G1 X95.288 Y125.937 E9.52436
G1 X95.196 Y125.000 E9.07702
G1 X95.203 Y124.931 E9.04415
;WIPE_END
G1 E8.89415 F1800.000
G92 E0
G1 X104.384 Y126.687 F4500.000
G1 E3.00000 F1800.000
;TYPE:Top solid infill
;WIDTH:0.350578
G1 F1755.000
G1 X101.943 Y129.128 E3.11402
G1 X101.752 Y129.230 E3.12115
G1 X101.299 Y129.368 E3.13680
G1 X104.368 Y126.299 E3.28013
G1 X104.491 Y125.893 E3.29411
G1 X104.504 Y125.757 E3.29862
G1 X100.757 Y129.504 E3.47358
G1 X100.308 Y129.548 E3.48847
G1 X104.548 Y125.308 E3.68646
G1 X104.579 Y125.000 E3.69669
G1 X104.567 Y124.885 E3.70052
G1 X99.885 Y129.567 E3.91918
G1 X99.516 Y129.531 E3.93140
G1 X104.531 Y124.516 E4.16558
G1 X104.495 Y124.148 E4.17780
G1 X99.148 Y129.495 E4.42748
G1 X98.831 Y129.407 E4.43834
G1 X104.407 Y123.831 E4.69873
G1 X104.313 Y123.520 E4.70945
G1 X98.520 Y129.313 E4.97994
G1 X98.248 Y129.230 E4.98934
G1 X98.215 Y129.213 E4.99055
G1 X104.213 Y123.215 E5.27061
G1 X104.072 Y122.952 E5.28048
G1 X97.952 Y129.072 E5.56627
G1 X97.688 Y128.931 E5.57615
G1 X103.931 Y122.688 E5.86767
G1 X103.785 Y122.429 E5.87748
G1 X97.429 Y128.785 E6.17427
G1 X97.207 Y128.603 E6.18376
G1 X103.603 Y122.207 E6.48241
G1 X103.420 Y121.985 E6.49191
G1 X96.985 Y128.420 E6.79242
G1 X96.762 Y128.238 E6.80191
G1 X103.238 Y121.762 E7.10429
G1 X103.015 Y121.580 E7.11378
G1 X96.580 Y128.015 E7.41429
G1 X96.397 Y127.793 E7.42379
G1 X102.793 Y121.397 E7.72243
G1 X102.571 Y121.215 E7.73193
G1 X96.215 Y127.571 E8.02872
G1 X96.069 Y127.312 E8.03853
G1 X102.312 Y121.069 E8.33005
G1 X102.048 Y120.928 E8.33992
G1 X95.928 Y127.048 E8.62571
G1 X95.787 Y126.784 E8.63559
G1 X101.784 Y120.787 E8.91564
G1 X101.478 Y120.689 E8.92627
G1 X95.687 Y126.480 E9.19669
G1 X95.593 Y126.169 E9.20740
G1 X101.166 Y120.596 E9.46764
G1 X100.852 Y120.505 E9.47843
G1 X95.505 Y125.852 E9.72811
G1 X95.469 Y125.484 E9.74034
G1 X100.484 Y120.469 E9.97450
G1 X100.115 Y120.433 E9.98673
G1 X95.433 Y125.115 E10.20539
G1 X95.421 Y125.000 E10.20921
G1 X95.452 Y124.691 E10.21945
G1 X99.691 Y120.452 E10.41743
G1 X99.242 Y120.496 E10.43232
G1 X95.496 Y124.242 E10.60727
G1 X95.509 Y124.107 E10.61178
G1 X95.632 Y123.701 E10.62576
G1 X98.701 Y120.632 E10.76908
G1 X98.248 Y120.770 E10.78473
G1 X98.057 Y120.872 E10.79187
G1 X95.616 Y123.313 E10.90588
;LAYER_CHANGE
;Z:0.92
;HEIGHT:0.3
G1 Z0.520 F4500.000
;TYPE:External perimeter
;WIDTH:0.39
G1 F600
G1 Z0.521 X95.562 Y123.162 E10.91074
G1 Z0.531 X96.006 Y122.331 E10.94612
G1 Z0.540 X96.603 Y121.603 E10.98150
G1 Z0.549 X97.331 Y121.006 E11.01688
G1 Z0.559 X98.162 Y120.562 E11.05226
G1 Z0.568 X99.063 Y120.288 E11.08764
G1 Z0.578 X100.000 Y120.196 E11.12301
G1 Z0.586 X100.888 Y120.283 E11.15654
G1 Z0.596 X101.839 Y120.562 E11.19377
G1 Z0.606 X102.669 Y121.006 E11.22912
G1 Z0.615 X103.397 Y121.603 E11.26450
G1 Z0.624 X103.994 Y122.331 E11.29988
G1 Z0.634 X104.438 Y123.162 E11.33525
G1 Z0.643 X104.712 Y124.063 E11.37063
G1 Z0.653 X104.804 Y125.000 E11.40601
G1 Z0.662 X104.712 Y125.937 E11.44139
G1 Z0.671 X104.438 Y126.838 E11.47677
G1 Z0.681 X103.994 Y127.669 E11.51215
G1 Z0.690 X103.397 Y128.397 E11.54753
G1 Z0.699 X102.669 Y128.994 E11.58291
G1 Z0.709 X101.838 Y129.438 E11.61829
G1 Z0.718 X100.937 Y129.712 E11.65367
G1 Z0.728 X100.000 Y129.804 E11.68905
G1 Z0.737 X99.063 Y129.712 E11.72443
G1 Z0.746 X98.162 Y129.438 E11.75980
G1 Z0.756 X97.331 Y128.994 E11.79518
G1 Z0.765 X96.603 Y128.397 E11.83056
G1 Z0.774 X96.006 Y127.669 E11.86594
G1 Z0.784 X95.562 Y126.838 E11.90132
G1 Z0.793 X95.288 Y125.937 E11.93670
G1 Z0.803 X95.196 Y125.000 E11.97208
G1 Z0.812 X95.288 Y124.063 E12.00746
G1 Z0.820 X95.524 Y123.285 E12.03798
M106 S255
;LAYER_CHANGE
;Z:1.22
;HEIGHT:0.3
G1 Z0.820 F4500.000
G1 F600
G1 Z0.821 X95.562 Y123.162 E12.04284
G1 Z0.831 X96.006 Y122.331 E12.07822
G1 Z0.840 X96.603 Y121.603 E12.11360
G1 Z0.849 X97.331 Y121.006 E12.14898
G1 Z0.859 X98.162 Y120.562 E12.18435
G1 Z0.868 X99.063 Y120.288 E12.21973
G1 Z0.878 X100.000 Y120.196 E12.25511
G1 Z0.887 X100.937 Y120.288 E12.29049
G1 Z0.896 X101.838 Y120.562 E12.32587
G1 Z0.906 X102.669 Y121.006 E12.36125
G1 Z0.915 X103.397 Y121.603 E12.39663
G1 Z0.924 X103.994 Y122.331 E12.43201
G1 Z0.934 X104.438 Y123.162 E12.46739
G1 Z0.943 X104.712 Y124.063 E12.50277
G1 Z0.953 X104.804 Y125.000 E12.53815
G1 Z0.962 X104.712 Y125.937 E12.57353
G1 Z0.971 X104.438 Y126.838 E12.60890
G1 Z0.981 X103.994 Y127.669 E12.64428
G1 Z0.990 X103.397 Y128.397 E12.67966
G1 Z0.999 X102.669 Y128.994 E12.71504
G1 Z1.009 X101.838 Y129.438 E12.75042
G1 Z1.018 X100.937 Y129.712 E12.78580
G1 Z1.028 X100.000 Y129.804 E12.82118
G1 Z1.037 X99.063 Y129.712 E12.85656
G1 Z1.046 X98.162 Y129.438 E12.89194
G1 Z1.056 X97.331 Y128.994 E12.92732
G1 Z1.065 X96.603 Y128.397 E12.96270
G1 Z1.074 X96.006 Y127.669 E12.99808
G1 Z1.084 X95.562 Y126.838 E13.03345
G1 Z1.093 X95.288 Y125.937 E13.06883
G1 Z1.103 X95.196 Y125.000 E13.10421
G1 Z1.112 X95.288 Y124.063 E13.13959
G1 Z1.120 X95.524 Y123.285 E13.17011
;LAYER_CHANGE
;Z:1.52
;HEIGHT:0.3
G1 Z1.120 F4500.000
G1 F600
G1 Z1.121 X95.562 Y123.162 E13.17497
G1 Z1.131 X96.006 Y122.331 E13.21035
G1 Z1.140 X96.603 Y121.603 E13.24573
G1 Z1.149 X97.331 Y121.006 E13.28111
G1 Z1.159 X98.162 Y120.562 E13.31649
G1 Z1.168 X99.063 Y120.288 E13.35187
G1 Z1.178 X100.000 Y120.196 E13.38725
G1 Z1.187 X100.937 Y120.288 E13.42263
G1 Z1.196 X101.838 Y120.562 E13.45800
G1 Z1.206 X102.669 Y121.006 E13.49338
G1 Z1.215 X103.397 Y121.603 E13.52876
G1 Z1.224 X103.994 Y122.331 E13.56414
G1 Z1.234 X104.438 Y123.162 E13.59952
G1 Z1.243 X104.712 Y124.063 E13.63490
G1 Z1.253 X104.804 Y125.000 E13.67028
G1 Z1.262 X104.712 Y125.937 E13.70566
G1 Z1.271 X104.438 Y126.838 E13.74104
G1 Z1.281 X103.994 Y127.669 E13.77642
G1 Z1.290 X103.397 Y128.397 E13.81180
G1 Z1.299 X102.669 Y128.994 E13.84718
G1 Z1.309 X101.838 Y129.438 E13.88255
G1 Z1.318 X100.937 Y129.712 E13.91793
G1 Z1.328 X100.000 Y129.804 E13.95331
G1 Z1.337 X99.063 Y129.712 E13.98869
G1 Z1.346 X98.162 Y129.438 E14.02407
G1 Z1.356 X97.331 Y128.994 E14.05945
G1 Z1.365 X96.603 Y128.397 E14.09483
G1 Z1.374 X96.006 Y127.669 E14.13021
G1 Z1.384 X95.562 Y126.838 E14.16559
G1 Z1.393 X95.288 Y125.937 E14.20097
G1 Z1.403 X95.196 Y125.000 E14.23635
G1 Z1.412 X95.288 Y124.063 E14.27173
G1 Z1.420 X95.524 Y123.285 E14.30224
;LAYER_CHANGE
;Z:1.82
;HEIGHT:0.3
G1 Z1.420 F4500.000
G1 F600
G1 Z1.421 X95.562 Y123.162 E14.30710
G1 Z1.431 X96.006 Y122.331 E14.34248
G1 Z1.440 X96.603 Y121.603 E14.37786
G1 Z1.449 X97.331 Y121.006 E14.41324
G1 Z1.459 X98.162 Y120.562 E14.44862
G1 Z1.468 X99.063 Y120.288 E14.48400
G1 Z1.478 X100.000 Y120.196 E14.51938
G1 Z1.487 X100.937 Y120.288 E14.55476
G1 Z1.496 X101.838 Y120.562 E14.59014
G1 Z1.506 X102.669 Y121.006 E14.62552
G1 Z1.515 X103.397 Y121.603 E14.66090
G1 Z1.524 X103.994 Y122.331 E14.69627
G1 Z1.534 X104.438 Y123.162 E14.73165
G1 Z1.543 X104.712 Y124.063 E14.76703
G1 Z1.553 X104.804 Y125.000 E14.80241
G1 Z1.562 X104.712 Y125.937 E14.83779
G1 Z1.571 X104.438 Y126.838 E14.87317
G1 Z1.581 X103.994 Y127.669 E14.90855
G1 Z1.590 X103.397 Y128.397 E14.94393
G1 Z1.599 X102.669 Y128.994 E14.97931
G1 Z1.609 X101.838 Y129.438 E15.01469
G1 Z1.618 X100.937 Y129.712 E15.05007
G1 Z1.628 X100.000 Y129.804 E15.08545
G1 Z1.637 X99.063 Y129.712 E15.12082
G1 Z1.646 X98.162 Y129.438 E15.15620
G1 Z1.656 X97.331 Y128.994 E15.19158
G1 Z1.665 X96.603 Y128.397 E15.22696
G1 Z1.674 X96.006 Y127.669 E15.26234
G1 Z1.684 X95.562 Y126.838 E15.29772
G1 Z1.693 X95.288 Y125.937 E15.33310
G1 Z1.703 X95.196 Y125.000 E15.36848
G1 Z1.712 X95.288 Y124.063 E15.40386
G1 Z1.720 X95.524 Y123.285 E15.43438
;LAYER_CHANGE
;Z:2.12
;HEIGHT:0.3
G1 Z1.720 F4500.000
G1 F600
G1 Z1.721 X95.562 Y123.162 E15.43924
