; generated by PrusaSlicer 2.3.3 on 2021-09-01 at 15:10:52 UTC

; 

; external perimeters extrusion width = 0.39mm
; perimeters extrusion width = 0.39mm
; infill extrusion width = 0.39mm
; solid infill extrusion width = 0.39mm
; top infill extrusion width = 0.35mm
; support material extrusion width = 0.35mm
; first layer extrusion width = 0.66mm

M201 X9000 Y9000 Z500 E10000 ; sets maximum accelerations, mm/sec^2
M203 X500 Y500 Z12 E120 ; sets maximum feedrates, mm/sec
M204 P1500 R1500 T1500 ; sets acceleration (P, T) and retract acceleration (R), mm/sec^2
M205 X10.00 Y10.00 Z0.20 E2.50 ; sets the jerk limits, mm/sec
M205 S0 T0 ; sets the minimum extruding and travel feed rate, mm/sec
M107
M190 S39 ; set bed temperature and wait for it to be reached
;TYPE:Custom
;; START_CUSTOM
M109 S187 ;; set temperature and wait for it to be reached
G28 ;; home all axes

M420 S1 ;; load up the ABL mesh that we have stored

G90 ;; change to absolute mode
G0 X5 Y5 Z0.25 F5000 ;; move to origin

;; change mode relative
G91
M83

G1 X210 Y15 F5000 ; move to right
G1 E15  F300      ; extrude some

G1 Z-1.00   F4000 ; lower nozzle
G1 X-25 Y5  F4000 ; wipe nozzle
G1 X10  Y-5 F4000 ; wipe nozzle
G1 X-25 Y5  F4000 ; wipe nozzle
G1 X10  Y-5 F4000 ; wipe nozzle
G1 X-25 Y5  F4000 ; wipe nozzle
G1 X10  Y-5 F4000 ; wipe nozzle
G1 X-25 Y5  F4000 ; wipe nozzle
G1 X25  Y-5 F4000 ; wipe nozzle
G1 X-25 Y5  F4000 ; wipe nozzle
G1 X25  Y-5 F4000 ; wipe nozzle
G1 Z0.25    F4000 ; lift nozzle

;; reset mode
M82
G90

G0 X1 Y1 Z0 F5000 ;; move to origin
;; END_CUSTOM
G21 ; set units to millimeters
G90 ; use absolute coordinates
M82 ; use absolute distances for extrusion
G92 E0
; Filament gcode
;LAYER_CHANGE
;Z:0.33
;HEIGHT:0.33
G1 E-1.00000 F900.000
G92 E0
G1 Z0.760 F4500.000
G1 X60.419 Y89.980
G1 E1.00000 F900.000
;TYPE:Skirt
;WIDTH:0.66
G1 F1800.000
G1 X61.275 Y89.529 E1.07155
G1 X62.171 Y89.185 E1.14258
G1 X63.102 Y88.949 E1.21361
G1 X64.054 Y88.823 E1.28463
G1 X110.605 Y88.801 E4.72772
G1 X111.690 Y88.873 E4.80814
G1 X112.756 Y89.089 E4.88855
G1 X113.790 Y89.446 E4.96949
G1 X114.761 Y89.935 E5.04991
G1 X138.433 Y104.729 E7.11456
G1 X139.493 Y105.517 E7.21226
G1 X140.347 Y106.360 E7.30101
G1 X141.251 Y107.592 E7.41404
G1 X141.879 Y108.825 E7.51634
G1 X142.287 Y110.132 E7.61760
G1 X142.512 Y111.675 E7.73295
G1 X142.480 Y120.198 E8.36339
G1 X142.304 Y121.259 E8.44294
G1 X142.063 Y122.138 E8.51032
G1 X141.709 Y123.023 E8.58083
G1 X141.253 Y123.860 E8.65133
G1 X114.287 Y162.676 E12.14715
G1 X113.689 Y163.410 E12.21713
G1 X113.016 Y164.065 E12.28660
G1 X112.267 Y164.643 E12.35658
G1 X111.462 Y165.126 E12.42604
G1 X110.534 Y165.543 E12.50124
G1 X109.569 Y165.839 E12.57592
G1 X100.376 Y167.883 E13.27247
G1 X99.342 Y168.037 E13.34976
G1 X76.608 Y168.065 E15.03131
G1 X75.015 Y167.899 E15.14974
G1 X65.716 Y165.832 E15.85430
G1 X64.483 Y165.425 E15.95035
G1 X63.336 Y164.832 E16.04588
G1 X62.264 Y164.037 E16.14454
G1 X61.341 Y163.085 E16.24267
G1 X60.583 Y161.995 E16.34081
G1 X60.012 Y160.798 E16.43894
G1 X59.671 Y159.659 E16.52683
G1 X57.659 Y150.597 E17.21342
G1 X57.503 Y149.521 E17.29383
G1 X56.472 Y108.706 E20.31364
G1 X56.471 Y96.951 E21.18308
G1 X56.553 Y95.825 E21.26663
G1 X56.789 Y94.720 E21.35017
G1 X57.175 Y93.659 E21.43372
G1 X57.704 Y92.660 E21.51726
G1 X58.258 Y91.876 E21.58829
G1 X58.906 Y91.157 E21.65984
G1 X59.628 Y90.524 E21.73087
G1 X60.376 Y90.010 E21.79801
G1 X60.708 Y90.497 F4500.000
G1 F1800.000
G1 X61.541 Y90.056 E21.86772
G1 X62.380 Y89.737 E21.93413
G1 X63.251 Y89.520 E22.00054
G1 X64.135 Y89.408 E22.06645
G1 X110.605 Y89.390 E25.50354
G1 X111.616 Y89.458 E25.57849
G1 X112.609 Y89.660 E25.65344
G1 X113.567 Y89.992 E25.72839
G1 X114.471 Y90.449 E25.80334
G1 X138.106 Y105.219 E27.86478
G1 X139.093 Y105.950 E27.95561
G1 X139.880 Y106.721 E28.03709
G1 X140.736 Y107.881 E28.14370
G1 X141.326 Y109.030 E28.23923
G1 X141.711 Y110.256 E28.33426
G1 X141.924 Y111.711 E28.44303
G1 X141.897 Y120.113 E29.06451
G1 X141.504 Y121.953 E29.20362
G1 X141.169 Y122.786 E29.27003
G1 X140.738 Y123.573 E29.33644
G1 X113.814 Y162.324 E32.82652
G1 X112.642 Y163.609 E32.95511
G1 X111.954 Y164.142 E33.01951
G1 X111.204 Y164.597 E33.08441
G1 X110.335 Y164.988 E33.15484
G1 X109.425 Y165.267 E33.22526
G1 X100.257 Y167.306 E33.91995
G1 X99.288 Y167.450 E33.99239
G1 X76.609 Y167.476 E35.66979
G1 X75.123 Y167.319 E35.78036
G1 X65.863 Y165.262 E36.48193
G1 X64.707 Y164.880 E36.57194
G1 X63.622 Y164.316 E36.66245
G1 X62.626 Y163.570 E36.75447
G1 X61.769 Y162.678 E36.84599
G1 X61.069 Y161.658 E36.93750
G1 X60.544 Y160.537 E37.02902
G1 X60.258 Y159.586 E37.10246
G1 X58.248 Y150.532 E37.78846
G1 X58.090 Y149.462 E37.86843
G1 X57.061 Y108.693 E40.88484
G1 X57.060 Y96.959 E41.75273
G1 X57.137 Y95.901 E41.83119
G1 X57.359 Y94.870 E41.90915
G1 X57.721 Y93.881 E41.98712
G1 X58.218 Y92.951 E42.06508
G1 X58.734 Y92.225 E42.13099
G1 X59.337 Y91.559 E42.19740
G1 X60.014 Y90.970 E42.26380
G1 X60.664 Y90.527 E42.32200
;WIPE_START
G1 F3600.000
G1 X61.541 Y90.056 E42.08575
G1 X62.380 Y89.737 E41.87251
G1 X63.251 Y89.520 E41.65926
G1 X64.135 Y89.408 E41.44764
G1 X64.454 Y89.407 E41.37200
;WIPE_END
G1 E41.32200 F900.000
G92 E0
G1 X81.132 Y96.419 F4500.000
G1 E1.00000 F900.000
G1 F1800.000
G1 X81.735 Y96.675 E1.04848
G1 X82.159 Y96.973 E1.08683
G1 X82.740 Y97.549 E1.14733
G1 X83.129 Y98.122 E1.19853
G1 X83.372 Y98.707 E1.24542
G1 X83.497 Y99.332 E1.29259
G1 X83.496 Y112.203 E2.24456
G1 X91.758 Y112.203 E2.85567
G1 X91.751 Y99.394 E3.80310
G1 X91.860 Y98.781 E3.84915
G1 X92.118 Y98.135 E3.90058
G1 X92.433 Y97.648 E3.94351
G1 X93.100 Y96.970 E4.01380
G1 X93.633 Y96.614 E4.06125
G1 X94.126 Y96.401 E4.10100
G1 X94.241 Y95.902 E4.13886
G1 X94.517 Y95.259 E4.19067
G1 X94.882 Y94.740 E4.23756
G1 X95.470 Y94.162 E4.29854
G1 X95.949 Y93.838 E4.34131
G1 X96.590 Y93.569 E4.39274
G1 X97.266 Y93.444 E4.44357
G1 X99.203 Y93.444 E4.58681
G1 X99.411 Y93.471 E4.60234
G1 X99.619 Y93.444 E4.61787
G1 X101.559 Y93.444 E4.76138
G1 X101.768 Y93.471 E4.77691
G1 X101.976 Y93.444 E4.79244
G1 X103.916 Y93.444 E4.93596
G1 X104.124 Y93.471 E4.95149
G1 X104.332 Y93.444 E4.96702
G1 X106.273 Y93.444 E5.11054
G1 X106.481 Y93.471 E5.12606
G1 X106.689 Y93.444 E5.14159
G1 X108.630 Y93.444 E5.28511
G1 X108.838 Y93.471 E5.30064
G1 X109.046 Y93.444 E5.31617
G1 X110.984 Y93.444 E5.45951
G1 X111.596 Y93.551 E5.50545
G1 X112.197 Y93.786 E5.55322
G1 X112.840 Y94.214 E5.61038
G1 X113.424 Y94.807 E5.67188
G1 X113.718 Y95.233 E5.71016
G1 X113.992 Y95.853 E5.76033
G1 X114.135 Y96.539 E5.81211
G1 X114.141 Y108.257 E6.67880
G1 X133.726 Y108.263 E8.12738
G1 X134.704 Y108.417 E8.20065
G1 X135.667 Y108.824 E8.27795
G1 X136.567 Y109.542 E8.36315
G1 X137.058 Y110.195 E8.42359
G1 X137.389 Y110.907 E8.48166
G1 X137.580 Y111.901 E8.55650
G1 X137.572 Y119.643 E9.12918
G1 X137.397 Y120.525 E9.19565
G1 X137.009 Y121.342 E9.26256
G1 X136.351 Y122.133 E9.33868
G1 X135.530 Y122.710 E9.41286
G1 X134.602 Y123.069 E9.48647
G1 X133.635 Y123.201 E9.55866
G1 X112.145 Y123.201 E11.14814
G1 X112.895 Y126.727 E11.41477
G1 X112.895 Y149.047 E13.06559
G1 X110.715 Y159.024 E13.82096
G1 X110.387 Y159.675 E13.87491
G1 X110.215 Y159.910 E13.89639
G1 X109.473 Y160.605 E13.97162
G1 X109.357 Y160.681 E13.98189
G1 X108.776 Y160.951 E14.02924
G1 X98.817 Y163.127 E14.78324
G1 X76.497 Y163.127 E16.43411
G1 X66.536 Y160.951 E17.18824
G1 X65.975 Y160.691 E17.23402
G1 X65.777 Y160.561 E17.25149
G1 X65.044 Y159.843 E17.32737
G1 X64.935 Y159.694 E17.34104
G1 X64.597 Y159.024 E17.39653
G1 X62.416 Y149.047 E18.15193
G1 X62.430 Y126.600 E19.81216
G1 X64.591 Y116.767 E20.55678
G1 X64.905 Y116.117 E20.61016
G1 X65.038 Y115.940 E20.62652
G1 X65.672 Y115.294 E20.69347
G1 X65.860 Y115.161 E20.71050
G1 X66.439 Y114.858 E20.75885
G1 X67.929 Y114.505 E20.87212
G1 X67.013 Y113.896 E20.95348
G1 X66.396 Y113.284 E21.01777
G1 X66.098 Y112.870 E21.05554
G1 X65.787 Y112.171 E21.11205
G1 X65.697 Y111.838 E21.13762
G1 X65.209 Y111.785 E21.17390
G1 X63.831 Y111.780 E21.27581
G1 X63.381 Y111.694 E21.30969
G1 X62.837 Y111.470 E21.35321
G1 X62.401 Y111.174 E21.39219
G1 X61.725 Y110.497 E21.46298
G1 X61.431 Y110.067 E21.50153
G1 X61.226 Y109.586 E21.54016
G1 X61.114 Y109.021 E21.58276
G1 X61.114 Y96.603 E22.50123
G1 X61.201 Y96.060 E22.54195
G1 X61.450 Y95.400 E22.59415
G1 X61.753 Y94.905 E22.63705
G1 X62.413 Y94.215 E22.70765
G1 X62.991 Y93.820 E22.75944
G1 X63.528 Y93.591 E22.80258
G1 X64.151 Y93.456 E22.84975
G1 X66.276 Y93.450 E23.00692
G1 X66.429 Y93.469 E23.01837
G1 X66.625 Y93.444 E23.03296
G1 X68.565 Y93.444 E23.17648
G1 X68.773 Y93.471 E23.19200
G1 X68.982 Y93.444 E23.20753
G1 X70.922 Y93.444 E23.35105
G1 X71.130 Y93.471 E23.36658
G1 X71.338 Y93.444 E23.38211
G1 X73.279 Y93.444 E23.52563
G1 X73.487 Y93.471 E23.54116
G1 X73.695 Y93.444 E23.55669
G1 X75.635 Y93.444 E23.70020
G1 X75.844 Y93.471 E23.71573
G1 X76.052 Y93.444 E23.73130
G1 X78.033 Y93.448 E23.87780
G1 X78.588 Y93.547 E23.91953
G1 X79.236 Y93.803 E23.97100
G1 X79.730 Y94.118 E24.01440
G1 X80.407 Y94.781 E24.08448
G1 X80.740 Y95.263 E24.12782
G1 X81.013 Y95.902 E24.17920
G1 X81.120 Y96.368 E24.21452
G1 X80.560 Y96.824 F4500.000
G1 F1800.000
G1 X81.425 Y97.178 E24.28365
G1 X81.799 Y97.440 E24.31746
G1 X82.302 Y97.944 E24.37010
G1 X82.623 Y98.424 E24.41280
G1 X82.802 Y98.856 E24.44738
G1 X82.908 Y99.364 E24.48583
G1 X82.914 Y111.791 E25.40493
G1 X82.850 Y112.135 E25.43079
G1 X82.585 Y112.792 E25.48326
G1 X92.670 Y112.792 E26.22915
G1 X92.404 Y112.135 E26.28162
G1 X92.341 Y111.791 E26.30749
G1 X92.341 Y99.419 E27.22254
G1 X92.420 Y98.967 E27.25652
G1 X92.632 Y98.424 E27.29960
G1 X92.878 Y98.035 E27.33370
G1 X93.454 Y97.442 E27.39478
G1 X93.935 Y97.121 E27.43757
G1 X94.365 Y96.942 E27.47206
G1 X94.693 Y96.855 E27.49716
G1 X94.708 Y96.509 E27.52279
G1 X94.796 Y96.102 E27.55359
G1 X95.020 Y95.567 E27.59649
G1 X95.316 Y95.140 E27.63489
G1 X95.864 Y94.601 E27.69179
G1 X96.204 Y94.370 E27.72216
G1 X96.788 Y94.125 E27.76902
G1 X97.292 Y94.033 E27.80690
G1 X99.178 Y94.033 E27.94641
G1 X99.411 Y94.068 E27.96379
G1 X99.643 Y94.033 E27.98116
G1 X101.535 Y94.033 E28.12110
G1 X101.768 Y94.068 E28.13847
G1 X102.000 Y94.033 E28.15585
G1 X103.892 Y94.033 E28.29579
G1 X104.124 Y94.068 E28.31316
G1 X104.357 Y94.033 E28.33054
G1 X106.249 Y94.033 E28.47048
G1 X106.481 Y94.068 E28.48785
G1 X106.713 Y94.033 E28.50523
G1 X108.605 Y94.033 E28.64516
G1 X108.838 Y94.068 E28.66254
G1 X109.070 Y94.033 E28.67991
G1 X110.956 Y94.033 E28.81943
G1 X111.459 Y94.125 E28.85722
G1 X111.949 Y94.321 E28.89626
G1 X112.442 Y94.649 E28.94005
G1 X112.984 Y95.200 E28.99724
G1 X113.213 Y95.539 E29.02747
G1 X113.438 Y96.057 E29.06925
G1 X113.551 Y96.624 E29.11205
G1 X113.551 Y108.846 E30.01598
G1 X133.662 Y108.849 E31.50342
G1 X134.516 Y108.976 E31.56730
G1 X135.338 Y109.314 E31.63300
G1 X136.120 Y109.927 E31.70658
G1 X136.567 Y110.522 E31.76162
G1 X136.838 Y111.117 E31.80994
G1 X136.991 Y111.928 E31.87096
G1 X136.988 Y119.562 E32.43565
G1 X136.846 Y120.313 E32.49217
G1 X136.528 Y121.001 E32.54818
G1 X135.974 Y121.679 E32.61294
G1 X135.278 Y122.177 E32.67624
G1 X134.484 Y122.491 E32.73938
G1 X133.614 Y122.612 E32.80435
G1 X111.415 Y122.612 E34.44628
G1 X112.306 Y126.759 E34.75999
G1 X112.306 Y149.015 E36.40614
G1 X110.172 Y158.792 E37.14630
G1 X109.871 Y159.389 E37.19577
G1 X109.790 Y159.501 E37.20595
G1 X109.119 Y160.135 E37.27425
G1 X108.557 Y160.403 E37.32028
G1 X98.785 Y162.538 E38.06010
G1 X76.529 Y162.538 E39.70628
G1 X66.755 Y160.403 E40.44624
G1 X66.246 Y160.167 E40.48774
G1 X66.132 Y160.090 E40.49791
G1 X65.475 Y159.441 E40.56622
G1 X65.140 Y158.792 E40.62023
G1 X63.006 Y149.015 E41.36038
G1 X63.019 Y126.632 E43.01591
G1 X65.138 Y116.988 E43.74623
G1 X65.397 Y116.442 E43.79095
G1 X65.475 Y116.335 E43.80072
G1 X66.041 Y115.754 E43.86067
G1 X66.153 Y115.672 E43.87099
G1 X66.676 Y115.399 E43.91463
G1 X70.453 Y114.549 E44.20095
G1 X70.436 Y114.061 E44.23708
G1 X69.952 Y113.987 E44.27326
G1 X69.716 Y114.021 E44.29094
G1 X68.703 Y114.009 E44.36584
G1 X68.260 Y113.908 E44.39949
G1 X67.835 Y113.732 E44.43350
G1 X67.403 Y113.453 E44.47152
G1 X66.854 Y112.913 E44.52844
G1 X66.622 Y112.599 E44.55734
G1 X66.338 Y111.961 E44.60902
G1 X66.256 Y111.619 E44.63501
G1 X66.231 Y111.225 E44.66421
G1 X65.458 Y111.225 E44.72134
G1 X65.257 Y111.195 E44.73636
G1 X63.907 Y111.195 E44.83623
G1 X63.569 Y111.135 E44.86161
G1 X63.136 Y110.962 E44.89614
G1 X62.796 Y110.736 E44.92630
G1 X62.163 Y110.102 E44.99258
G1 X61.938 Y109.766 E45.02248
G1 X61.782 Y109.389 E45.05267
G1 X61.703 Y108.992 E45.08257
G1 X61.703 Y96.629 E45.99703
G1 X61.776 Y96.188 E46.03006
G1 X61.988 Y95.640 E46.07351
G1 X62.235 Y95.245 E46.10797
G1 X62.815 Y94.647 E46.16955
G1 X63.248 Y94.350 E46.20843
G1 X63.731 Y94.145 E46.24719
G1 X64.240 Y94.039 E46.28566
G1 X66.250 Y94.039 E46.43432
G1 X66.427 Y94.066 E46.44760
G1 X66.649 Y94.033 E46.46417
G1 X68.541 Y94.033 E46.60412
G1 X68.773 Y94.068 E46.62150
G1 X69.006 Y94.033 E46.63887
G1 X70.898 Y94.033 E46.77881
G1 X71.130 Y94.068 E46.79619
G1 X71.363 Y94.033 E46.81356
G1 X73.254 Y94.033 E46.95350
G1 X73.487 Y94.068 E46.97087
G1 X73.719 Y94.033 E46.98825
G1 X75.611 Y94.033 E47.12819
G1 X75.844 Y94.068 E47.14556
G1 X76.076 Y94.033 E47.16292
G1 X78.007 Y94.037 E47.30576
G1 X78.400 Y94.106 E47.33528
G1 X78.993 Y94.340 E47.38245
G1 X79.340 Y94.561 E47.41286
G1 X79.973 Y95.180 E47.47835
G1 X80.235 Y95.567 E47.51290
G1 X80.458 Y96.102 E47.55577
G1 X80.547 Y96.509 E47.58657
G1 X80.558 Y96.771 E47.60599
G1 X79.966 Y97.411 F4500.000
G1 F1800.000
G1 X80.411 Y97.431 E47.63892
G1 X80.642 Y97.482 E47.65640
G1 X81.116 Y97.680 E47.69443
G1 X81.402 Y97.877 E47.72010
G1 X81.865 Y98.340 E47.76850
G1 X82.090 Y98.676 E47.79840
G1 X82.246 Y99.053 E47.82859
G1 X82.325 Y99.450 E47.85849
G1 X82.325 Y111.760 E48.76900
G1 X82.280 Y111.985 E48.78596
G1 X82.121 Y112.356 E48.81587
G1 X82.020 Y112.500 E48.82884
G1 X81.138 Y113.382 E48.92110
G1 X94.117 Y113.382 E49.88107
G1 X93.235 Y112.500 E49.97332
G1 X93.134 Y112.356 E49.98630
G1 X92.974 Y111.985 E50.01620
G1 X92.930 Y111.760 E50.03316
G1 X92.930 Y99.447 E50.94382
G1 X92.993 Y99.105 E50.96958
G1 X93.166 Y98.673 E51.00404
G1 X93.355 Y98.382 E51.02964
G1 X93.852 Y97.878 E51.08200
G1 X94.187 Y97.654 E51.11182
G1 X94.566 Y97.497 E51.14215
G1 X94.845 Y97.430 E51.16339
G1 X95.288 Y97.411 E51.19618
G1 X95.292 Y96.591 E51.25685
G1 X95.351 Y96.301 E51.27875
G1 X95.551 Y95.824 E51.31703
G1 X95.748 Y95.541 E51.34249
G1 X96.256 Y95.042 E51.39516
G1 X96.502 Y94.879 E51.41700
G1 X96.981 Y94.683 E51.45530
G1 X97.318 Y94.623 E51.48059
G1 X99.151 Y94.623 E51.61618
G1 X99.411 Y94.666 E51.63566
G1 X99.671 Y94.623 E51.65514
G1 X101.508 Y94.623 E51.79103
G1 X101.768 Y94.666 E51.81051
G1 X102.027 Y94.623 E51.82999
G1 X103.865 Y94.623 E51.96588
G1 X104.124 Y94.666 E51.98536
G1 X104.384 Y94.623 E52.00484
G1 X106.221 Y94.623 E52.14073
G1 X106.481 Y94.666 E52.16021
G1 X106.741 Y94.623 E52.17970
G1 X108.578 Y94.623 E52.31558
G1 X108.838 Y94.666 E52.33506
G1 X109.097 Y94.623 E52.35455
G1 X110.931 Y94.623 E52.49014
G1 X111.268 Y94.683 E52.51552
G1 X111.702 Y94.856 E52.55003
G1 X112.043 Y95.084 E52.58037
G1 X112.543 Y95.592 E52.63308
G1 X112.705 Y95.838 E52.65492
G1 X112.883 Y96.258 E52.68863
G1 X112.962 Y96.653 E52.71844
G1 X112.962 Y108.969 E53.62937
G1 X112.888 Y109.435 E53.66426
G1 X133.597 Y109.435 E55.19598
G1 X134.391 Y109.553 E55.25538
G1 X135.068 Y109.839 E55.30974
G1 X135.719 Y110.361 E55.37144
G1 X136.074 Y110.845 E55.41585
G1 X136.267 Y111.266 E55.45009
G1 X136.402 Y111.957 E55.50221
G1 X136.403 Y119.486 E56.05908
G1 X136.292 Y120.108 E56.10579
G1 X136.043 Y120.665 E56.15091
G1 X135.592 Y121.228 E56.20428
G1 X135.025 Y121.643 E56.25626
G1 X134.302 Y121.929 E56.31376
G1 X133.596 Y122.023 E56.36646
G1 X110.684 Y122.023 E58.06111
G1 X111.717 Y126.791 E58.42192
G1 X111.717 Y148.983 E60.06336
G1 X109.605 Y158.626 E60.79344
G1 X109.339 Y159.121 E60.83502
G1 X108.766 Y159.658 E60.89313
G1 X108.396 Y159.835 E60.92349
G1 X98.753 Y161.949 E61.65362
G1 X76.561 Y161.949 E63.29508
G1 X66.916 Y159.835 E64.02534
G1 X66.496 Y159.626 E64.06008
G1 X65.939 Y159.072 E64.11817
