; generated by Slic3r 1.3.0-dev on 2017-06-27 at 20:28:04

; external perimeters extrusion width = 0.35mm (1.47mm^3/s)
; perimeters extrusion width = 0.52mm (2.89mm^3/s)
; infill extrusion width = 0.52mm (5.77mm^3/s)
; solid infill extrusion width = 0.52mm (5.77mm^3/s)
; top infill extrusion width = 0.52mm (4.81mm^3/s)
; support material extrusion width = 0.35mm (3.68mm^3/s)

M107
G28
G92 X0 Y0 Z0 E0
G1 F5000 Y30 X30
G1 X220
G1 F100 E30 ;extrude

G28
G92 X0 Y0 Z0
G1 F4000 X101 Y127
G92 X0 Y0 Z0 E0
; Filament gcode

G21 ; set units to millimeters
G90 ; use absolute coordinates
M82 ; use absolute distances for extrusion
G92 E0
G1 E-0.80000 F600.00000
G92 E0
G1 Z0.300 F5400.000
G1 X-26.713 Y9.527 F5400.000
G1 Z0.200 F5400.000
G1 E0.80000 F600.00000
G1 F1800
G1 X-26.138 Y-14.388 E1.51025
G1 X-26.116 Y-14.741 E1.52075
G1 X-23.491 Y-41.141 E2.30847
G1 X-22.911 Y-42.983 E2.36582
G1 X-21.640 Y-44.438 E2.42317
G1 X-19.905 Y-45.257 E2.48014
G1 X-17.530 Y-45.830 E2.55267
G1 X-16.748 Y-45.950 E2.57617
G1 X-1.739 Y-46.978 E3.02284
G1 X0.714 Y-46.989 E3.09568
G1 X4.930 Y-46.780 E3.22101
G1 X15.996 Y-46.111 E3.55016
G1 X16.737 Y-46.007 E3.57239
G1 X17.451 Y-45.848 E3.59411
G1 X19.785 Y-45.229 E3.66580
G1 X21.509 Y-44.359 E3.72315
G1 X22.740 Y-42.870 E3.78050
G1 X23.255 Y-41.182 E3.83291
G1 X26.112 Y-14.782 E4.62133
G1 X26.138 Y-14.388 E4.63305
G1 X26.713 Y9.527 E5.34330
G1 X26.714 Y31.640 E5.99988
G1 X26.602 Y32.663 E6.03042
G1 X24.602 Y41.663 E6.30417
G1 X23.805 Y43.422 E6.36152
G1 X22.370 Y44.715 E6.41887
G1 X21.023 Y45.242 E6.46183
G1 X12.023 Y47.242 E6.73557
G1 X11.000 Y47.354 E6.76611
G1 X-11.000 Y47.354 E7.41932
G1 X-12.023 Y47.242 E7.44987
G1 X-21.023 Y45.242 E7.72361
G1 X-22.782 Y44.445 E7.78096
G1 X-24.075 Y43.010 E7.83831
G1 X-24.602 Y41.663 E7.88127
G1 X-26.602 Y32.663 E8.15501
G1 X-26.714 Y31.640 E8.18555
G1 X-26.713 Y9.579 E8.84057
G1 X-26.356 Y9.535 F5400.000
G1 F1800
G1 X-25.760 Y-14.705 E9.56052
G1 X-23.136 Y-41.105 E10.34823
G1 X-22.563 Y-42.871 E10.40335
G1 X-21.307 Y-44.238 E10.45846
G1 X-19.821 Y-44.910 E10.50689
G1 X-17.447 Y-45.483 E10.57942
G1 X-16.723 Y-45.594 E10.60114
G1 X-1.417 Y-46.631 E11.05665
G1 X0.936 Y-46.626 E11.12650
G1 X4.909 Y-46.424 E11.24462
G1 X15.974 Y-45.755 E11.57377
G1 X16.659 Y-45.659 E11.59431
G1 X17.373 Y-45.499 E11.61604
G1 X19.693 Y-44.884 E11.68728
G1 X21.343 Y-44.034 E11.74239
G1 X22.489 Y-42.574 E11.79751
G1 X22.900 Y-41.143 E11.84171
G1 X25.757 Y-14.743 E12.63013
G1 X25.781 Y-14.379 E12.64096
G1 X26.356 Y9.535 E13.35121
G1 X26.357 Y31.640 E14.00753
G1 X26.253 Y32.585 E14.03577
G1 X24.253 Y41.585 E14.30951
G1 X23.474 Y43.270 E14.36462
G1 X22.064 Y44.477 E14.41974
G1 X20.945 Y44.893 E14.45518
G1 X11.945 Y46.893 E14.72892
G1 X11.000 Y46.997 E14.75715
G1 X-11.000 Y46.997 E15.41036
G1 X-11.945 Y46.893 E15.43859
G1 X-20.945 Y44.893 E15.71233
G1 X-22.630 Y44.114 E15.76744
G1 X-23.837 Y42.704 E15.82256
G1 X-24.253 Y41.585 E15.85800
G1 X-26.253 Y32.585 E16.13174
G1 X-26.357 Y31.640 E16.15997
G1 X-26.356 Y9.588 E16.81473
G1 E16.01473 F600.00000
G92 E0
G1 Z0.500 F5400.000
G1 X-12.856 Y5.127 F5400.000
G1 Z0.200 F5400.000
G1 E0.80000 F600.00000
G1 F900
G1 X-11.275 Y3.955 E0.85844
G1 X-9.587 Y2.943 E0.91689
G1 X-7.807 Y2.101 E0.97533
G1 X-5.954 Y1.438 E1.03377
G1 X-4.044 Y0.960 E1.09223
G1 X-2.067 Y0.669 E1.15156
G1 X-0.000 Y0.574 E1.21300
G1 X2.097 Y0.671 E1.27532
G1 X4.045 Y0.960 E1.33379
G1 X5.954 Y1.438 E1.39223
G1 X7.807 Y2.101 E1.45067
G1 X9.587 Y2.943 E1.50912
G1 X11.275 Y3.955 E1.56756
G1 X12.856 Y5.127 E1.62600
G1 X14.314 Y6.449 E1.68445
G1 X15.636 Y7.908 E1.74289
G1 X16.809 Y9.489 E1.80133
G1 X17.821 Y11.177 E1.85978
G1 X18.662 Y12.956 E1.91822
G1 X19.326 Y14.810 E1.97667
G1 X19.804 Y16.719 E2.03511
G1 X20.093 Y18.666 E2.09355
G1 X20.189 Y20.640 E2.15223
G1 X20.093 Y22.614 E2.21090
G1 X19.804 Y24.561 E2.26935
G1 X19.326 Y26.470 E2.32779
G1 X18.662 Y28.324 E2.38624
G1 X17.821 Y30.103 E2.44468
G1 X16.809 Y31.791 E2.50312
G1 X15.636 Y33.372 E2.56157
G1 X14.314 Y34.831 E2.62001
G1 X12.856 Y36.153 E2.67845
G1 X11.275 Y37.325 E2.73690
G1 X9.587 Y38.337 E2.79534
G1 X7.807 Y39.179 E2.85378
G1 X5.954 Y39.842 E2.91223
G1 X4.045 Y40.320 E2.97067
G1 X2.097 Y40.609 E3.02914
G1 X0.000 Y40.705 E3.09146
G1 X-2.097 Y40.609 E3.15377
G1 X-4.045 Y40.320 E3.21224
G1 X-5.954 Y39.842 E3.27069
G1 X-7.807 Y39.179 E3.32913
G1 X-9.587 Y38.337 E3.38757
G1 X-11.275 Y37.325 E3.44602
G1 X-12.856 Y36.153 E3.50446
G1 X-14.314 Y34.831 E3.56291
G1 X-15.636 Y33.372 E3.62135
G1 X-16.809 Y31.791 E3.67979
G1 X-17.821 Y30.103 E3.73824
G1 X-18.662 Y28.324 E3.79668
G1 X-19.326 Y26.470 E3.85512
G1 X-19.804 Y24.561 E3.91357
G1 X-20.093 Y22.614 E3.97201
G1 X-20.189 Y20.640 E4.03069
G1 X-20.093 Y18.666 E4.08936
G1 X-19.804 Y16.719 E4.14781
G1 X-19.326 Y14.810 E4.20625
G1 X-18.662 Y12.956 E4.26469
G1 X-17.821 Y11.177 E4.32314
G1 X-16.809 Y9.489 E4.38158
G1 X-15.636 Y7.908 E4.44002
G1 X-14.314 Y6.449 E4.49847
G1 X-12.895 Y5.162 E4.55535
G1 X-12.629 Y5.404 F5400.000
G1 F720
G1 X-11.076 Y4.252 E4.61275
G1 X-9.418 Y3.258 E4.67016
G1 X-7.670 Y2.431 E4.72756
G1 X-5.850 Y1.780 E4.78496
G1 X-3.975 Y1.310 E4.84237
G1 X-2.033 Y1.025 E4.90064
G1 X-0.000 Y0.932 E4.96106
G1 X2.062 Y1.027 E5.02235
G1 X3.975 Y1.310 E5.07976
G1 X5.850 Y1.780 E5.13717
G1 X7.670 Y2.431 E5.19457
G1 X9.418 Y3.258 E5.25197
G1 X11.076 Y4.252 E5.30937
G1 X12.629 Y5.404 E5.36677
G1 X14.062 Y6.702 E5.42417
G1 X15.360 Y8.134 E5.48158
G1 X16.512 Y9.687 E5.53898
G1 X17.506 Y11.345 E5.59638
G1 X18.332 Y13.093 E5.65378
G1 X18.983 Y14.913 E5.71118
G1 X19.453 Y16.789 E5.76859
G1 X19.737 Y18.701 E5.82599
G1 X19.832 Y20.640 E5.88362
G1 X19.737 Y22.579 E5.94126
G1 X19.453 Y24.491 E5.99866
G1 X18.983 Y26.366 E6.05606
G1 X18.332 Y28.187 E6.11346
G1 X17.506 Y29.934 E6.17086
G1 X16.512 Y31.593 E6.22827
G1 X15.360 Y33.145 E6.28567
G1 X14.062 Y34.578 E6.34307
G1 X12.629 Y35.876 E6.40047
G1 X11.076 Y37.028 E6.45787
G1 X9.418 Y38.022 E6.51528
G1 X7.670 Y38.848 E6.57268
G1 X5.850 Y39.500 E6.63008
G1 X3.975 Y39.969 E6.68748
G1 X2.062 Y40.253 E6.74489
G1 X0.000 Y40.348 E6.80618
G1 X-2.062 Y40.253 E6.86748
G1 X-3.975 Y39.969 E6.92489
G1 X-5.850 Y39.500 E6.98229
G1 X-7.670 Y38.848 E7.03969
G1 X-9.418 Y38.022 E7.09709
G1 X-11.076 Y37.028 E7.15449
G1 X-12.629 Y35.876 E7.21190
G1 X-14.062 Y34.578 E7.26930
G1 X-15.360 Y33.145 E7.32670
G1 X-16.512 Y31.593 E7.38410
G1 X-17.506 Y29.934 E7.44150
G1 X-18.332 Y28.187 E7.49891
G1 X-18.983 Y26.366 E7.55631
G1 X-19.453 Y24.491 E7.61371
G1 X-19.737 Y22.579 E7.67111
G1 X-19.832 Y20.640 E7.72875
G1 X-19.737 Y18.701 E7.78638
G1 X-19.453 Y16.789 E7.84378
G1 X-18.983 Y14.913 E7.90118
G1 X-18.332 Y13.093 E7.95859
G1 X-17.506 Y11.345 E8.01599
G1 X-16.512 Y9.687 E8.07339
G1 X-15.360 Y8.134 E8.13079
G1 X-14.062 Y6.702 E8.18819
G1 X-12.668 Y5.439 E8.24404
G1 X-12.686 Y5.058 F5400.000
G1 X-13.980 Y5.042 F5400.000
G1 F900
G1 X-14.097 Y5.428 E8.25603
G1 X-14.287 Y5.784 E8.26801
G1 X-14.544 Y6.096 E8.28000
G1 X-14.856 Y6.353 E8.29199
G1 X-15.212 Y6.543 E8.30398
G1 X-15.598 Y6.660 E8.31597
G1 X-16.000 Y6.700 E8.32796
G1 X-16.402 Y6.660 E8.33995
G1 X-16.788 Y6.543 E8.35194
G1 X-17.144 Y6.353 E8.36393
G1 X-17.456 Y6.096 E8.37591
G1 X-17.713 Y5.784 E8.38790
G1 X-17.903 Y5.428 E8.39989
G1 X-18.020 Y5.042 E8.41188
G1 X-18.060 Y4.640 E8.42387
G1 X-18.020 Y4.238 E8.43586
G1 X-17.903 Y3.852 E8.44785
G1 X-17.713 Y3.496 E8.45984
G1 X-17.456 Y3.183 E8.47183
G1 X-17.144 Y2.927 E8.48382
G1 X-16.788 Y2.737 E8.49580
G1 X-16.402 Y2.620 E8.50779
G1 X-16.000 Y2.580 E8.51978
G1 X-15.598 Y2.620 E8.53177
G1 X-15.212 Y2.737 E8.54376
G1 X-14.856 Y2.927 E8.55575
G1 X-14.544 Y3.183 E8.56774
G1 X-14.287 Y3.496 E8.57973
G1 X-14.097 Y3.852 E8.59172
G1 X-13.980 Y4.238 E8.60370
G1 X-13.940 Y4.640 E8.61569
G1 X-13.975 Y4.989 E8.62612
G1 X-14.332 Y4.972 F5400.000
G1 F900
G1 X-14.429 Y5.291 E8.63602
G1 X-14.586 Y5.585 E8.64593
G1 X-14.797 Y5.843 E8.65583
G1 X-15.055 Y6.054 E8.66573
G1 X-15.349 Y6.211 E8.67563
G1 X-15.668 Y6.308 E8.68553
G1 X-16.000 Y6.341 E8.69543
G1 X-16.332 Y6.308 E8.70533
G1 X-16.651 Y6.211 E8.71523
G1 X-16.945 Y6.054 E8.72513
G1 X-17.203 Y5.843 E8.73503
G1 X-17.414 Y5.585 E8.74493
G1 X-17.571 Y5.291 E8.75483
G1 X-17.668 Y4.972 E8.76473
G1 X-17.701 Y4.640 E8.77463
G1 X-17.668 Y4.308 E8.78453
G1 X-17.571 Y3.989 E8.79443
G1 X-17.414 Y3.695 E8.80433
G1 X-17.203 Y3.437 E8.81423
G1 X-16.945 Y3.226 E8.82413
G1 X-16.651 Y3.068 E8.83403
G1 X-16.332 Y2.972 E8.84393
G1 X-16.000 Y2.939 E8.85384
G1 X-15.668 Y2.972 E8.86374
G1 X-15.349 Y3.068 E8.87364
G1 X-15.055 Y3.226 E8.88354
G1 X-14.797 Y3.437 E8.89344
G1 X-14.586 Y3.695 E8.90334
G1 X-14.429 Y3.989 E8.91324
G1 X-14.332 Y4.308 E8.92314
G1 X-14.299 Y4.640 E8.93304
G1 X-14.327 Y4.919 E8.94138
G1 X-14.081 Y5.192 F5400.000
G1 E8.14138 F600.00000
G92 E0
G1 Z0.500 F5400.000
G1 X-13.513 Y5.131 F5400.000
G1 X-12.955 Y3.911 F5400.000
G1 X-12.433 Y1.973 F5400.000
G1 X-14.173 Y1.513 F5400.000
G1 X-15.508 Y1.427 F5400.000
G1 X-16.733 Y1.585 F5400.000
G1 X-18.395 Y2.245 F5400.000
G1 X-19.055 Y3.907 F5400.000
G1 X-19.213 Y5.131 F5400.000
G1 X-19.127 Y6.467 F5400.000
G1 X-18.675 Y8.182 F5400.000
G1 X-19.552 Y10.412 F5400.000
G1 X-20.352 Y14.432 F5400.000
G1 X-20.767 Y18.577 F5400.000
G1 X-20.769 Y22.658 F5400.000
G1 X-20.371 Y26.723 F5400.000
G1 X-19.479 Y31.158 F5400.000
G1 X-18.675 Y33.098 F5400.000
G1 X-16.719 Y33.621 F5400.000
G1 X-15.508 Y34.152 F5400.000
G1 X-15.581 Y34.535 F5400.000
G1 X-16.000 Y34.580 F5400.000
G1 Z0.200 F5400.000
G1 E0.80000 F600.00000
G1 F900
G1 X-15.598 Y34.620 E0.81199
G1 X-15.212 Y34.737 E0.82398
G1 X-14.856 Y34.927 E0.83597
G1 X-14.544 Y35.183 E0.84796
G1 X-14.287 Y35.496 E0.85995
G1 X-14.097 Y35.852 E0.87193
G1 X-13.980 Y36.238 E0.88392
G1 X-13.940 Y36.640 E0.89591
G1 X-13.980 Y37.042 E0.90790
G1 X-14.097 Y37.428 E0.91989
G1 X-14.287 Y37.784 E0.93188
G1 X-14.544 Y38.096 E0.94387
G1 X-14.856 Y38.353 E0.95586
G1 X-15.212 Y38.543 E0.96785
G1 X-15.598 Y38.660 E0.97983
G1 X-16.000 Y38.700 E0.99182
G1 X-16.402 Y38.660 E1.00381
G1 X-16.788 Y38.543 E1.01580
G1 X-17.144 Y38.353 E1.02779
G1 X-17.456 Y38.096 E1.03978
G1 X-17.713 Y37.784 E1.05177
G1 X-17.903 Y37.428 E1.06376
G1 X-18.020 Y37.042 E1.07575
G1 X-18.060 Y36.640 E1.08773
G1 X-18.020 Y36.238 E1.09972
G1 X-17.903 Y35.852 E1.11171
G1 X-17.713 Y35.496 E1.12370
G1 X-17.456 Y35.183 E1.13569
G1 X-17.144 Y34.927 E1.14768
G1 X-16.788 Y34.737 E1.15967
G1 X-16.402 Y34.620 E1.17166
G1 X-16.052 Y34.585 E1.18209
G1 X-16.000 Y34.939 F5400.000
G1 F900
G1 X-15.668 Y34.972 E1.19199
G1 X-15.349 Y35.068 E1.20189
G1 X-15.055 Y35.226 E1.21179
G1 X-14.797 Y35.437 E1.22169
G1 X-14.586 Y35.695 E1.23159
G1 X-14.429 Y35.989 E1.24149
G1 X-14.332 Y36.308 E1.25139
G1 X-14.299 Y36.640 E1.26129
G1 X-14.332 Y36.972 E1.27119
G1 X-14.429 Y37.291 E1.28109
G1 X-14.586 Y37.585 E1.29099
G1 X-14.797 Y37.843 E1.30089
G1 X-15.055 Y38.054 E1.31079
G1 X-15.349 Y38.211 E1.32070
G1 X-15.668 Y38.308 E1.33059
G1 X-16.000 Y38.341 E1.34050
G1 X-16.332 Y38.308 E1.35040
G1 X-16.651 Y38.211 E1.36030
G1 X-16.945 Y38.054 E1.37020
G1 X-17.203 Y37.843 E1.38010
G1 X-17.414 Y37.585 E1.39000
G1 X-17.571 Y37.291 E1.39990
G1 X-17.668 Y36.972 E1.40980
G1 X-17.701 Y36.640 E1.41970
G1 X-17.668 Y36.308 E1.42960
G1 X-17.571 Y35.989 E1.43950
G1 X-17.414 Y35.695 E1.44940
G1 X-17.203 Y35.437 E1.45930
G1 X-16.945 Y35.226 E1.46920
G1 X-16.651 Y35.068 E1.47910
G1 X-16.332 Y34.972 E1.48900
G1 X-16.052 Y34.944 E1.49734
G1 X-15.833 Y34.650 F5400.000
G1 E0.69734 F600.00000
G92 E0
G1 Z0.500 F5400.000
G1 X-15.581 Y34.535 F5400.000
G1 X-15.508 Y34.152 F5400.000
G1 X-16.719 Y33.621 F5400.000
G1 X-18.675 Y33.098 F5400.000
G1 X-19.127 Y34.813 F5400.000
G1 X-19.105 Y37.131 F5400.000
G1 X-18.641 Y38.586 F5400.000
G1 X-18.395 Y39.035 F5400.000
G1 X-17.946 Y39.281 F5400.000
G1 X-16.492 Y39.745 F5400.000
G1 X-15.200 Y39.856 F5400.000
G1 X-13.666 Y39.669 F5400.000
G1 X-12.433 Y39.307 F5400.000
G1 X-10.376 Y40.128 F5400.000
G1 X-6.356 Y40.928 F5400.000
G1 X-2.199 Y41.344 F5400.000
G1 X2.141 Y41.347 F5400.000
G1 X6.219 Y40.948 F5400.000
G1 X10.680 Y40.052 F5400.000
G1 X12.433 Y39.307 F5400.000
G1 X12.955 Y37.369 F5400.000
G1 X13.513 Y36.148 F5400.000
G1 X13.895 Y36.221 F5400.000
G1 X13.940 Y36.640 F5400.000
G1 Z0.200 F5400.000
G1 E0.80000 F600.00000
G1 F900
G1 X13.980 Y36.238 E0.81199
G1 X14.097 Y35.852 E0.82398
G1 X14.287 Y35.496 E0.83597
G1 X14.544 Y35.183 E0.84796
G1 X14.856 Y34.927 E0.85995
G1 X15.212 Y34.737 E0.87193
G1 X15.598 Y34.620 E0.88392
G1 X16.000 Y34.580 E0.89591
G1 X16.402 Y34.620 E0.90790
G1 X16.788 Y34.737 E0.91989
G1 X17.144 Y34.927 E0.93188
G1 X17.456 Y35.183 E0.94387
G1 X17.713 Y35.496 E0.95586
G1 X17.903 Y35.852 E0.96785
G1 X18.020 Y36.238 E0.97983
G1 X18.060 Y36.640 E0.99182
G1 X18.020 Y37.042 E1.00381
G1 X17.903 Y37.428 E1.01580
G1 X17.713 Y37.784 E1.02779
G1 X17.456 Y38.096 E1.03978
G1 X17.144 Y38.353 E1.05177
G1 X16.788 Y38.543 E1.06376
G1 X16.402 Y38.660 E1.07575
G1 X16.000 Y38.700 E1.08774
G1 X15.598 Y38.660 E1.09972
G1 X15.212 Y38.543 E1.11171
G1 X14.856 Y38.353 E1.12370
G1 X14.544 Y38.096 E1.13569
G1 X14.287 Y37.784 E1.14768
G1 X14.097 Y37.428 E1.15967
G1 X13.980 Y37.042 E1.17166
G1 X13.945 Y36.692 E1.18209
G1 X14.299 Y36.640 F5400.000
G1 F900
G1 X14.332 Y36.308 E1.19199
G1 X14.429 Y35.989 E1.20189
G1 X14.586 Y35.695 E1.21179
G1 X14.797 Y35.437 E1.22169
G1 X15.055 Y35.226 E1.23159
G1 X15.349 Y35.068 E1.24149
G1 X15.668 Y34.972 E1.25139
G1 X16.000 Y34.939 E1.26129
G1 X16.332 Y34.972 E1.27119
G1 X16.651 Y35.068 E1.28109
G1 X16.945 Y35.226 E1.29099
G1 X17.203 Y35.437 E1.30089
G1 X17.414 Y35.695 E1.31079
G1 X17.571 Y35.989 E1.32069
G1 X17.668 Y36.308 E1.33059
G1 X17.701 Y36.640 E1.34050
G1 X17.668 Y36.972 E1.35040
G1 X17.571 Y37.291 E1.36030
G1 X17.414 Y37.585 E1.37020
G1 X17.203 Y37.843 E1.38010
G1 X16.945 Y38.054 E1.39000
G1 X16.651 Y38.211 E1.39990
G1 X16.332 Y38.308 E1.40980
G1 X16.000 Y38.341 E1.41970
G1 X15.668 Y38.308 E1.42960
G1 X15.349 Y38.211 E1.43950
G1 X15.055 Y38.054 E1.44940
G1 X14.797 Y37.843 E1.45930
G1 X14.586 Y37.585 E1.46920
G1 X14.429 Y37.291 E1.47910
G1 X14.332 Y36.972 E1.48900
G1 X14.304 Y36.692 E1.49734
G1 X14.010 Y36.473 F5400.000
G1 E0.69734 F600.00000
G92 E0
G1 Z0.500 F5400.000
G1 X13.895 Y36.221 F5400.000
G1 X13.513 Y36.148 F5400.000
G1 X12.955 Y37.369 F5400.000
G1 X12.433 Y39.307 F5400.000
G1 X14.173 Y39.767 F5400.000
G1 X16.492 Y39.745 F5400.000
G1 X17.946 Y39.281 F5400.000
G1 X18.395 Y39.035 F5400.000
G1 X18.641 Y38.586 F5400.000
G1 X19.105 Y37.131 F5400.000
G1 X19.216 Y35.840 F5400.000
G1 X19.029 Y34.306 F5400.000
G1 X18.675 Y33.097 F5400.000
G1 X19.552 Y30.868 F5400.000
G1 X20.352 Y26.848 F5400.000
G1 X20.767 Y22.703 F5400.000
G1 X20.769 Y18.622 F5400.000
G1 X20.371 Y14.557 F5400.000
G1 X19.479 Y10.121 F5400.000
G1 X18.675 Y8.182 F5400.000
G1 X16.718 Y7.659 F5400.000
G1 X15.508 Y7.127 F5400.000
G1 X15.581 Y6.745 F5400.000
G1 X16.000 Y6.700 F5400.000
G1 Z0.200 F5400.000
G1 E0.80000 F600.00000
G1 F900
G1 X15.598 Y6.660 E0.81199
G1 X15.212 Y6.543 E0.82398
G1 X14.856 Y6.353 E0.83597
G1 X14.544 Y6.096 E0.84796
G1 X14.287 Y5.784 E0.85994
G1 X14.097 Y5.428 E0.87193
G1 X13.980 Y5.042 E0.88392
G1 X13.940 Y4.640 E0.89591
G1 X13.980 Y4.238 E0.90790
G1 X14.097 Y3.852 E0.91989
G1 X14.287 Y3.496 E0.93188
G1 X14.544 Y3.183 E0.94387
G1 X14.856 Y2.927 E0.95586
G1 X15.212 Y2.737 E0.96785
G1 X15.598 Y2.620 E0.97983
G1 X16.000 Y2.580 E0.99182
G1 X16.402 Y2.620 E1.00381
G1 X16.788 Y2.737 E1.01580
G1 X17.144 Y2.927 E1.02779
G1 X17.456 Y3.183 E1.03978
G1 X17.713 Y3.496 E1.05177
G1 X17.903 Y3.852 E1.06376
G1 X18.020 Y4.238 E1.07575
G1 X18.060 Y4.640 E1.08773
G1 X18.020 Y5.042 E1.09972
G1 X17.903 Y5.428 E1.11171
G1 X17.713 Y5.784 E1.12370
G1 X17.456 Y6.096 E1.13569
G1 X17.144 Y6.353 E1.14768
G1 X16.788 Y6.543 E1.15967
G1 X16.402 Y6.660 E1.17166
G1 X16.052 Y6.695 E1.18209
G1 X16.000 Y6.341 F5400.000
G1 F900
G1 X15.668 Y6.308 E1.19199
G1 X15.349 Y6.211 E1.20189
G1 X15.055 Y6.054 E1.21179
G1 X14.797 Y5.843 E1.22169
G1 X14.586 Y5.585 E1.23159
G1 X14.429 Y5.291 E1.24149
G1 X14.332 Y4.972 E1.25139
G1 X14.299 Y4.640 E1.26129
G1 X14.332 Y4.308 E1.27119
G1 X14.429 Y3.989 E1.28109
G1 X14.586 Y3.695 E1.29099
