; generated by PrusaSlicer 2.3.3 on 2021-09-01 at 01:46:09 UTC

; 

; external perimeters extrusion width = 0.39mm
; perimeters extrusion width = 0.39mm
; infill extrusion width = 0.39mm
; solid infill extrusion width = 0.39mm
; top infill extrusion width = 0.35mm
; first layer extrusion width = 0.66mm

M201 X9000 Y9000 Z500 E10000 ; sets maximum accelerations, mm/sec^2
M203 X500 Y500 Z12 E120 ; sets maximum feedrates, mm/sec
M204 P1500 R1500 T1500 ; sets acceleration (P, T) and retract acceleration (R), mm/sec^2
M205 X10.00 Y10.00 Z0.20 E2.50 ; sets the jerk limits, mm/sec
M205 S0 T0 ; sets the minimum extruding and travel feed rate, mm/sec
M107
M190 S39 ; set bed temperature and wait for it to be reached
;TYPE:Custom
M109 S187 ; set temperature and wait for it to be reached START_CUSTOM
G28 ; home all axes
G1 Z1 F5000 ; lift nozzle

;; change mode relative
G91
M83

G1 X210 Y15 F5000 ; move to right
G1 E15  F300      ; extrude some

G1 Z-1.22   F4000 ; lower nozzle
G1 X-25 Y5  F4000 ; wipe nozzle
G1 X10  Y-5 F4000 ; wipe nozzle
G1 X-25 Y5  F4000 ; wipe nozzle
G1 X10  Y-5 F4000 ; wipe nozzle
G1 X-25 Y5  F4000 ; wipe nozzle
G1 X10  Y-5 F4000 ; wipe nozzle
G1 X-25 Y5  F4000 ; wipe nozzle
G1 X25  Y-5 F4000 ; wipe nozzle
G1 X-25 Y5  F4000 ; wipe nozzle
G1 X25  Y-5 F4000 ; wipe nozzle
G1 Z0.25    F4000 ; lift nozzle

;; reset mode
M82
G90

G28 ; home all axes
;; G1 Z5 F5000 ; lift nozzle END_CUSTOM
G21 ; set units to millimeters
G90 ; use absolute coordinates
M82 ; use absolute distances for extrusion
G92 E0
; Filament gcode
;LAYER_CHANGE
;Z:0.33
;HEIGHT:0.33
G1 E-1.00000 F900.000
G92 E0
G1 Z0.255 F4500.000
G1 X63.328 Y110.947
G1 E1.00000 F900.000
;TYPE:Skirt
;WIDTH:0.66
G1 F1800.000
G1 X64.448 Y110.364 E1.09447
G1 X65.488 Y110.001 E1.17682
G1 X75.308 Y107.377 E1.93684
G1 X76.616 Y107.266 E2.03500
G1 X98.664 Y107.265 E3.68356
G1 X133.873 Y108.325 E6.31736
G1 X135.238 Y108.477 E6.42011
G1 X136.447 Y108.792 E6.51352
G1 X138.161 Y109.563 E6.65402
G1 X139.727 Y110.724 E6.79976
G1 X140.888 Y112.050 E6.93158
G1 X141.431 Y112.896 E7.00674
G1 X141.855 Y113.765 E7.07908
G1 X142.308 Y115.220 E7.19302
G1 X142.521 Y116.921 E7.32114
G1 X142.490 Y120.100 E7.55887
G1 X142.307 Y121.245 E7.64561
G1 X142.041 Y122.205 E7.72005
G1 X141.574 Y123.295 E7.80872
G1 X140.938 Y124.339 E7.90014
G1 X114.324 Y162.624 E11.38655
G1 X113.741 Y163.352 E11.45625
G1 X113.080 Y164.009 E11.52594
G1 X112.348 Y164.586 E11.59564
G1 X111.555 Y165.077 E11.66533
G1 X110.594 Y165.520 E11.74452
G1 X109.583 Y165.835 E11.82370
G1 X100.376 Y167.883 E12.52892
G1 X99.356 Y168.035 E12.60600
G1 X76.622 Y168.065 E14.30592
G1 X75.015 Y167.899 E14.42670
G1 X65.730 Y165.836 E15.13790
G1 X64.516 Y165.439 E15.23342
G1 X63.384 Y164.861 E15.32842
G1 X62.296 Y164.065 E15.42920
G1 X61.354 Y163.101 E15.52999
G1 X60.587 Y162.001 E15.63025
G1 X60.007 Y160.785 E15.73104
G1 X59.686 Y159.724 E15.81391
G1 X57.668 Y150.639 E16.50977
G1 X57.490 Y149.317 E16.60950
G1 X57.511 Y126.160 E18.34097
G1 X57.663 Y125.162 E18.41647
G1 X59.727 Y115.881 E19.12739
G1 X60.116 Y114.716 E19.21922
G1 X60.680 Y113.617 E19.31158
G1 X61.421 Y112.594 E19.40605
G1 X62.310 Y111.697 E19.50052
G1 X63.285 Y110.978 E19.59106
G1 X63.633 Y111.457 F4500.000
G1 F1800.000
G1 X64.738 Y110.881 E19.68425
G1 X65.651 Y110.567 E19.75646
G1 X75.447 Y107.952 E20.51460
G1 X76.626 Y107.855 E20.60305
G1 X98.664 Y107.855 E22.25085
G1 X133.838 Y108.914 E24.88209
G1 X135.079 Y109.047 E24.97539
G1 X136.148 Y109.313 E25.05775
G1 X137.782 Y110.024 E25.19103
G1 X139.265 Y111.100 E25.32801
G1 X140.368 Y112.336 E25.45193
G1 X140.887 Y113.132 E25.52291
G1 X141.288 Y113.935 E25.59005
G1 X141.720 Y115.288 E25.69625
G1 X141.931 Y116.876 E25.81607
G1 X141.909 Y119.978 E26.04795
G1 X141.784 Y120.862 E26.11477
G1 X141.519 Y121.907 E26.19535
G1 X141.073 Y122.981 E26.28228
G1 X140.454 Y124.002 E26.37157
G1 X113.849 Y162.274 E29.85677
G1 X112.699 Y163.559 E29.98575
G1 X111.287 Y164.551 E30.11473
G1 X110.386 Y164.968 E30.18898
G1 X109.438 Y165.264 E30.26322
G1 X100.257 Y167.306 E30.96652
G1 X99.295 Y167.449 E31.03924
G1 X76.623 Y167.476 E32.73446
G1 X75.129 Y167.321 E32.84674
G1 X65.870 Y165.263 E33.55599
G1 X64.726 Y164.888 E33.64597
G1 X63.656 Y164.337 E33.73595
G1 X62.646 Y163.588 E33.82998
G1 X61.778 Y162.688 E33.92351
G1 X61.065 Y161.652 E34.01755
G1 X60.537 Y160.518 E34.11108
G1 X60.257 Y159.579 E34.18431
G1 X58.242 Y150.505 E34.87934
G1 X58.077 Y149.258 E34.97337
G1 X58.097 Y126.221 E36.69594
G1 X58.239 Y125.286 E36.76663
G1 X60.296 Y116.030 E37.47560
G1 X60.669 Y114.922 E37.56304
G1 X61.204 Y113.890 E37.64998
G1 X61.899 Y112.941 E37.73793
G1 X62.738 Y112.106 E37.82638
G1 X63.590 Y111.488 E37.90511
;WIPE_START
G1 F3600.000
G1 X64.738 Y110.881 E37.59676
G1 X65.651 Y110.567 E37.36739
G1 X67.328 Y110.119 E36.95511
;WIPE_END
G1 E36.90511 F900.000
G92 E0
G1 X101.663 Y121.490 F4500.000
G1 E1.00000 F900.000
;TYPE:External perimeter
G1 F540.000
G1 X101.779 Y121.109 E1.02974
G1 X101.965 Y120.758 E1.05944
G1 X102.218 Y120.448 E1.08936
G1 X102.528 Y120.195 E1.11929
G1 X102.879 Y120.009 E1.14897
G1 X103.259 Y119.893 E1.17869
G1 X103.657 Y119.855 E1.20859
G1 X104.053 Y119.893 E1.23830
G1 X104.435 Y120.009 E1.26821
G1 X104.784 Y120.196 E1.29780
G1 X105.094 Y120.448 E1.32766
G1 X105.347 Y120.758 E1.35759
G1 X105.533 Y121.109 E1.38728
G1 X105.649 Y121.487 E1.41684
G1 X105.690 Y121.885 E1.44673
G1 X105.649 Y122.285 E1.47679
G1 X105.533 Y122.662 E1.50631
G1 X105.347 Y123.016 E1.53621
G1 X105.093 Y123.324 E1.56609
G1 X104.784 Y123.576 E1.59586
G1 X104.435 Y123.763 E1.62547
G1 X104.052 Y123.879 E1.65542
G1 X103.654 Y123.916 E1.68529
G1 X103.253 Y123.872 E1.71545
G1 X102.869 Y123.741 E1.74577
G1 X102.534 Y123.529 E1.77543
G1 X102.263 Y123.283 E1.80279
G1 X102.010 Y123.013 E1.83049
G1 X101.799 Y122.671 E1.86052
G1 X101.670 Y122.289 E1.89069
G1 X101.626 Y121.888 E1.92086
G1 X101.658 Y121.542 E1.94683
G1 X101.399 Y121.259 F4500.000
;WIPE_START
G1 F3600.000
G1 X101.779 Y121.109 E1.84013
G1 X101.965 Y120.758 E1.74580
G1 X102.218 Y120.448 E1.65075
G1 X102.528 Y120.195 E1.55570
G1 X102.879 Y120.009 E1.46140
G1 X103.259 Y119.893 E1.36702
G1 X103.657 Y119.855 E1.27202
G1 X104.053 Y119.893 E1.17767
G1 X104.435 Y120.009 E1.08267
G1 X104.754 Y120.180 E0.99683
;WIPE_END
G1 E0.94683 F900.000
G92 E0
G1 X104.576 Y124.952 F4500.000
G1 E1.00000 F900.000
;TYPE:Perimeter
G1 F540.000
G1 X104.888 Y124.857 E1.02444
G1 X105.441 Y124.561 E1.07125
G1 X105.928 Y124.164 E1.11831
G1 X106.333 Y123.672 E1.16594
G1 X106.627 Y123.114 E1.21311
G1 X106.726 Y122.792 E1.23829
G1 X106.998 Y122.802 E1.25865
G1 X107.947 Y127.074 E1.58585
G1 X107.947 Y130.466 E1.83944
G1 X107.654 Y130.517 E1.86168
G1 X107.383 Y129.760 E1.92172
G1 X106.493 Y127.881 E2.07724
G1 X105.423 Y126.095 E2.23289
G1 X104.607 Y124.994 E2.33538
;WIPE_START
G1 F3600.000
G1 X104.888 Y124.857 E2.26102
G1 X105.441 Y124.561 E2.11233
G1 X105.928 Y124.164 E1.96285
G1 X106.333 Y123.672 E1.81156
G1 X106.627 Y123.114 E1.66173
G1 X106.726 Y122.792 E1.58175
G1 X106.998 Y122.802 E1.51709
G1 X107.118 Y123.344 E1.38538
;WIPE_END
G1 E1.33538 F900.000
G92 E0
G1 X106.040 Y119.745 F4500.000
G1 E1.00000 F900.000
G1 F540.000
G1 X105.931 Y119.611 E1.01292
G1 X105.441 Y119.211 E1.06026
G1 X104.889 Y118.916 E1.10701
G1 X104.283 Y118.731 E1.15440
G1 X103.658 Y118.671 E1.20139
G1 X103.028 Y118.731 E1.24869
G1 X102.426 Y118.916 E1.29577
G1 X101.873 Y119.209 E1.34253
G1 X101.381 Y119.611 E1.39007
G1 X100.979 Y120.104 E1.43762
G1 X100.685 Y120.657 E1.48443
G1 X100.582 Y120.993 E1.51076
G1 X99.571 Y120.243 E1.60489
G1 X97.785 Y119.172 E1.76061
G1 X95.903 Y118.283 E1.91626
G1 X93.944 Y117.582 E2.07186
G1 X93.466 Y117.462 E2.10871
G1 X93.504 Y117.152 E2.13208
G1 X96.949 Y117.152 E2.38964
G1 X96.949 Y117.257 E2.39750
G1 X101.213 Y118.205 E2.72417
G1 X105.977 Y118.205 E3.08037
G1 X106.292 Y119.623 E3.18894
G1 X106.088 Y119.722 E3.20591
;WIPE_START
G1 F3600.000
G1 X105.931 Y119.611 E3.16033
G1 X105.441 Y119.211 E3.00998
G1 X104.889 Y118.916 E2.86147
G1 X104.283 Y118.731 E2.71094
G1 X103.658 Y118.671 E2.56171
G1 X103.028 Y118.731 E2.41146
G1 X102.426 Y118.916 E2.26191
G1 X102.404 Y118.928 E2.25591
;WIPE_END
G1 E2.20591 F900.000
G92 E0
G1 X81.846 Y117.462 F4500.000
G1 E1.00000 F900.000
G1 F540.000
G1 X81.368 Y117.582 E1.03685
G1 X79.409 Y118.283 E1.19245
G1 X77.527 Y119.172 E1.34810
G1 X75.741 Y120.243 E1.50382
G1 X74.730 Y120.993 E1.59795
G1 X74.627 Y120.657 E1.62428
G1 X74.333 Y120.104 E1.67109
G1 X73.931 Y119.611 E1.71863
G1 X73.439 Y119.209 E1.76618
G1 X72.886 Y118.916 E1.81293
G1 X72.563 Y118.816 E1.83825
G1 X72.573 Y118.544 E1.85860
G1 X78.365 Y117.257 E2.30224
G1 X78.365 Y117.152 E2.31012
G1 X81.808 Y117.152 E2.56754
G1 X81.840 Y117.410 E2.58698
;WIPE_START
G1 F3600.000
G1 X81.368 Y117.582 E2.46775
G1 X79.409 Y118.283 E1.97353
G1 X78.128 Y118.888 E1.63698
;WIPE_END
G1 E1.58698 F900.000
G92 E0
G1 X69.513 Y119.503 F4500.000
G1 E1.00000 F900.000
G1 F540.000
G1 X69.381 Y119.611 E1.01278
G1 X69.271 Y119.746 E1.02579
G1 X69.019 Y119.624 E1.04668
G1 X69.087 Y119.319 E1.07003
G1 X69.391 Y119.251 E1.09333
G1 X69.490 Y119.455 E1.11031
;WIPE_START
G1 F3600.000
G1 X69.381 Y119.611 E1.06516
G1 X69.271 Y119.746 E1.02386
G1 X69.019 Y119.624 E0.95749
G1 X69.087 Y119.319 E0.88334
G1 X69.391 Y119.251 E0.80931
G1 X69.490 Y119.455 E0.75540
;WIPE_END
G1 E0.11031 F900.000
G92 E0
G1 X68.586 Y122.791 F4500.000
G1 E1.00000 F900.000
G1 F540.000
G1 X68.685 Y123.114 E1.02522
G1 X68.979 Y123.672 E1.07239
G1 X69.384 Y124.164 E1.12002
G1 X69.871 Y124.561 E1.16708
G1 X70.424 Y124.857 E1.21389
G1 X70.736 Y124.952 E1.23833
G1 X69.889 Y126.095 E1.34475
G1 X68.819 Y127.881 E1.50039
G1 X67.929 Y129.760 E1.65592
G1 X67.658 Y130.517 E1.71596
G1 X67.365 Y130.466 E1.73820
G1 X67.365 Y127.074 E1.99179
G1 X68.314 Y122.802 E2.31902
G1 X68.533 Y122.793 E2.33546
;WIPE_START
G1 F3600.000
G1 X68.685 Y123.114 E2.25130
G1 X68.979 Y123.672 E2.10147
G1 X69.384 Y124.164 E1.95018
G1 X69.871 Y124.561 E1.80069
G1 X70.424 Y124.857 E1.65200
G1 X70.736 Y124.952 E1.57438
G1 X70.262 Y125.591 E1.38546
;WIPE_END
G1 E1.33546 F900.000
G92 E0
G1 X97.538 Y116.785 F4500.000
G1 E1.00000 F900.000
G1 F2160.000
G1 X101.278 Y117.616 E1.28650
G1 X133.226 Y117.616 E3.67529
G1 X133.226 Y118.842 E3.76693
G1 X106.722 Y118.842 E5.74867
G1 X108.536 Y127.010 E6.37428
G1 X108.536 Y135.157 E6.98350
G1 X108.208 Y135.182 E7.00806
G1 X108.012 Y133.854 E7.10838
G1 X107.519 Y131.892 E7.25969
G1 X106.838 Y129.986 E7.41099
G1 X105.973 Y128.159 E7.56218
G1 X104.933 Y126.423 E7.71351
G1 X103.725 Y124.793 E7.86518
G1 X103.477 Y124.524 E7.89253
G1 X104.166 Y124.460 E7.94427
G1 X104.662 Y124.310 E7.98303
G1 X105.112 Y124.069 E8.02124
G1 X105.511 Y123.744 E8.05966
G1 X105.840 Y123.344 E8.09841
G1 X106.080 Y122.888 E8.13695
G1 X106.229 Y122.402 E8.17493
G1 X106.282 Y121.885 E8.21383
G1 X106.229 Y121.369 E8.25256
G1 X106.080 Y120.882 E8.29064
G1 X105.840 Y120.431 E8.32887
G1 X105.512 Y120.030 E8.36760
G1 X105.112 Y119.703 E8.40620
G1 X104.662 Y119.462 E8.44437
G1 X104.168 Y119.312 E8.48302
G1 X103.657 Y119.263 E8.52137
G1 X103.143 Y119.312 E8.55997
G1 X102.652 Y119.462 E8.59837
G1 X102.201 Y119.702 E8.63659
G1 X101.800 Y120.030 E8.67533
G1 X101.472 Y120.431 E8.71406
G1 X101.232 Y120.883 E8.75232
G1 X101.082 Y121.375 E8.79079
G1 X101.019 Y122.051 E8.84157
G1 X99.244 Y120.733 E9.00689
G1 X97.507 Y119.693 E9.15826
G1 X95.678 Y118.828 E9.30959
G1 X93.772 Y118.147 E9.46086
G1 X91.810 Y117.654 E9.61217
G1 X89.807 Y117.358 E9.76351
G1 X87.655 Y117.257 E9.92464
G1 X85.505 Y117.358 E10.08561
G1 X83.502 Y117.654 E10.23695
G1 X81.540 Y118.147 E10.38826
G1 X79.634 Y118.828 E10.53954
G1 X77.805 Y119.693 E10.69086
G1 X76.068 Y120.733 E10.84223
G1 X74.293 Y122.051 E11.00755
G1 X74.230 Y121.375 E11.05833
G1 X74.080 Y120.883 E11.09680
G1 X73.840 Y120.431 E11.13506
G1 X73.512 Y120.030 E11.17379
G1 X73.111 Y119.702 E11.21253
G1 X72.660 Y119.462 E11.25075
G1 X72.169 Y119.312 E11.28915
G1 X71.655 Y119.263 E11.32775
G1 X71.178 Y119.308 E11.36356
G1 X70.656 Y119.459 E11.40420
G1 X70.200 Y119.703 E11.44289
G1 X69.800 Y120.030 E11.48148
G1 X69.472 Y120.431 E11.52022
G1 X69.232 Y120.882 E11.55844
G1 X69.082 Y121.373 E11.59681
G1 X69.033 Y121.885 E11.63524
G1 X69.082 Y122.399 E11.67384
G1 X69.232 Y122.888 E11.71211
G1 X69.472 Y123.344 E11.75065
G1 X69.801 Y123.744 E11.78940
G1 X70.200 Y124.069 E11.82782
G1 X70.650 Y124.310 E11.86603
G1 X71.146 Y124.460 E11.90479
G1 X71.835 Y124.524 E11.95652
G1 X71.587 Y124.793 E11.98388
G1 X70.379 Y126.423 E12.13555
G1 X69.339 Y128.159 E12.28688
G1 X68.474 Y129.986 E12.43807
G1 X67.793 Y131.892 E12.58936
G1 X67.300 Y133.854 E12.74067
G1 X67.104 Y135.182 E12.84099
G1 X66.776 Y135.158 E12.86555
G1 X66.776 Y127.010 E13.47478
G1 X68.593 Y118.825 E14.10166
G1 X77.776 Y116.785 E14.80504
G1 X77.776 Y116.563 E14.82162
G1 X97.538 Y116.563 E16.29924
G1 X97.538 Y116.732 E16.31189
;WIPE_START
G1 F3600.000
G1 X101.278 Y117.616 E15.39911
G1 X101.435 Y117.616 E15.36190
;WIPE_END
G1 E15.31189 F900.000
G92 E0
G1 X95.452 Y119.373 F4500.000
G1 E1.00000 F900.000
;TYPE:External perimeter
G1 F1296.000
G1 X97.229 Y120.213 E1.14699
G1 X98.916 Y121.224 E1.29402
G1 X100.495 Y122.396 E1.44108
G1 X101.223 Y123.070 E1.51522
G1 X102.599 Y124.441 E1.66051
G1 X103.270 Y125.169 E1.73455
G1 X104.442 Y126.750 E1.88170
G1 X105.453 Y128.437 E2.02872
G1 X106.293 Y130.212 E2.17557
G1 X106.955 Y132.063 E2.32254
G1 X107.433 Y133.969 E2.46952
G1 X107.721 Y135.915 E2.61659
G1 X107.818 Y137.887 E2.76420
G1 X107.721 Y139.857 E2.91167
G1 X107.433 Y141.803 E3.05873
G1 X106.955 Y143.709 E3.20571
G1 X106.293 Y145.560 E3.35268
G1 X105.453 Y147.337 E3.49967
G1 X104.442 Y149.024 E3.64670
G1 X103.269 Y150.604 E3.79386
G1 X102.261 Y151.674 E3.90375
G1 X101.222 Y152.704 E4.01315
G1 X100.495 Y153.376 E4.08720
G1 X98.916 Y154.548 E4.23422
G1 X97.229 Y155.561 E4.38134
G1 X95.452 Y156.401 E4.52834
G1 X93.601 Y157.063 E4.67533
G1 X91.695 Y157.539 E4.82225
G1 X89.750 Y157.829 E4.96925
G1 X87.655 Y157.925 E5.12606
G1 X85.562 Y157.829 E5.28273
G1 X83.617 Y157.539 E5.42973
G1 X81.711 Y157.063 E5.57665
G1 X79.860 Y156.401 E5.72364
G1 X78.083 Y155.561 E5.87064
G1 X76.396 Y154.548 E6.01776
G1 X74.817 Y153.376 E6.16478
G1 X74.090 Y152.704 E6.23883
G1 X73.051 Y151.674 E6.34822
G1 X72.043 Y150.604 E6.45812
G1 X70.870 Y149.024 E6.60528
G1 X69.859 Y147.337 E6.75231
G1 X69.019 Y145.560 E6.89930
G1 X68.357 Y143.709 E7.04627
G1 X67.879 Y141.803 E7.19325
G1 X67.591 Y139.857 E7.34031
G1 X67.494 Y137.887 E7.48778
G1 X67.591 Y135.915 E7.63539
G1 X67.879 Y133.969 E7.78246
G1 X68.357 Y132.063 E7.92944
G1 X69.019 Y130.212 E8.07641
G1 X69.859 Y128.437 E8.22326
G1 X70.870 Y126.750 E8.37028
G1 X72.042 Y125.169 E8.51743
G1 X72.713 Y124.441 E8.59147
G1 X74.089 Y123.070 E8.73676
G1 X74.817 Y122.396 E8.81090
G1 X76.396 Y121.224 E8.95796
G1 X78.083 Y120.213 E9.10499
G1 X79.860 Y119.373 E9.25198
G1 X81.711 Y118.711 E9.39894
G1 X83.617 Y118.233 E9.54592
G1 X85.562 Y117.945 E9.69288
G1 X87.655 Y117.846 E9.84957
G1 X89.750 Y117.945 E10.00642
G1 X91.695 Y118.233 E10.15338
G1 X93.601 Y118.711 E10.30036
G1 X95.403 Y119.355 E10.44340
G1 X95.730 Y119.160 F4500.000
;WIPE_START
G1 F3600.000
G1 X97.229 Y120.213 E9.96411
G1 X98.916 Y121.224 E9.49707
G1 X98.928 Y121.233 E9.49340
;WIPE_END
G1 E9.44340 F900.000
G92 E0
G1 X73.649 Y121.490 F4500.000
G1 E1.00000 F900.000
G1 F540.000
G1 X73.686 Y121.888 E1.02989
G1 X73.642 Y122.289 E1.06006
G1 X73.513 Y122.671 E1.09023
G1 X73.302 Y123.013 E1.12026
G1 X73.049 Y123.283 E1.14796
G1 X72.778 Y123.529 E1.17532
G1 X72.443 Y123.741 E1.20498
G1 X72.059 Y123.872 E1.23530
G1 X71.658 Y123.916 E1.26547
G1 X71.260 Y123.879 E1.29534
G1 X70.877 Y123.763 E1.32528
G1 X70.528 Y123.576 E1.35489
G1 X70.219 Y123.324 E1.38467
G1 X69.965 Y123.016 E1.41454
G1 X69.779 Y122.662 E1.44444
G1 X69.663 Y122.283 E1.47409
G1 X69.625 Y121.885 E1.50400
G1 X69.663 Y121.489 E1.53375
G1 X69.779 Y121.109 E1.56345
G1 X69.965 Y120.758 E1.59313
G1 X70.218 Y120.448 E1.62306
G1 X70.528 Y120.196 E1.65292
G1 X70.879 Y120.008 E1.68270
G1 X71.289 Y119.890 E1.71459
G1 X71.655 Y119.855 E1.74209
G1 X72.053 Y119.893 E1.77200
