; generated by PrusaSlicer 2.3.3 on 2021-09-01 at 02:29:58 UTC

; 

; external perimeters extrusion width = 0.39mm
; perimeters extrusion width = 0.39mm
; infill extrusion width = 0.39mm
; solid infill extrusion width = 0.39mm
; top infill extrusion width = 0.35mm
; support material extrusion width = 0.35mm
; first layer extrusion width = 0.66mm

M201 X9000 Y9000 Z500 E10000 ; sets maximum accelerations, mm/sec^2
M203 X500 Y500 Z12 E120 ; sets maximum feedrates, mm/sec
M204 P1500 R1500 T1500 ; sets acceleration (P, T) and retract acceleration (R), mm/sec^2
M205 X10.00 Y10.00 Z0.20 E2.50 ; sets the jerk limits, mm/sec
M205 S0 T0 ; sets the minimum extruding and travel feed rate, mm/sec
M107
M190 S39 ; set bed temperature and wait for it to be reached
;TYPE:Custom
M109 S187 ; set temperature and wait for it to be reached START_CUSTOM
G28 ; home all axes
G1 Z1 F5000 ; lift nozzle

;; change mode relative
G91
M83

G1 X210 Y15 F5000 ; move to right
G1 E15  F300      ; extrude some

G1 Z-1.22   F4000 ; lower nozzle
G1 X-25 Y5  F4000 ; wipe nozzle
G1 X10  Y-5 F4000 ; wipe nozzle
G1 X-25 Y5  F4000 ; wipe nozzle
G1 X10  Y-5 F4000 ; wipe nozzle
G1 X-25 Y5  F4000 ; wipe nozzle
G1 X10  Y-5 F4000 ; wipe nozzle
G1 X-25 Y5  F4000 ; wipe nozzle
G1 X25  Y-5 F4000 ; wipe nozzle
G1 X-25 Y5  F4000 ; wipe nozzle
G1 X25  Y-5 F4000 ; wipe nozzle
G1 Z0.25    F4000 ; lift nozzle

;; reset mode
M82
G90

G28 ; home all axes
;; G1 Z5 F5000 ; lift nozzle END_CUSTOM
G21 ; set units to millimeters
G90 ; use absolute coordinates
M82 ; use absolute distances for extrusion
G92 E0
; Filament gcode
;LAYER_CHANGE
;Z:0.33
;HEIGHT:0.33
G1 E-1.00000 F900.000
G92 E0
G1 Z0.580 F4500.000
G1 X53.252 Y91.609
G1 E1.00000 F900.000
;TYPE:Skirt
;WIDTH:0.66
G1 F1800.000
G1 X53.927 Y89.958 E1.13195
G1 X54.443 Y89.131 E1.20402
G1 X55.048 Y88.376 E1.27557
G1 X55.738 Y87.698 E1.34712
G1 X56.503 Y87.107 E1.41867
G1 X57.340 Y86.606 E1.49074
G1 X58.223 Y86.211 E1.56229
G1 X59.146 Y85.923 E1.63384
G1 X60.097 Y85.747 E1.70539
G1 X99.559 Y83.158 E4.63042
G1 X108.249 Y83.147 E5.27310
G1 X109.165 Y83.198 E5.34100
G1 X110.063 Y83.350 E5.40838
G1 X110.939 Y83.602 E5.47575
G1 X111.781 Y83.949 E5.54313
G1 X117.238 Y87.155 E6.01122
G1 X118.367 Y87.989 E6.11509
G1 X140.501 Y111.540 E8.50558
G1 X141.307 Y112.684 E8.60903
G1 X141.877 Y113.819 E8.70300
G1 X142.264 Y115.022 E8.79644
G1 X142.495 Y116.420 E8.90126
G1 X142.523 Y119.465 E9.12651
G1 X142.441 Y120.514 E9.20432
G1 X142.090 Y122.057 E9.32140
G1 X141.495 Y123.445 E9.43307
G1 X140.913 Y124.374 E9.51411
G1 X114.295 Y162.665 E12.96336
G1 X113.708 Y163.389 E13.03230
G1 X113.048 Y164.037 E13.10072
G1 X112.313 Y164.610 E13.16966
G1 X111.518 Y165.097 E13.23860
G1 X110.567 Y165.530 E13.31589
G1 X109.576 Y165.837 E13.39265
G1 X100.376 Y167.883 E14.08972
G1 X99.349 Y168.036 E14.16649
G1 X76.650 Y168.065 E15.84542
G1 X75.022 Y167.900 E15.96646
G1 X65.805 Y165.853 E16.66475
G1 X64.752 Y165.533 E16.74620
G1 X63.751 Y165.073 E16.82766
G1 X62.585 Y164.304 E16.93100
G1 X61.566 Y163.347 E17.03435
G1 X60.726 Y162.231 E17.13769
G1 X60.087 Y160.988 E17.24103
G1 X59.684 Y159.717 E17.33969
G1 X57.548 Y149.950 E18.07916
G1 X52.950 Y105.934 E21.35246
G1 X52.951 Y93.360 E22.28246
G1 X53.243 Y91.661 E22.41000
G1 X53.820 Y91.766 F4500.000
G1 F1800.000
G1 X54.459 Y90.214 E22.53408
G1 X54.936 Y89.454 E22.60049
G1 X55.504 Y88.750 E22.66740
G1 X56.152 Y88.119 E22.73431
G1 X56.865 Y87.573 E22.80072
G1 X57.644 Y87.112 E22.86763
G1 X58.465 Y86.750 E22.93404
G1 X59.324 Y86.487 E23.00045
G1 X60.207 Y86.327 E23.06686
G1 X99.594 Y83.747 E25.98632
G1 X108.249 Y83.736 E26.62642
G1 X109.942 Y83.927 E26.75250
G1 X111.551 Y84.492 E26.87859
G1 X116.933 Y87.659 E27.34048
G1 X117.993 Y88.444 E27.43802
G1 X140.037 Y111.903 E29.81900
G1 X140.800 Y112.984 E29.91684
G1 X141.332 Y114.041 E30.00434
G1 X141.691 Y115.161 E30.09134
G1 X141.909 Y116.476 E30.18993
G1 X141.934 Y119.454 E30.41025
G1 X141.860 Y120.417 E30.48168
G1 X141.530 Y121.875 E30.59222
G1 X140.965 Y123.186 E30.69777
G1 X113.822 Y162.313 E34.21999
G1 X112.668 Y163.587 E34.34707
G1 X111.252 Y164.571 E34.47466
G1 X110.361 Y164.978 E34.54710
G1 X109.432 Y165.266 E34.61903
G1 X100.257 Y167.306 E35.31422
G1 X99.295 Y167.449 E35.38615
G1 X76.650 Y167.476 E37.06104
G1 X75.129 Y167.321 E37.17411
G1 X65.936 Y165.279 E37.87065
G1 X64.947 Y164.977 E37.94711
G1 X64.009 Y164.543 E38.02356
G1 X62.923 Y163.820 E38.12010
G1 X61.976 Y162.921 E38.21663
G1 X61.197 Y161.874 E38.31316
G1 X60.610 Y160.709 E38.40969
G1 X60.257 Y159.579 E38.49719
G1 X58.130 Y149.855 E39.23347
G1 X53.539 Y105.906 E42.50175
G1 X53.538 Y93.419 E43.42533
G1 X53.811 Y91.817 E43.54553
;WIPE_START
G1 F3600.000
G1 X54.459 Y90.214 E43.13492
G1 X54.936 Y89.454 E42.92167
G1 X55.504 Y88.750 E42.70682
G1 X55.840 Y88.423 E42.59553
;WIPE_END
G1 E42.54553 F900.000
G92 E0
G1 X61.114 Y93.862 F4500.000
G1 E1.00000 F900.000
;TYPE:Support material
G1 F1800.000
G1 X61.114 Y105.442 E1.85657
G1 X62.292 Y105.442 E1.94372
G1 X62.292 Y94.127 E2.78068
G1 X63.471 Y94.127 E2.86784
G1 X63.471 Y105.442 E3.70480
G1 X63.523 Y105.442 E3.70868
G1 X63.523 Y108.244 E3.91590
G1 X64.649 Y108.244 E3.99918
G1 X64.649 Y94.127 E5.04336
G1 X65.828 Y94.127 E5.13052
G1 X65.828 Y108.244 E6.17470
G1 X67.006 Y108.244 E6.26186
G1 X67.006 Y94.127 E7.30604
G1 X68.184 Y94.127 E7.39320
G1 X68.184 Y108.244 E8.43738
G1 X69.127 Y108.244 E8.50708
G1 X69.127 Y111.046 E8.71431
G1 X69.363 Y111.046 E8.73176
G1 X69.363 Y94.127 E9.98317
G1 X70.541 Y94.127 E10.07032
G1 X70.541 Y111.046 E11.32173
G1 X71.719 Y111.046 E11.40889
G1 X71.719 Y94.127 E12.66030
G1 X72.037 Y94.127 E12.68382
G1 X72.037 Y96.928 E12.89104
G1 X72.898 Y96.928 E12.95468
G1 X72.898 Y116.219 E14.38146
G1 X74.076 Y115.957 E14.47075
G1 X74.076 Y96.928 E15.87817
G1 X75.254 Y96.928 E15.96533
G1 X75.254 Y110.546 E16.97252
G1 X76.433 Y110.546 E17.05968
G1 X76.433 Y96.928 E18.06688
G1 X77.611 Y96.928 E18.15404
G1 X77.611 Y110.546 E19.16124
G1 X78.789 Y110.546 E19.24839
G1 X78.789 Y99.730 E20.04837
G1 X79.968 Y99.730 E20.13552
G1 X79.968 Y110.546 E20.93550
G1 X81.146 Y110.546 E21.02265
G1 X81.146 Y102.532 E21.61540
G1 X82.325 Y102.532 E21.70256
G1 X82.325 Y110.546 E22.29531
G1 X83.503 Y110.546 E22.38247
G1 X83.503 Y102.532 E22.97522
G1 X84.681 Y102.532 E23.06237
G1 X84.681 Y110.546 E23.65512
G1 X85.860 Y110.546 E23.74228
G1 X85.860 Y102.532 E24.33503
G1 X87.038 Y102.532 E24.42219
G1 X87.038 Y110.546 E25.01494
G1 X88.216 Y110.546 E25.10209
G1 X88.216 Y102.532 E25.69485
G1 X89.395 Y102.532 E25.78200
G1 X89.395 Y110.546 E26.37475
G1 X90.573 Y110.546 E26.46191
G1 X90.573 Y102.532 E27.05466
G1 X91.751 Y102.532 E27.14182
G1 X91.751 Y110.546 E27.73457
G1 X92.930 Y110.546 E27.82173
G1 X92.930 Y102.532 E28.41448
G1 X94.108 Y102.532 E28.50164
G1 X94.108 Y110.546 E29.09439
G1 X95.287 Y110.546 E29.18154
G1 X95.287 Y99.730 E29.98152
G1 X96.465 Y99.730 E30.06868
G1 X96.465 Y110.546 E30.86866
G1 X97.643 Y110.546 E30.95581
G1 X97.643 Y96.928 E31.96301
G1 X98.822 Y96.928 E32.05017
G1 X98.822 Y110.546 E33.05737
G1 X100.000 Y110.546 E33.14453
G1 X100.000 Y91.325 E34.56618
G1 X101.178 Y91.325 E34.65334
G1 X101.178 Y115.944 E36.47426
G1 X101.455 Y116.006 E36.49522
G1 X102.357 Y116.006 E36.56191
G1 X102.357 Y91.325 E38.38738
G1 X103.535 Y91.325 E38.47453
G1 X103.535 Y111.046 E39.93317
G1 X104.713 Y111.046 E40.02032
G1 X104.713 Y91.325 E41.47896
G1 X105.892 Y91.325 E41.56611
G1 X105.892 Y108.244 E42.81752
G1 X107.070 Y108.244 E42.90468
G1 X107.070 Y91.325 E44.15608
G1 X108.249 Y91.325 E44.24324
G1 X108.249 Y108.244 E45.49465
G1 X109.427 Y108.244 E45.58180
G1 X109.427 Y94.127 E46.62599
G1 X110.605 Y94.127 E46.71314
G1 X110.605 Y108.244 E47.75733
G1 X111.261 Y108.244 E47.80585
G1 X111.261 Y105.442 E48.01308
G1 X111.784 Y105.442 E48.05171
G1 X111.784 Y94.127 E48.88867
G1 X112.962 Y94.127 E48.97582
G1 X112.962 Y105.708 E49.83239
;WIPE_START
G1 F3600.000
G1 X112.962 Y101.708 E48.88239
;WIPE_END
G1 E48.83239 F900.000
G92 E0
G1 X97.643 Y113.949 F4500.000
G1 E1.00000 F900.000
G1 F1800.000
G1 X97.643 Y115.217 E1.09385
;WIPE_START
G1 F3600.000
G1 X97.643 Y113.949 E0.79249
;WIPE_END
G1 E0.09385 F900.000
G92 E0
G1 X99.849 Y115.935 F4500.000
G1 E1.00000 F900.000
;TYPE:Support material interface
;WIDTH:0.35
G1 F1800.000
G1 X99.849 Y110.991 E1.17326
G1 X99.547 Y110.991 E1.18383
G1 X99.547 Y115.729 E1.34986
G1 X99.246 Y115.662 E1.36069
G1 X99.246 Y110.991 E1.52437
G1 X98.944 Y110.991 E1.53495
G1 X98.944 Y114.035 E1.64163
G1 X98.677 Y113.768 E1.65488
G1 X98.642 Y113.768 E1.65609
G1 X98.642 Y110.991 E1.75341
G1 X98.341 Y110.991 E1.76398
G1 X98.341 Y113.768 E1.86130
G1 X98.039 Y113.768 E1.87188
G1 X98.039 Y110.991 E1.96919
G1 X97.737 Y110.991 E1.97977
G1 X97.737 Y113.768 E2.07709
G1 X97.435 Y113.768 E2.08766
G1 X97.435 Y110.991 E2.18498
G1 X97.134 Y110.991 E2.19555
G1 X97.134 Y113.768 E2.29287
G1 X96.832 Y113.768 E2.30345
G1 X96.832 Y110.991 E2.40076
G1 X96.530 Y110.991 E2.41134
G1 X96.530 Y113.768 E2.50866
G1 X96.229 Y113.768 E2.51923
G1 X96.229 Y110.991 E2.61655
G1 X95.927 Y110.991 E2.62712
G1 X95.927 Y113.768 E2.72444
G1 X95.625 Y113.768 E2.73502
G1 X95.625 Y110.991 E2.83234
G1 X95.323 Y110.991 E2.84291
G1 X95.323 Y113.768 E2.94023
G1 X95.022 Y113.768 E2.95080
G1 X95.022 Y110.991 E3.04812
G1 X94.720 Y110.991 E3.05870
G1 X94.720 Y113.768 E3.15601
G1 X94.418 Y113.768 E3.16659
G1 X94.418 Y110.991 E3.26391
G1 X94.117 Y110.991 E3.27448
G1 X94.117 Y113.768 E3.37180
G1 X93.815 Y113.768 E3.38237
G1 X93.815 Y110.991 E3.47969
G1 X93.513 Y110.991 E3.49027
G1 X93.513 Y113.768 E3.58758
G1 X93.211 Y113.768 E3.59816
G1 X93.211 Y110.991 E3.69548
G1 X92.910 Y110.991 E3.70605
G1 X92.910 Y113.768 E3.80337
G1 X92.608 Y113.768 E3.81394
G1 X92.608 Y110.991 E3.91126
G1 X92.306 Y110.991 E3.92184
G1 X92.306 Y113.768 E4.01916
G1 X92.005 Y113.768 E4.02973
G1 X92.005 Y110.991 E4.12705
G1 X91.703 Y110.991 E4.13762
G1 X91.703 Y113.768 E4.23494
G1 X91.401 Y113.768 E4.24552
G1 X91.401 Y110.991 E4.34283
G1 X91.099 Y110.991 E4.35341
G1 X91.099 Y113.768 E4.45073
G1 X90.798 Y113.768 E4.46130
G1 X90.798 Y110.991 E4.55862
G1 X90.496 Y110.991 E4.56919
G1 X90.496 Y113.768 E4.66651
G1 X90.194 Y113.768 E4.67709
G1 X90.194 Y110.991 E4.77441
G1 X89.893 Y110.991 E4.78498
G1 X89.893 Y113.768 E4.88230
G1 X89.591 Y113.768 E4.89287
G1 X89.591 Y110.991 E4.99019
G1 X89.289 Y110.991 E5.00077
G1 X89.289 Y113.768 E5.09808
G1 X88.987 Y113.768 E5.10866
G1 X88.987 Y110.991 E5.20598
G1 X88.686 Y110.991 E5.21655
G1 X88.686 Y113.768 E5.31387
G1 X88.384 Y113.768 E5.32444
G1 X88.384 Y110.991 E5.42176
G1 X88.082 Y110.991 E5.43234
G1 X88.082 Y113.768 E5.52965
G1 X87.781 Y113.768 E5.54023
G1 X87.781 Y110.991 E5.63755
G1 X87.479 Y110.991 E5.64812
G1 X87.479 Y113.768 E5.74544
G1 X87.177 Y113.768 E5.75601
G1 X87.177 Y110.991 E5.85333
G1 X86.875 Y110.991 E5.86391
G1 X86.875 Y113.768 E5.96123
G1 X86.574 Y113.768 E5.97180
G1 X86.574 Y110.991 E6.06912
G1 X86.272 Y110.991 E6.07969
G1 X86.272 Y113.768 E6.17701
G1 X85.970 Y113.768 E6.18759
G1 X85.970 Y110.991 E6.28490
G1 X85.669 Y110.991 E6.29548
G1 X85.669 Y113.768 E6.39280
G1 X85.367 Y113.768 E6.40337
G1 X85.367 Y110.991 E6.50069
G1 X85.065 Y110.991 E6.51126
G1 X85.065 Y113.768 E6.60858
G1 X84.763 Y113.768 E6.61916
G1 X84.763 Y110.991 E6.71648
G1 X84.462 Y110.991 E6.72705
G1 X84.462 Y113.768 E6.82437
G1 X84.160 Y113.768 E6.83494
G1 X84.160 Y110.991 E6.93226
G1 X83.858 Y110.991 E6.94283
G1 X83.858 Y113.768 E7.04015
G1 X83.557 Y113.768 E7.05073
G1 X83.557 Y110.991 E7.14805
G1 X83.255 Y110.991 E7.15862
G1 X83.255 Y113.768 E7.25594
G1 X82.953 Y113.768 E7.26651
G1 X82.953 Y110.991 E7.36383
G1 X82.651 Y110.991 E7.37441
G1 X82.651 Y113.768 E7.47172
G1 X82.350 Y113.768 E7.48230
G1 X82.350 Y110.991 E7.57962
G1 X82.048 Y110.991 E7.59019
G1 X82.048 Y113.768 E7.68751
G1 X81.746 Y113.768 E7.69808
G1 X81.746 Y110.991 E7.79540
G1 X81.445 Y110.991 E7.80598
G1 X81.445 Y113.768 E7.90330
G1 X81.143 Y113.768 E7.91387
G1 X81.143 Y110.991 E8.01119
G1 X80.841 Y110.991 E8.02176
G1 X80.841 Y113.768 E8.11908
G1 X80.539 Y113.768 E8.12966
G1 X80.539 Y110.991 E8.22697
G1 X80.238 Y110.991 E8.23755
G1 X80.238 Y113.768 E8.33487
G1 X79.936 Y113.768 E8.34544
G1 X79.936 Y110.991 E8.44276
G1 X79.634 Y110.991 E8.45333
G1 X79.634 Y113.768 E8.55065
G1 X79.333 Y113.768 E8.56123
G1 X79.333 Y110.991 E8.65854
G1 X79.031 Y110.991 E8.66912
G1 X79.031 Y113.768 E8.76644
G1 X78.729 Y113.768 E8.77701
G1 X78.729 Y110.991 E8.87433
G1 X78.427 Y110.991 E8.88490
G1 X78.427 Y113.768 E8.98222
G1 X78.126 Y113.768 E8.99280
G1 X78.126 Y110.991 E9.09012
G1 X77.824 Y110.991 E9.10069
G1 X77.824 Y113.768 E9.19801
G1 X77.522 Y113.768 E9.20858
G1 X77.522 Y110.991 E9.30590
G1 X77.221 Y110.991 E9.31648
G1 X77.221 Y113.768 E9.41379
G1 X76.919 Y113.768 E9.42437
G1 X76.919 Y110.991 E9.52169
G1 X76.617 Y110.991 E9.53226
G1 X76.617 Y113.788 E9.63029
G1 X76.331 Y114.074 E9.64446
G1 X76.331 Y114.532 E9.66052
G1 X76.315 Y114.548 E9.66130
G1 X76.315 Y110.991 E9.78596
G1 X76.014 Y110.991 E9.79653
G1 X76.014 Y115.674 E9.96064
G1 X75.712 Y115.741 E9.97147
G1 X75.712 Y110.991 E10.13792
G1 X75.410 Y110.991 E10.14849
G1 X75.410 Y115.808 E10.31730
G1 X75.109 Y115.875 E10.32813
G1 X75.109 Y110.991 E10.49928
G1 X74.807 Y110.991 E10.50985
G1 X74.807 Y116.081 E10.68823
;WIPE_START
G1 F3600.000
G1 X74.807 Y112.081 E9.73823
;WIPE_END
G1 E9.68823 F900.000
G92 E0
G1 X101.663 Y121.490 F4500.000
G1 E1.00000 F900.000
;TYPE:External perimeter
;WIDTH:0.66
G1 F540.000
G1 X101.779 Y121.109 E1.02942
G1 X101.965 Y120.758 E1.05879
G1 X102.218 Y120.448 E1.08840
G1 X102.528 Y120.195 E1.11800
G1 X102.879 Y120.009 E1.14736
G1 X103.259 Y119.893 E1.17676
G1 X103.657 Y119.855 E1.20634
G1 X104.053 Y119.893 E1.23572
G1 X104.435 Y120.009 E1.26531
G1 X104.784 Y120.196 E1.29458
G1 X105.094 Y120.448 E1.32412
G1 X105.347 Y120.758 E1.35372
G1 X105.533 Y121.109 E1.38309
G1 X105.649 Y121.487 E1.41233
G1 X105.690 Y121.885 E1.44191
G1 X105.649 Y122.285 E1.47164
G1 X105.533 Y122.662 E1.50083
G1 X105.347 Y123.016 E1.53042
G1 X105.093 Y123.324 E1.55997
G1 X104.784 Y123.576 E1.58942
G1 X104.435 Y123.763 E1.61871
G1 X104.052 Y123.879 E1.64833
G1 X103.654 Y123.916 E1.67788
G1 X103.253 Y123.872 E1.70772
G1 X102.869 Y123.741 E1.73771
G1 X102.534 Y123.529 E1.76704
G1 X102.263 Y123.283 E1.79412
G1 X102.010 Y123.013 E1.82151
G1 X101.799 Y122.671 E1.85122
G1 X101.670 Y122.289 E1.88106
G1 X101.626 Y121.888 E1.91090
G1 X101.658 Y121.542 E1.93659
G1 X101.399 Y121.259 F4500.000
;WIPE_START
G1 F3600.000
G1 X101.779 Y121.109 E1.82990
G1 X101.965 Y120.758 E1.73557
G1 X102.218 Y120.448 E1.64051
G1 X102.528 Y120.195 E1.54546
G1 X102.879 Y120.009 E1.45116
G1 X103.259 Y119.893 E1.35678
G1 X103.657 Y119.855 E1.26179
G1 X104.053 Y119.893 E1.16744
G1 X104.435 Y120.009 E1.07244
G1 X104.754 Y120.180 E0.98659
;WIPE_END
G1 E0.93659 F900.000
G92 E0
G1 X104.576 Y124.952 F4500.000
G1 E1.00000 F900.000
;TYPE:Perimeter
G1 F540.000
G1 X104.888 Y124.857 E1.02417
G1 X105.441 Y124.561 E1.07048
G1 X105.928 Y124.164 E1.11703
G1 X106.333 Y123.672 E1.16415
G1 X106.627 Y123.114 E1.21081
G1 X106.726 Y122.792 E1.23572
G1 X106.998 Y122.802 E1.25585
G1 X107.947 Y127.074 E1.57952
G1 X107.947 Y130.466 E1.83036
G1 X107.654 Y130.517 E1.85237
G1 X107.383 Y129.760 E1.91176
G1 X106.493 Y127.881 E2.06560
G1 X105.423 Y126.095 E2.21956
G1 X104.607 Y124.994 E2.32094
;WIPE_START
G1 F3600.000
G1 X104.888 Y124.857 E2.24658
G1 X105.441 Y124.561 E2.09789
G1 X105.928 Y124.164 E1.94841
G1 X106.333 Y123.672 E1.79712
G1 X106.627 Y123.114 E1.64729
G1 X106.726 Y122.792 E1.56731
G1 X106.998 Y122.802 E1.50265
G1 X107.118 Y123.344 E1.37094
;WIPE_END
G1 E1.32094 F900.000
G92 E0
G1 X106.040 Y119.745 F4500.000
G1 E1.00000 F900.000
G1 F540.000
G1 X105.931 Y119.611 E1.01279
G1 X105.441 Y119.211 E1.05961
G1 X104.889 Y118.916 E1.10586
G1 X104.283 Y118.731 E1.15274
G1 X103.658 Y118.671 E1.19921
G1 X103.028 Y118.731 E1.24600
G1 X102.426 Y118.916 E1.29258
G1 X101.873 Y119.209 E1.33883
G1 X101.381 Y119.611 E1.38586
G1 X100.979 Y120.104 E1.43289
G1 X100.685 Y120.657 E1.47920
G1 X100.582 Y120.993 E1.50524
G1 X99.571 Y120.243 E1.59835
G1 X97.785 Y119.172 E1.75238
G1 X95.903 Y118.283 E1.90636
