; generated by Slic3r 0.9.11-dev on 2013-09-15 at 16:01:14

; layer_height = 0.3
; perimeters = 3
; top_solid_layers = 3
; bottom_solid_layers = 2
; fill_density = .16
; perimeter_speed = 60
; infill_speed = 80
; travel_speed = 300
; nozzle_diameter = 0.35
; filament_diameter = 1.75
; extrusion_multiplier = 1
; perimeters extrusion width = 0.35mm
; infill extrusion width = 0.37mm
; solid infill extrusion width = 0.37mm
; top infill extrusion width = 0.37mm

G21 ; set units to millimeters
M107
G28
G92 X0 Y0 Z0 E0
G1 F5000 Y30 X30
G1 X220
G1 F100 E10
G28
G92 X0 Y0 Z0
G1 F4000 X101 Y127
G92 X0 Y0 Z0 E0
M106 S255
G90 ; use absolute coordinates
G92 E0
M82 ; use absolute distances for extrusion
G1 F600.000 E-0.70000
G1 Z0.400 F18000.000
G92 E0
G1 X-3.340 Y-18.350 F18000.000
;AAA selfz = 0.4, lifted = .2
G1 Z0.200 F18000.000
G1 E0.70000 F600.000
G1 X0.020 Y-18.670 E0.79823 F3600.000
G1 X3.600 Y-18.320 E0.90291
G1 X7.160 Y-17.240 E1.01118
G1 X10.390 Y-15.510 E1.11781
G1 X13.200 Y-13.210 E1.22349
G1 X15.540 Y-10.340 E1.33126
G1 X17.230 Y-7.170 E1.43581
G1 X18.310 Y-3.610 E1.54408
G1 X18.660 Y-0.030 E1.64876
G1 X18.310 Y3.600 E1.75489
G1 X17.230 Y7.160 E1.86316
G1 X15.500 Y10.390 E1.96980
G1 X13.200 Y13.200 E2.07548
G1 X10.330 Y15.540 E2.18324
G1 X7.160 Y17.230 E2.28779
G1 X3.600 Y18.310 E2.39606
G1 X0.030 Y18.660 E2.50045
G1 X-3.610 Y18.310 E2.60688
G1 X-7.170 Y17.230 E2.71514
G1 X-10.400 Y15.500 E2.82178
G1 X-13.210 Y13.200 E2.92746
G1 X-15.550 Y10.330 E3.03523
G1 X-17.240 Y7.160 E3.13977
G1 X-18.320 Y3.600 E3.24804
G1 X-18.670 Y0.030 E3.35244
G1 X-18.320 Y-3.610 E3.45886
G1 X-17.240 Y-7.170 E3.56713
G1 X-15.510 Y-10.400 E3.67376
G1 X-13.210 Y-13.210 E3.77944
G1 X-10.340 Y-15.550 E3.88721
G1 X-7.170 Y-17.240 E3.99176
G1 X-3.620 Y-18.320 E4.09975
G1 X-3.392 Y-18.345 E4.10642
G1 X-3.449 Y-19.395 F18000.000
G1 X-0.575 Y-19.673 E4.19044 F3600.000
G1 X-0.479 Y-19.713 E4.19347
G1 X-0.413 Y-19.767 E4.19597
G1 X0.063 Y-19.721 E4.20987
G1 X0.557 Y-19.720 E4.22427
G1 X0.674 Y-19.661 E4.22808
G1 X3.801 Y-19.351 E4.31953
G1 X7.551 Y-18.215 E4.43355
G1 X10.837 Y-16.469 E4.54184
G1 X10.985 Y-16.375 E4.54694
G1 X13.985 Y-13.910 E4.65996
G1 X16.321 Y-11.054 E4.76733
G1 X16.422 Y-10.910 E4.77245
G1 X18.205 Y-7.561 E4.88287
G1 X19.341 Y-3.811 E4.99689
G1 X19.710 Y0.045 E5.10963
G1 X19.341 Y3.801 E5.21947
G1 X18.205 Y7.551 E5.33349
G1 X16.459 Y10.837 E5.44179
G1 X16.365 Y10.985 E5.44689
G1 X13.900 Y13.985 E5.55990
G1 X11.044 Y16.321 E5.66727
G1 X10.900 Y16.422 E5.67239
G1 X7.551 Y18.205 E5.78281
G1 X3.801 Y19.341 E5.89683
G1 X0.045 Y19.710 E6.00667
G1 X-3.811 Y19.341 E6.11941
G1 X-7.561 Y18.205 E6.23343
G1 X-10.847 Y16.459 E6.34173
G1 X-10.995 Y16.365 E6.34683
G1 X-13.995 Y13.900 E6.45984
G1 X-16.331 Y11.044 E6.56722
G1 X-16.432 Y10.900 E6.57233
G1 X-18.215 Y7.551 E6.68275
G1 X-19.351 Y3.801 E6.79677
G1 X-19.720 Y0.045 E6.90661
G1 X-19.351 Y-3.811 E7.01935
G1 X-18.215 Y-7.561 E7.13337
G1 X-16.469 Y-10.847 E7.24167
G1 X-16.375 Y-10.995 E7.24677
G1 X-13.910 Y-13.995 E7.35979
G1 X-11.054 Y-16.331 E7.46716
G1 X-10.910 Y-16.432 E7.47227
G1 X-7.561 Y-18.215 E7.58269
G1 X-3.921 Y-19.326 E7.69344
G1 X-3.501 Y-19.390 E7.70580
G1 X-3.415 Y-19.047 F18000.000
G1 X-0.435 Y-19.335 E7.79293 F3600.000
G1 X-0.302 Y-19.405 E7.79730
G1 X0.063 Y-19.370 E7.80797
G1 X0.420 Y-19.370 E7.81838
G1 X0.516 Y-19.325 E7.82145
G1 X3.735 Y-19.007 E7.91560
G1 X7.419 Y-17.890 E8.02764
G1 X10.787 Y-16.086 E8.13883
G1 X13.726 Y-13.674 E8.24946
G1 X16.128 Y-10.719 E8.36031
G1 X17.880 Y-7.429 E8.46878
G1 X18.997 Y-3.745 E8.58082
G1 X19.360 Y0.041 E8.69150
G1 X18.997 Y3.735 E8.79954
G1 X17.880 Y7.419 E8.91158
G1 X16.076 Y10.787 E9.02277
G1 X13.664 Y13.726 E9.13340
G1 X10.709 Y16.128 E9.24424
G1 X7.419 Y17.880 E9.35272
G1 X3.735 Y18.997 E9.46475
G1 X0.041 Y19.360 E9.57279
G1 X-3.745 Y18.997 E9.68348
G1 X-7.429 Y17.880 E9.79551
G1 X-10.797 Y16.076 E9.90670
G1 X-13.736 Y13.664 E10.01734
G1 X-16.138 Y10.709 E10.12818
G1 X-17.890 Y7.419 E10.23665
G1 X-19.007 Y3.735 E10.34869
G1 X-19.370 Y0.041 E10.45673
G1 X-19.007 Y-3.745 E10.56741
G1 X-17.890 Y-7.429 E10.67945
G1 X-16.086 Y-10.797 E10.79064
G1 X-13.674 Y-13.736 E10.90127
G1 X-10.719 Y-16.138 E11.01211
G1 X-7.429 Y-17.890 E11.12059
G1 X-3.819 Y-18.991 E11.23043
G1 X-3.467 Y-19.041 E11.24077
G1 X-3.381 Y-18.699 F18000.000
G1 X-0.296 Y-18.997 E11.33100 F3600.000
G1 X-0.192 Y-19.042 E11.33428
G1 X0.291 Y-19.020 E11.34835
G1 X0.357 Y-18.989 E11.35048
G1 X3.669 Y-18.663 E11.44735
G1 X7.288 Y-17.566 E11.55740
G1 X10.590 Y-15.798 E11.66640
G1 X13.466 Y-13.439 E11.77465
G1 X15.835 Y-10.529 E11.88386
G1 X17.556 Y-7.298 E11.99039
G1 X18.653 Y-3.679 E12.10044
G1 X19.010 Y0.036 E12.20907
G1 X18.653 Y3.669 E12.31531
G1 X17.556 Y7.288 E12.42536
G1 X15.788 Y10.590 E12.53436
G1 X13.429 Y13.466 E12.64261
G1 X10.519 Y15.835 E12.75182
G1 X7.288 Y17.556 E12.85835
G1 X3.669 Y18.653 E12.96840
G1 X0.036 Y19.010 E13.07463
G1 X-3.679 Y18.653 E13.18327
G1 X-7.298 Y17.556 E13.29332
G1 X-10.600 Y15.788 E13.40232
G1 X-13.476 Y13.429 E13.51057
G1 X-15.845 Y10.519 E13.61978
G1 X-17.566 Y7.288 E13.72631
G1 X-18.663 Y3.669 E13.83636
G1 X-19.020 Y0.036 E13.94259
G1 X-18.663 Y-3.679 E14.05123
G1 X-17.566 Y-7.298 E14.16128
G1 X-15.798 Y-10.600 E14.27028
G1 X-13.439 Y-13.476 E14.37853
G1 X-10.529 Y-15.845 E14.48774
G1 X-7.298 Y-17.566 E14.59427
G1 X-3.718 Y-18.656 E14.70320
G1 X-3.434 Y-18.693 E14.71153
G1 X-3.335 Y-17.999 F18000.000
G1 X0.007 Y-18.320 E14.80924 F3600.000
G1 X3.554 Y-17.969 E14.91297
G1 X7.001 Y-16.924 E15.01781
G1 X10.174 Y-15.233 E15.12244
G1 X12.960 Y-12.945 E15.22735
G1 X15.234 Y-10.167 E15.33184
G1 X16.914 Y-7.011 E15.43589
G1 X17.966 Y-3.530 E15.54172
G1 X18.310 Y0.017 E15.64544
G1 X17.959 Y3.554 E15.74888
G1 X16.914 Y7.001 E15.85371
G1 X15.223 Y10.174 E15.95835
G1 X12.935 Y12.960 E16.06325
G1 X10.157 Y15.234 E16.16775
G1 X7.001 Y16.914 E16.27179
G1 X3.520 Y17.966 E16.37763
G1 X-0.017 Y18.310 E16.48106
G1 X-3.564 Y17.959 E16.58478
G1 X-7.011 Y16.914 E16.68962
G1 X-10.184 Y15.223 E16.79425
G1 X-12.970 Y12.935 E16.89916
G1 X-15.244 Y10.157 E17.00365
G1 X-16.924 Y7.001 E17.10770
G1 X-17.976 Y3.520 E17.21353
G1 X-18.320 Y-0.017 E17.31696
G1 X-17.969 Y-3.564 E17.42069
G1 X-16.924 Y-7.011 E17.52552
G1 X-15.233 Y-10.184 E17.63016
G1 X-12.945 Y-12.970 E17.73506
G1 X-10.167 Y-15.244 E17.83956
G1 X-7.011 Y-16.924 E17.94360
G1 X-3.559 Y-17.971 E18.04859
G1 X-3.388 Y-17.994 E18.05363
G1 X-3.309 Y-17.650 F18000.000
G1 X0.007 Y-17.968 E18.15058 F3600.000
G1 X3.486 Y-17.624 E18.25232
G1 X6.899 Y-16.586 E18.35614
G1 X9.985 Y-14.937 E18.45799
G1 X12.711 Y-12.697 E18.56067
G1 X14.946 Y-9.966 E18.66335
G1 X16.589 Y-6.877 E18.76519
G1 X17.621 Y-3.462 E18.86902
G1 X17.958 Y0.017 E18.97073
G1 X17.614 Y3.486 E19.07217
G1 X16.576 Y6.899 E19.17599
G1 X14.927 Y9.985 E19.27784
G1 X12.687 Y12.711 E19.38052
G1 X9.956 Y14.946 E19.48321
G1 X6.867 Y16.589 E19.58505
G1 X3.452 Y17.621 E19.68888
G1 X-0.017 Y17.958 E19.79030
G1 X-3.496 Y17.614 E19.89203
G1 X-6.909 Y16.576 E19.99585
G1 X-9.995 Y14.927 E20.09770
G1 X-12.721 Y12.687 E20.20038
G1 X-14.956 Y9.956 E20.30306
G1 X-16.599 Y6.867 E20.40490
G1 X-17.631 Y3.452 E20.50873
G1 X-17.968 Y-0.017 E20.61016
G1 X-17.624 Y-3.496 E20.71188
G1 X-16.586 Y-6.909 E20.81570
G1 X-14.937 Y-9.995 E20.91755
G1 X-12.697 Y-12.721 E21.02023
G1 X-9.966 Y-14.956 E21.12292
G1 X-6.877 Y-16.599 E21.22476
G1 X-3.485 Y-17.628 E21.32792
G1 X-3.362 Y-17.644 E21.33153
G1 X-3.277 Y-17.302 F18000.000
G1 X0.007 Y-17.616 E21.42755 F3600.000
G1 X3.417 Y-17.279 E21.52728
G1 X6.764 Y-16.261 E21.62910
G1 X9.790 Y-14.644 E21.72894
G1 X12.462 Y-12.448 E21.82961
G1 X14.653 Y-9.771 E21.93028
G1 X16.264 Y-6.743 E22.03011
G1 X17.276 Y-3.393 E22.13193
G1 X17.606 Y0.017 E22.23165
G1 X17.270 Y3.417 E22.33108
G1 X16.251 Y6.764 E22.43290
G1 X14.634 Y9.790 E22.53274
G1 X12.438 Y12.462 E22.63341
G1 X9.761 Y14.653 E22.73408
G1 X6.733 Y16.264 E22.83391
G1 X3.383 Y17.276 E22.93574
G1 X-0.017 Y17.606 E23.03517
G1 X-3.427 Y17.269 E23.13489
G1 X-6.774 Y16.251 E23.23670
G1 X-9.800 Y14.634 E23.33655
G1 X-12.472 Y12.438 E23.43722
G1 X-14.663 Y9.761 E23.53788
G1 X-16.274 Y6.733 E23.63772
G1 X-17.286 Y3.383 E23.73954
G1 X-17.616 Y-0.017 E23.83897
G1 X-17.279 Y-3.427 E23.93869
G1 X-16.261 Y-6.774 E24.04051
G1 X-14.644 Y-9.800 E24.14035
G1 X-12.448 Y-12.472 E24.24102
G1 X-9.771 Y-14.663 E24.34169
G1 X-6.743 Y-16.274 E24.44152
G1 X-3.330 Y-17.296 E24.54520
G1 X-3.539 Y-17.793 F18000.000
G1 X-0.000 Y-18.142 E24.64870 F3600.000
G1 X3.539 Y-17.793 E24.75220
G1 X6.943 Y-16.761 E24.85571
G1 X10.079 Y-15.085 E24.95921
G1 X12.828 Y-12.828 E25.06271
G1 X15.085 Y-10.079 E25.16621
G1 X16.761 Y-6.943 E25.26971
G1 X17.793 Y-3.539 E25.37322
G1 X18.142 Y0.000 E25.47672
G1 X17.793 Y3.539 E25.58022
G1 X16.761 Y6.943 E25.68372
G1 X15.085 Y10.079 E25.78723
G1 X12.828 Y12.828 E25.89073
G1 X10.079 Y15.085 E25.99423
G1 X6.943 Y16.761 E26.09773
G1 X3.539 Y17.793 E26.20123
G1 X0.000 Y18.142 E26.30474
G1 X-3.539 Y17.793 E26.40824
G1 X-6.943 Y16.761 E26.51174
G1 X-10.079 Y15.085 E26.61524
G1 X-12.828 Y12.828 E26.71875
G1 X-15.085 Y10.079 E26.82225
G1 X-16.761 Y6.943 E26.92575
G1 X-17.793 Y3.539 E27.02925
G1 X-18.142 Y0.000 E27.13275
G1 X-17.793 Y-3.539 E27.23626
G1 X-16.761 Y-6.943 E27.33976
G1 X-15.085 Y-10.079 E27.44326
G1 X-12.828 Y-12.828 E27.54676
G1 X-10.079 Y-15.085 E27.65026
G1 X-6.943 Y-16.761 E27.75377
G1 X-3.590 Y-17.778 E27.85574
G1 X-3.317 Y-17.523 F18000.000
G1 X-3.156 Y-17.480 F18000.000
G1 X-0.000 Y-17.790 E27.94802 F3600.000
G1 X3.471 Y-17.448 E28.04952
G1 X6.808 Y-16.436 E28.15101
G1 X9.884 Y-14.792 E28.25251
G1 X12.580 Y-12.580 E28.35400
G1 X14.792 Y-9.884 E28.45550
G1 X16.436 Y-6.808 E28.55700
G1 X17.448 Y-3.471 E28.65849
G1 X17.790 Y0.000 E28.75999
G1 X17.448 Y3.471 E28.86148
G1 X16.436 Y6.808 E28.96298
G1 X14.792 Y9.884 E29.06447
G1 X12.580 Y12.580 E29.16597
G1 X9.884 Y14.792 E29.26746
G1 X6.808 Y16.436 E29.36896
G1 X3.471 Y17.448 E29.47046
G1 X0.000 Y17.790 E29.57195
G1 X-3.471 Y17.448 E29.67345
G1 X-6.808 Y16.436 E29.77494
G1 X-9.884 Y14.792 E29.87644
G1 X-12.580 Y12.580 E29.97793
G1 X-14.792 Y9.884 E30.07943
G1 X-16.436 Y6.808 E30.18093
G1 X-17.448 Y3.471 E30.28242
G1 X-17.790 Y0.000 E30.38392
G1 X-17.448 Y-3.471 E30.48541
G1 X-16.436 Y-6.808 E30.58691
G1 X-14.792 Y-9.884 E30.68840
G1 X-12.580 Y-12.580 E30.78990
G1 X-9.884 Y-14.792 E30.89140
G1 X-6.808 Y-16.436 E30.99289
G1 X-3.471 Y-17.448 E31.09439
G1 X-3.208 Y-17.474 E31.10208
G1 X-3.121 Y-17.131 F18000.000
G1 X-0.000 Y-17.439 E31.19335 F3600.000
G1 X3.402 Y-17.104 E31.29284
G1 X6.673 Y-16.111 E31.39233
G1 X9.688 Y-14.500 E31.49182
G1 X12.331 Y-12.331 E31.59131
G1 X14.500 Y-9.688 E31.69080
G1 X16.111 Y-6.673 E31.79029
G1 X17.104 Y-3.402 E31.88978
G1 X17.439 Y0.000 E31.98927
G1 X17.104 Y3.402 E32.08876
G1 X16.111 Y6.673 E32.18824
G1 X14.500 Y9.688 E32.28773
G1 X12.331 Y12.331 E32.38722
G1 X9.688 Y14.500 E32.48671
G1 X6.673 Y16.111 E32.58620
G1 X3.402 Y17.104 E32.68569
G1 X-0.000 Y17.439 E32.78518
G1 X-3.402 Y17.104 E32.88467
G1 X-6.673 Y16.111 E32.98416
G1 X-9.688 Y14.500 E33.08365
G1 X-12.331 Y12.331 E33.18314
G1 X-14.500 Y9.688 E33.28263
G1 X-16.111 Y6.673 E33.38212
G1 X-17.104 Y3.402 E33.48161
G1 X-17.439 Y0.000 E33.58109
G1 X-17.104 Y-3.402 E33.68058
G1 X-16.111 Y-6.673 E33.78007
G1 X-14.500 Y-9.688 E33.87956
G1 X-12.331 Y-12.331 E33.97905
G1 X-9.688 Y-14.500 E34.07854
G1 X-6.673 Y-16.111 E34.17803
G1 X-3.402 Y-17.104 E34.27752
G1 X-3.174 Y-17.126 E34.28420
G1 F600.000 E33.58420
G1 Z0.400 F18000.000
G92 E0
G1 X6.234 Y-15.995 F18000.000
;AAA selfz = 0.4, lifted = .2
G1 Z0.200 F18000.000
G1 E0.70000 F600.000
G1 X15.995 Y-6.234 E1.11959 F4800.000
G1 X16.220 Y-5.492 E1.14316
G1 X5.492 Y-16.220 E1.60432
G1 X4.750 Y-16.445 E1.62789
G1 X16.445 Y-4.750 E2.13063
G1 X16.671 Y-4.008 E2.15420
G1 X4.008 Y-16.671 E2.69850
G1 X3.286 Y-16.875 E2.72131
G1 X16.875 Y-3.286 E3.30544
G1 X16.932 Y-2.713 E3.32295
G1 X2.713 Y-16.932 E3.93416
G1 X2.139 Y-16.988 E3.95168
G1 X16.988 Y-2.139 E4.58996
G1 X17.045 Y-1.566 E4.60748
G1 X1.566 Y-17.045 E5.27284
G1 X0.992 Y-17.101 E5.29035
G1 X17.101 Y-0.992 E5.98279
G1 X17.158 Y-0.419 E6.00031
G1 X0.419 Y-17.158 E6.71983
G1 X-0.127 Y-17.186 E6.73644
G1 X17.186 Y0.127 E7.48065
G1 X17.140 Y0.597 E7.49502
G1 X-0.597 Y-17.140 E8.25747
G1 X-1.068 Y-17.094 E8.27185
G1 X17.094 Y1.068 E9.05253
G1 X17.047 Y1.539 E9.06691
G1 X-1.539 Y-17.047 E9.86583
G1 X-2.009 Y-17.001 E9.88020
G1 X17.001 Y2.009 E10.69736
G1 X16.955 Y2.480 E10.71173
G1 X-2.480 Y-16.955 E11.54713
G1 X-2.950 Y-16.908 E11.56150
G1 X16.908 Y2.950 E12.41514
G1 X16.852 Y3.411 E12.42923
G1 X-3.411 Y-16.852 E13.30021
G1 X-3.807 Y-16.731 E13.31281
G1 X16.731 Y3.807 E14.19567
G1 X16.611 Y4.204 E14.20827
G1 X-4.204 Y-16.611 E15.10301
G1 X-4.601 Y-16.491 E15.11561
G1 X16.491 Y4.601 E16.02222
G1 X16.370 Y4.997 E16.03482
G1 X-4.997 Y-16.370 E16.95331
G1 X-5.394 Y-16.250 E16.96591
G1 X16.250 Y5.394 E17.89628
G1 X16.130 Y5.791 E17.90888
G1 X-5.791 Y-16.130 E18.85113
G1 X-6.187 Y-16.009 E18.86373
G1 X16.009 Y6.187 E19.81785
G1 X15.889 Y6.584 E19.83044
G1 X-6.584 Y-15.889 E20.79642
G1 X-6.920 Y-15.709 E20.80803
G1 X15.709 Y6.920 E21.78075
G1 X15.529 Y7.257 E21.79236
G1 X-7.257 Y-15.529 E22.77182
G1 X-7.594 Y-15.349 E22.78343
G1 X15.349 Y7.594 E23.76962
G1 X15.168 Y7.931 E23.78124
G1 X-7.931 Y-15.169 E24.77417
G1 X-8.268 Y-14.988 E24.78579
G1 X14.988 Y8.268 E25.78547
G1 X14.808 Y8.605 E25.79708
G1 X-8.605 Y-14.808 E26.80350
G1 X-8.942 Y-14.628 E26.81511
G1 X14.628 Y8.942 E27.82827
G1 X14.448 Y9.279 E27.83988
G1 X-9.279 Y-14.448 E28.85978
G1 X-9.606 Y-14.259 E28.87128
G1 X14.259 Y9.606 E29.89711
G1 X14.026 Y9.890 E29.90828
G1 X-9.890 Y-14.026 E30.93629
G1 X-10.174 Y-13.793 E30.94746
G1 X13.793 Y10.174 E31.97766
G1 X13.560 Y10.458 E31.98883
G1 X-10.458 Y-13.560 E33.02122
G1 X-10.742 Y-13.327 E33.03239
G1 X13.327 Y10.742 E34.06697
G1 X13.094 Y11.026 E34.07814
G1 X-11.026 Y-13.094 E35.11491
G1 X-11.310 Y-12.861 E35.12607
G1 X12.861 Y11.310 E36.16503
G1 X12.628 Y11.594 E36.17620
G1 X-11.594 Y-12.628 E37.21735
G1 X-11.878 Y-12.395 E37.22851
G1 X12.395 Y11.878 E38.27185
G1 X12.148 Y12.148 E38.28297
G1 X-12.148 Y-12.149 E39.32738
G1 X-12.394 Y-11.878 E39.33851
G1 X11.878 Y12.394 E40.38185
G1 X11.594 Y12.627 E40.39301
G1 X-12.628 Y-11.594 E41.43416
G1 X-12.861 Y-11.310 E41.44532
G1 X11.310 Y12.861 E42.48429
G1 X11.026 Y13.094 E42.49545
G1 X-13.094 Y-11.026 E43.53222
G1 X-13.327 Y-10.742 E43.54339
G1 X10.742 Y13.327 E44.57797
G1 X10.458 Y13.560 E44.58913
G1 X-13.560 Y-10.458 E45.62153
G1 X-13.793 Y-10.174 E45.63269
G1 X10.174 Y13.793 E46.66290
G1 X9.890 Y14.026 E46.67407
G1 X-14.026 Y-9.890 E47.70208
G1 X-14.259 Y-9.606 E47.71325
G1 X9.606 Y14.259 E48.73908
G1 X9.279 Y14.448 E48.75058
G1 X-14.448 Y-9.279 E49.77048
G1 X-14.628 Y-8.942 E49.78209
G1 X8.942 Y14.628 E50.79525
G1 X8.605 Y14.808 E50.80686
G1 X-14.808 Y-8.605 E51.81329
G1 X-14.988 Y-8.268 E51.82490
G1 X8.268 Y14.988 E52.82458
G1 X7.931 Y15.168 E52.83619
G1 X-15.168 Y-7.931 E53.82913
G1 X-15.349 Y-7.594 E53.84074
G1 X7.594 Y15.349 E54.82694
G1 X7.257 Y15.529 E54.83855
G1 X-15.529 Y-7.257 E55.81801
G1 X-15.709 Y-6.920 E55.82962
G1 X6.920 Y15.709 E56.80234
G1 X6.584 Y15.889 E56.81395
G1 X-15.889 Y-6.584 E57.77992
G1 X-16.009 Y-6.187 E57.79252
G1 X6.187 Y16.009 E58.74664
G1 X5.791 Y16.130 E58.75924
G1 X-16.130 Y-5.791 E59.70149
G1 X-16.250 Y-5.394 E59.71409
G1 X5.394 Y16.250 E60.64446
G1 X4.997 Y16.370 E60.65706
G1 X-16.370 Y-4.997 E61.57555
G1 X-16.491 Y-4.601 E61.58815
G1 X4.601 Y16.491 E62.49477
G1 X4.204 Y16.611 E62.50737
G1 X-16.611 Y-4.204 E63.40210
G1 X-16.731 Y-3.807 E63.41470
G1 X3.807 Y16.731 E64.29756
G1 X3.411 Y16.852 E64.31016
G1 X-16.852 Y-3.411 E65.18115
G1 X-16.908 Y-2.951 E65.19524
G1 X2.950 Y16.908 E66.04888
G1 X2.480 Y16.955 E66.06325
G1 X-16.955 Y-2.480 E66.89865
G1 X-17.001 Y-2.009 E66.91302
G1 X2.009 Y17.001 E67.73018
G1 X1.539 Y17.047 E67.74456
G1 X-17.047 Y-1.539 E68.54348
G1 X-17.094 Y-1.068 E68.55786
G1 X1.068 Y17.094 E69.33854
G1 X0.597 Y17.140 E69.35292
G1 X-17.140 Y-0.597 E70.11537
G1 X-17.186 Y-0.127 E70.12974
G1 X0.127 Y17.186 E70.87396
G1 X-0.419 Y17.158 E70.89057
