; generated by Slic3r 1.3.0-dev on 2017-06-28 at 11:47:22

; external perimeters extrusion width = 0.35mm (1.47mm^3/s)
; perimeters extrusion width = 0.52mm (2.89mm^3/s)
; infill extrusion width = 0.52mm (5.77mm^3/s)
; solid infill extrusion width = 0.52mm (5.77mm^3/s)
; top infill extrusion width = 0.52mm (4.81mm^3/s)

M107
G28
G92 X0 Y0 Z0 E0
G1 F5000 Y30 X30
G1 X220
G1 F100 E30 ;extrude

G28
G92 X0 Y0 Z0
G1 F4000 X101 Y127
G92 X0 Y0 Z0 E0
; Filament gcode

G21 ; set units to millimeters
G90 ; use absolute coordinates
M82 ; use absolute distances for extrusion
G92 E0
G1 E-0.80000 F600.00000
G92 E0
G1 Z0.300 F5400.000
G1 X38.325 Y26.992 F5400.000
G1 Z0.200 F5400.000
G1 E0.80000 F600.00000
G1 F1800
G1 X19.814 Y44.367 E1.55382
G1 X18.481 Y45.247 E1.60122
G1 X16.483 Y46.124 E1.66600
G1 X14.922 Y46.509 E1.71374
G1 X-4.663 Y47.897 E2.29672
G1 X-12.998 Y48.206 E2.54436
G1 X-14.902 Y47.880 E2.60171
G1 X-16.316 Y47.007 E2.65106
G1 X-38.585 Y27.067 E3.53858
G1 X-39.072 Y26.560 E3.55947
G1 X-40.459 Y24.883 E3.62406
G1 X-40.909 Y24.236 E3.64748
G1 X-41.997 Y22.351 E3.71210
G1 X-42.333 Y21.637 E3.73551
G1 X-43.091 Y19.598 E3.80011
G1 X-43.263 Y19.031 E3.81771
G1 X-49.055 Y-5.687 E4.57150
G1 X-49.151 Y-7.281 E4.61890
G1 X-48.911 Y-9.450 E4.68369
G1 X-48.464 Y-10.994 E4.73142
G1 X-39.801 Y-28.792 E5.31916
G1 X-35.974 Y-36.022 E5.56204
G1 X-34.739 Y-37.508 E5.61940
G1 X-33.276 Y-38.296 E5.66874
G1 X-4.873 Y-47.612 E6.55628
G1 X-4.190 Y-47.781 E6.57717
G1 X-2.045 Y-48.143 E6.64176
G1 X-1.259 Y-48.209 E6.66518
G1 X0.917 Y-48.209 E6.72977
G1 X1.703 Y-48.143 E6.75319
G1 X3.848 Y-47.781 E6.81778
G1 X4.425 Y-47.645 E6.83540
G1 X28.728 Y-40.302 E7.58920
G1 X30.156 Y-39.588 E7.63660
G1 X31.914 Y-38.296 E7.70138
G1 X33.028 Y-37.137 E7.74912
G1 X44.023 Y-20.869 E8.33210
G1 X48.458 Y-13.806 E8.57974
G1 X49.128 Y-11.994 E8.63709
G1 X49.079 Y-10.333 E8.68643
G1 X42.945 Y18.922 E9.57394
G1 X42.749 Y19.598 E9.59483
G1 X41.991 Y21.637 E9.65942
G1 X41.655 Y22.351 E9.68284
G1 X40.567 Y24.236 E9.74746
G1 X40.117 Y24.884 E9.77088
G1 X38.730 Y26.559 E9.83546
G1 X38.360 Y26.953 E9.85151
G1 X38.080 Y26.731 F5400.000
G1 F1800
G1 X19.569 Y44.107 E10.60533
G1 X18.338 Y44.920 E10.64914
G1 X16.340 Y45.797 E10.71392
G1 X14.897 Y46.153 E10.75804
G1 X-4.688 Y47.541 E11.34102
G1 X-13.011 Y47.849 E11.58830
G1 X-14.838 Y47.521 E11.64342
G1 X-16.078 Y46.741 E11.68690
G1 X-38.346 Y26.801 E12.57443
G1 X-38.797 Y26.332 E12.59373
G1 X-40.184 Y24.656 E12.65832
G1 X-40.600 Y24.057 E12.67997
G1 X-41.688 Y22.172 E12.74459
G1 X-41.998 Y21.513 E12.76623
G1 X-42.757 Y19.474 E12.83082
G1 X-42.915 Y18.949 E12.84709
G1 X-48.707 Y-5.769 E13.60088
G1 X-48.796 Y-7.242 E13.64469
G1 X-48.556 Y-9.410 E13.70948
G1 X-48.143 Y-10.838 E13.75360
G1 X-39.485 Y-28.625 E14.34097
G1 X-35.658 Y-35.855 E14.58386
G1 X-34.460 Y-37.273 E14.63897
G1 X-33.165 Y-37.957 E14.68245
G1 X-4.761 Y-47.273 E15.56999
G1 X-4.130 Y-47.429 E15.58930
G1 X-1.985 Y-47.791 E15.65389
G1 X-1.259 Y-47.852 E15.67554
G1 X0.917 Y-47.852 E15.74013
G1 X1.643 Y-47.791 E15.76178
G1 X3.788 Y-47.429 E15.82637
G1 X4.322 Y-47.303 E15.84265
G1 X28.625 Y-39.960 E16.59645
G1 X29.945 Y-39.300 E16.64026
G1 X31.703 Y-38.008 E16.70505
G1 X32.733 Y-36.937 E16.74916
G1 X43.727 Y-20.669 E17.33214
G1 X48.156 Y-13.616 E17.57942
G1 X48.785 Y-11.869 E17.63454
G1 X48.729 Y-10.406 E17.67802
G1 X42.595 Y18.849 E18.56553
G1 X42.415 Y19.474 E18.58483
G1 X41.656 Y21.513 E18.64943
G1 X41.346 Y22.173 E18.67108
G1 X40.258 Y24.057 E18.73569
G1 X39.842 Y24.656 E18.75734
G1 X38.455 Y26.332 E18.82192
G1 X38.116 Y26.693 E18.83663
G1 E18.03663 F600.00000
G92 E0
G1 Z0.500 F5400.000
G1 X-1.424 Y35.705 F5400.000
G1 Z0.200 F5400.000
G1 E0.80000 F600.00000
G1 F900
G1 X1.615 Y35.859 E0.89037
G1 X0.827 Y39.001 E0.98654
G1 X-1.091 Y38.868 E1.04363
G1 X-1.419 Y35.758 E1.13648
G1 X-1.025 Y36.083 F5400.000
G1 F900
G1 X1.163 Y36.194 E1.20155
G1 X0.553 Y38.624 E1.27594
G1 X-0.768 Y38.532 E1.31525
G1 X-1.020 Y36.135 E1.38680
G1 X-1.026 Y35.733 F5400.000
G1 E0.58680 F600.00000
G92 E0
G1 Z0.500 F5400.000
G1 X-1.770 Y36.651 F5400.000
G1 X-12.785 Y17.521 F5400.000
G1 X-12.730 Y17.079 F5400.000
G1 Z0.200 F5400.000
G1 E0.80000 F600.00000
G1 F900
G1 X-10.062 Y14.952 E0.90131
G1 X-7.789 Y13.639 E0.97924
G1 X-5.347 Y12.681 E1.05716
G1 X-2.788 Y12.097 E1.13508
G1 X-0.171 Y11.900 E1.21300
G1 X2.446 Y12.097 E1.29092
G1 X5.005 Y12.681 E1.36884
G1 X7.447 Y13.639 E1.44676
G1 X9.720 Y14.951 E1.52468
G1 X11.842 Y16.644 E1.60527
G1 X5.435 Y16.844 E1.79560
G1 X-3.922 Y17.312 E2.07377
G1 X-12.678 Y17.081 E2.33382
G1 X-11.742 Y16.748 F5400.000
G1 F720
G1 X-9.861 Y15.248 E2.40528
G1 X-7.634 Y13.962 E2.48162
G1 X-5.241 Y13.023 E2.55795
G1 X-2.734 Y12.451 E2.63429
G1 X-0.171 Y12.259 E2.71062
G1 X2.393 Y12.451 E2.78694
G1 X4.899 Y13.023 E2.86328
G1 X7.292 Y13.962 E2.93961
G1 X9.518 Y15.247 E3.01594
G1 X10.860 Y16.317 E3.06689
G1 X5.421 Y16.487 E3.22847
G1 X-3.926 Y16.955 E3.50634
G1 X-11.690 Y16.750 E3.73693
G1 X-12.032 Y16.553 F5400.000
G1 E2.93693 F600.00000
G92 E0
G1 Z0.500 F5400.000
G1 X3.845 Y10.842 F5400.000
G1 X3.951 Y11.366 F5400.000
G1 Z0.200 F5400.000
G1 E0.80000 F600.00000
G1 F900
G1 X6.716 Y9.821 E0.89404
G1 X8.219 Y8.646 E0.95070
G1 X9.526 Y7.254 E1.00737
G1 X10.603 Y5.680 E1.06401
G1 X11.428 Y3.959 E1.12067
G1 X11.980 Y2.132 E1.17734
G1 X12.246 Y0.242 E1.23400
G1 X12.202 Y-2.925 E1.32804
G1 X14.800 Y-0.746 E1.42872
G1 X16.588 Y0.430 E1.49226
G1 X18.502 Y1.391 E1.55586
G1 X21.688 Y2.552 E1.65652
G1 X18.923 Y4.098 E1.75057
G1 X17.420 Y5.272 E1.80721
G1 X16.113 Y6.664 E1.86389
G1 X15.035 Y8.238 E1.92054
G1 X14.211 Y9.960 E1.97721
G1 X13.655 Y11.800 E2.03428
G1 X13.393 Y13.676 E2.09052
G1 X13.437 Y16.843 E2.18457
G1 X10.839 Y14.664 E2.28525
G1 X9.051 Y13.488 E2.34879
G1 X7.136 Y12.527 E2.41240
G1 X4.000 Y11.384 E2.51150
G1 X4.806 Y11.298 F5400.000
G1 F720
G1 X6.914 Y10.119 E2.58321
G1 X8.461 Y8.910 E2.64150
G1 X9.805 Y7.479 E2.69980
G1 X10.914 Y5.859 E2.75808
G1 X11.762 Y4.089 E2.81637
G1 X12.330 Y2.209 E2.87467
G1 X12.603 Y0.265 E2.93296
G1 X12.570 Y-2.150 E3.00467
G1 X14.586 Y-0.459 E3.08282
G1 X16.409 Y0.740 E3.14759
G1 X18.361 Y1.720 E3.21243
G1 X20.833 Y2.621 E3.29056
G1 X18.725 Y3.799 E3.36228
G1 X17.178 Y5.008 E3.42056
G1 X15.834 Y6.440 E3.47887
G1 X14.725 Y8.059 E3.53715
G1 X13.877 Y9.830 E3.59545
G1 X13.305 Y11.723 E3.65416
G1 X13.036 Y13.653 E3.71203
G1 X13.069 Y16.069 E3.78374
G1 X11.053 Y14.377 E3.86189
G1 X9.230 Y13.179 E3.92667
G1 X7.278 Y12.198 E3.99151
G1 X4.855 Y11.316 E4.06808
G1 X4.572 Y11.037 F5400.000
G1 E3.26808 F600.00000
G92 E0
G1 Z0.500 F5400.000
G1 X5.040 Y12.234 F5400.000
G1 X13.886 Y13.351 F5400.000
G1 X14.344 Y12.991 F5400.000
G1 Z0.200 F5400.000
G1 E0.80000 F600.00000
G1 F900
G1 X14.757 Y11.074 E0.85821
G1 X15.488 Y9.255 E0.91642
G1 X16.516 Y7.586 E0.97464
G1 X17.812 Y6.114 E1.03284
G1 X19.337 Y4.882 E1.09106
G1 X21.049 Y3.926 E1.14927
G1 X22.897 Y3.273 E1.20748
G1 X24.830 Y2.942 E1.26569
G1 X26.790 Y2.942 E1.32390
G1 X28.722 Y3.273 E1.38211
G1 X30.571 Y3.926 E1.44032
G1 X32.282 Y4.882 E1.49853
G1 X33.808 Y6.114 E1.55674
G1 X35.103 Y7.586 E1.61496
G1 X36.131 Y9.255 E1.67317
G1 X36.862 Y11.075 E1.73139
G1 X37.275 Y12.991 E1.78959
G1 X37.358 Y14.950 E1.84780
G1 X37.109 Y16.894 E1.90601
G1 X36.537 Y18.765 E1.96411
G1 X35.827 Y20.223 E2.01226
G1 X35.641 Y20.536 E2.02306
G1 X34.487 Y22.096 E2.08067
G1 X33.366 Y23.170 E2.12676
G1 X33.071 Y23.453 E2.13888
G1 X31.447 Y24.550 E2.19709
G1 X29.661 Y25.358 E2.25530
G1 X27.763 Y25.852 E2.31352
G1 X25.810 Y26.018 E2.37173
G1 X23.856 Y25.852 E2.42994
G1 X21.959 Y25.358 E2.48815
G1 X20.173 Y24.550 E2.54636
G1 X18.548 Y23.453 E2.60457
G1 X17.132 Y22.095 E2.66280
G1 X15.967 Y20.520 E2.72100
G1 X15.084 Y18.769 E2.77922
G1 X14.510 Y16.894 E2.83742
G1 X14.261 Y14.950 E2.89564
G1 X14.342 Y13.043 E2.95229
G1 X14.700 Y13.036 F5400.000
G1 F720
G1 X15.100 Y11.179 E3.00869
G1 X15.808 Y9.416 E3.06510
G1 X16.805 Y7.799 E3.12151
G1 X18.060 Y6.373 E3.17791
G1 X19.538 Y5.179 E3.23432
G1 X21.196 Y4.253 E3.29073
G1 X22.987 Y3.620 E3.34713
G1 X24.860 Y3.299 E3.40354
G1 X26.760 Y3.299 E3.45995
G1 X28.632 Y3.620 E3.51635
G1 X30.423 Y4.253 E3.57276
G1 X32.082 Y5.179 E3.62916
G1 X33.560 Y6.373 E3.68557
G1 X34.815 Y7.799 E3.74198
G1 X35.811 Y9.417 E3.79839
G1 X36.520 Y11.179 E3.85480
G1 X36.920 Y13.036 E3.91120
G1 X37.000 Y14.935 E3.96761
G1 X36.759 Y16.819 E4.02401
G1 X36.203 Y18.634 E4.08038
G1 X35.513 Y20.054 E4.12725
G1 X35.343 Y20.338 E4.13707
G1 X34.218 Y21.859 E4.19326
G1 X33.119 Y22.912 E4.23845
G1 X32.846 Y23.174 E4.24967
G1 X31.273 Y24.237 E4.30607
G1 X29.541 Y25.020 E4.36248
G1 X27.703 Y25.499 E4.41889
G1 X25.810 Y25.660 E4.47529
G1 X23.917 Y25.499 E4.53170
G1 X22.078 Y25.020 E4.58811
G1 X20.347 Y24.238 E4.64451
G1 X18.773 Y23.174 E4.70091
G1 X17.401 Y21.859 E4.75734
G1 X16.272 Y20.332 E4.81373
G1 X15.417 Y18.635 E4.87015
G1 X14.861 Y16.819 E4.92654
G1 X14.619 Y14.934 E4.98296
G1 X14.698 Y13.089 E5.03780
G1 X14.421 Y12.824 F5400.000
G1 E4.23780 F600.00000
G92 E0
G1 Z0.500 F5400.000
G1 X13.886 Y13.351 F5400.000
G1 X31.687 Y-16.916 F5400.000
G1 X31.845 Y-17.578 F5400.000
G1 Z0.200 F5400.000
G1 E0.80000 F600.00000
G1 F900
G1 X30.458 Y-20.287 E0.89037
G1 X33.573 Y-21.175 E0.98654
G1 X34.418 Y-19.448 E1.04363
G1 X31.888 Y-17.609 E1.13648
G1 X31.973 Y-18.113 F5400.000
G1 F900
G1 X30.974 Y-20.063 E1.20154
G1 X33.384 Y-20.750 E1.27593
G1 X33.965 Y-19.560 E1.31524
G1 X32.015 Y-18.143 E1.38680
G1 X31.700 Y-17.894 F5400.000
G1 E0.58680 F600.00000
G92 E0
G1 Z0.500 F5400.000
G1 X30.811 Y-18.204 F5400.000
G1 X21.777 Y1.353 F5400.000
G1 X21.367 Y1.525 F5400.000
G1 Z0.200 F5400.000
G1 E0.80000 F600.00000
G1 F900
G1 X18.192 Y0.279 E0.90129
G1 X15.919 Y-1.033 E0.97921
G1 X13.867 Y-2.669 E1.05712
G1 X12.082 Y-4.594 E1.13506
G1 X10.604 Y-6.761 E1.21295
G1 X9.465 Y-9.126 E1.29088
G1 X8.691 Y-11.634 E1.36881
G1 X8.300 Y-14.229 E1.44673
G1 X8.300 Y-16.853 E1.52465
G1 X8.705 Y-19.536 E1.60520
G1 X12.081 Y-14.088 E1.79549
G1 X17.165 Y-6.219 E2.07368
G1 X21.342 Y1.479 E2.33371
G1 X20.586 Y0.835 F5400.000
G1 F720
G1 X18.347 Y-0.044 E2.40514
G1 X16.120 Y-1.329 E2.48147
G1 X14.111 Y-2.932 E2.55780
G1 X12.362 Y-4.817 E2.63414
G1 X10.914 Y-6.940 E2.71045
G1 X9.798 Y-9.257 E2.78679
G1 X9.041 Y-11.713 E2.86312
G1 X8.657 Y-14.256 E2.93946
G1 X8.657 Y-16.826 E3.01579
G1 X8.913 Y-18.522 E3.06670
G1 X11.779 Y-13.897 E3.22825
G1 X16.858 Y-6.036 E3.50613
G1 X20.561 Y0.789 E3.73669
G1 X20.562 Y1.184 F5400.000
G1 E2.93669 F600.00000
G92 E0
G1 Z0.500 F5400.000
G1 X20.371 Y0.645 F5400.000
G1 X11.801 Y0.130 F5400.000
G1 X11.378 Y-0.050 F5400.000
G1 Z0.200 F5400.000
G1 E0.80000 F600.00000
G1 F900
G1 X11.129 Y1.894 E0.85821
G1 X10.555 Y3.769 E0.91642
G1 X9.672 Y5.519 E0.97462
G1 X8.506 Y7.096 E1.03284
G1 X8.310 Y7.284 E1.04090
G1 X7.091 Y8.452 E1.09105
G1 X5.467 Y9.550 E1.14926
G1 X3.680 Y10.358 E1.20748
G1 X1.783 Y10.852 E1.26569
G1 X-0.171 Y11.018 E1.32390
G1 X-2.124 Y10.852 E1.38211
G1 X-4.022 Y10.358 E1.44032
G1 X-4.162 Y10.295 E1.44489
G1 X-5.808 Y9.550 E1.49854
G1 X-7.433 Y8.453 E1.55675
G1 X-8.848 Y7.096 E1.61496
G1 X-10.014 Y5.520 E1.67317
G1 X-10.897 Y3.769 E1.73138
G1 X-11.471 Y1.894 E1.78959
G1 X-11.720 Y-0.050 E1.84780
G1 X-11.636 Y-2.009 E1.90602
G1 X-11.223 Y-3.926 E1.96423
G1 X-10.549 Y-5.605 E2.01795
G1 X-10.492 Y-5.745 E2.02244
G1 X-9.464 Y-7.414 E2.08065
G1 X-8.169 Y-8.886 E2.13887
G1 X-6.644 Y-10.118 E2.19707
G1 X-4.932 Y-11.074 E2.25529
G1 X-3.084 Y-11.727 E2.31350
G1 X-1.163 Y-12.056 E2.37135
G1 X-0.171 Y-12.098 E2.40084
G1 X0.821 Y-12.056 E2.43032
G1 X2.742 Y-11.727 E2.48817
G1 X4.590 Y-11.074 E2.54638
G1 X6.302 Y-10.118 E2.60460
G1 X7.827 Y-8.886 E2.66280
G1 X9.122 Y-7.415 E2.72101
G1 X10.150 Y-5.745 E2.77923
G1 X10.882 Y-3.925 E2.83745
G1 X11.295 Y-2.009 E2.89566
G1 X11.375 Y-0.103 E2.95231
G1 X11.020 Y-0.065 F5400.000
G1 F720
G1 X10.778 Y1.819 E3.00871
G1 X10.222 Y3.635 E3.06512
G1 X9.367 Y5.331 E3.12152
G1 X8.237 Y6.859 E3.17793
G1 X8.063 Y7.026 E3.18509
G1 X6.866 Y8.174 E3.23434
G1 X5.292 Y9.237 E3.29074
G1 X3.560 Y10.020 E3.34716
G1 X1.722 Y10.499 E3.40356
G1 X-0.171 Y10.660 E3.45997
G1 X-2.064 Y10.499 E3.51638
G1 X-3.902 Y10.020 E3.57278
G1 X-4.015 Y9.969 E3.57645
G1 X-5.634 Y9.237 E3.62919
G1 X-7.207 Y8.174 E3.68559
G1 X-8.579 Y6.859 E3.74200
G1 X-9.709 Y5.332 E3.79841
G1 X-10.564 Y3.635 E3.85482
G1 X-11.120 Y1.819 E3.91122
G1 X-11.362 Y-0.065 E3.96763
G1 X-11.281 Y-1.964 E4.02404
G1 X-10.881 Y-3.821 E4.08045
G1 X-10.217 Y-5.471 E4.13326
G1 X-10.172 Y-5.584 E4.13685
G1 X-9.176 Y-7.201 E4.19326
G1 X-7.921 Y-8.628 E4.24968
G1 X-6.443 Y-9.821 E4.30607
G1 X-4.784 Y-10.747 E4.36249
G1 X-2.993 Y-11.380 E4.41889
G1 X-1.125 Y-11.701 E4.47516
G1 X-0.171 Y-11.741 E4.50352
G1 X0.783 Y-11.701 E4.53187
G1 X2.651 Y-11.380 E4.58815
G1 X4.442 Y-10.747 E4.64455
G1 X6.101 Y-9.821 E4.70097
G1 X7.579 Y-8.627 E4.75736
G1 X8.834 Y-7.202 E4.81377
G1 X9.830 Y-5.584 E4.87018
G1 X10.539 Y-3.820 E4.92660
G1 X10.939 Y-1.964 E4.98300
G1 X11.017 Y-0.118 E5.03785
G1 X11.315 Y0.122 F5400.000
G1 E4.23785 F600.00000
G92 E0
G1 Z0.500 F5400.000
G1 X11.801 Y0.130 F5400.000
G1 X8.218 Y-9.311 F5400.000
G1 X8.080 Y-10.064 F5400.000
G1 Z0.200 F5400.000
G1 E0.80000 F600.00000
G1 F900
G1 X5.359 Y-11.686 E0.89404
G1 X3.590 Y-12.400 E0.95070
G1 X1.732 Y-12.836 E1.00736
G1 X-0.171 Y-12.982 E1.06402
G1 X-2.074 Y-12.836 E1.12068
G1 X-3.931 Y-12.400 E1.17733
G1 X-5.701 Y-11.686 E1.23400
G1 X-8.422 Y-10.064 E1.32805
G1 X-7.834 Y-13.403 E1.42870
G1 X-7.710 Y-15.541 E1.49228
G1 X-7.834 Y-17.679 E1.55587
G1 X-8.422 Y-21.018 E1.65653
G1 X-5.701 Y-19.397 E1.75056
G1 X-3.932 Y-18.682 E1.80723
G1 X-2.074 Y-18.246 E1.86389
G1 X-0.171 Y-18.100 E1.92056
G1 X1.732 Y-18.246 E1.97722
G1 X3.590 Y-18.682 E2.03387
G1 X5.359 Y-19.396 E2.09054
G1 X8.080 Y-21.018 E2.18458
G1 X7.492 Y-17.679 E2.28524
G1 X7.368 Y-15.541 E2.34882
G1 X7.492 Y-13.403 E2.41241
G1 X8.071 Y-10.116 E2.51151
G1 X7.593 Y-10.770 F5400.000
G1 F720
G1 X5.518 Y-12.006 E2.58322
G1 X3.698 Y-12.742 E2.64151
G1 X1.787 Y-13.190 E2.69980
G1 X-0.171 Y-13.340 E2.75809
G1 X-2.128 Y-13.190 E2.81638
G1 X-4.039 Y-12.742 E2.87466
G1 X-5.860 Y-12.006 E2.93296
G1 X-7.935 Y-10.770 E3.00468
G1 X-7.479 Y-13.361 E3.08281
G1 X-7.352 Y-15.541 E3.14762
G1 X-7.479 Y-17.720 E3.21245
G1 X-7.935 Y-20.312 E3.29058
G1 X-5.861 Y-19.076 E3.36227
G1 X-4.040 Y-18.340 E3.42057
G1 X-2.128 Y-17.892 E3.47887
G1 X-0.171 Y-17.741 E3.53717
G1 X1.787 Y-17.892 E3.59546
G1 X3.698 Y-18.340 E3.65374
G1 X5.518 Y-19.075 E3.71204
G1 X7.593 Y-20.312 E3.78375
G1 X7.137 Y-17.720 E3.86188
G1 X7.010 Y-15.541 E3.92670
G1 X7.137 Y-13.361 E3.99152
G1 X7.584 Y-10.822 E4.06809
G1 X7.484 Y-10.438 F5400.000
G1 E3.26809 F600.00000
G92 E0
G1 Z0.500 F5400.000
G1 X8.287 Y-11.441 F5400.000
G1 X-9.506 Y-20.495 F5400.000
G1 X-9.151 Y-20.227 F5400.000
G1 Z0.200 F5400.000
G1 E0.80000 F600.00000
G1 F900
G1 X-8.642 Y-16.853 E0.90131
G1 X-8.642 Y-14.229 E0.97923
G1 X-9.033 Y-11.634 E1.05714
G1 X-9.807 Y-9.126 E1.13506
G1 X-10.945 Y-6.762 E1.21298
G1 X-12.424 Y-4.593 E1.29090
G1 X-14.209 Y-2.669 E1.36884
G1 X-16.261 Y-1.033 E1.44675
G1 X-18.533 Y0.279 E1.52466
G1 X-21.059 Y1.270 E1.60523
G1 X-18.023 Y-4.391 E1.79598
G1 X-13.757 Y-12.714 E2.07368
G1 X-9.178 Y-20.182 E2.33377
G1 X-9.358 Y-19.206 F5400.000
G1 F720
G1 X-8.999 Y-16.826 E2.40522
G1 X-8.999 Y-14.255 E2.48155
G1 X-9.382 Y-11.713 E2.55788
G1 X-10.140 Y-9.257 E2.63421
G1 X-11.255 Y-6.941 E2.71054
G1 X-12.704 Y-4.817 E2.78687
G1 X-14.453 Y-2.932 E2.86322
G1 X-16.463 Y-1.329 E2.93954
G1 X-18.688 Y-0.044 E3.01586
G1 X-20.286 Y0.583 E3.06680
G1 X-17.707 Y-4.225 E3.22880
G1 X-13.446 Y-12.539 E3.50619
G1 X-9.385 Y-19.161 E3.73682
G1 X-9.041 Y-19.355 F5400.000
G1 E2.93682 F600.00000
G92 E0
G1 Z0.500 F5400.000
G1 X-12.095 Y-2.069 F5400.000
G1 X-12.544 Y-2.925 F5400.000
G1 Z0.200 F5400.000
G1 E0.80000 F600.00000
G1 F900
G1 X-12.588 Y0.242 E0.89404
G1 X-12.322 Y2.132 E0.95070
G1 X-11.770 Y3.959 E1.00737
G1 X-10.945 Y5.680 E1.06403
G1 X-9.867 Y7.255 E1.12070
G1 X-8.561 Y8.646 E1.17735
G1 X-7.057 Y9.821 E1.23401
G1 X-4.293 Y11.366 E1.32805
G1 X-7.478 Y12.527 E1.42870
G1 X-9.392 Y13.488 E1.49228
G1 X-11.181 Y14.664 E1.55587
