; generated by Slic3r 1.2.9 on 2018-01-13 at 18:33:26

; external perimeters extrusion width = 0.35mm
; perimeters extrusion width = 0.48mm
; infill extrusion width = 0.48mm
; solid infill extrusion width = 0.48mm
; top infill extrusion width = 0.48mm
; support material extrusion width = 0.35mm

M107
G28
G92 X0 Y0 Z0 E0
G1 F5000 Y30 X30
G1 X220
G1 F100 E20 ;extrude

G28
G92 X0 Y0 Z0
G1 F4000 X101 Y127
G92 X0 Y0 Z0 E0
G21 ; set units to millimeters
G90 ; use absolute coordinates
M82 ; use absolute distances for extrusion
G92 E0
G1 E-0.70000 F600.00000
G92 E0
G1 Z0.200 F4200.000
G1 Z0.400 F4200.000
G1 X15.463 Y42.700 F4200.000
G1 Z0.200 F4200.000
G1 E0.70000 F600.00000
G1 X14.873 Y43.212 E0.72320 F1200.000
G1 X13.935 Y43.800 E0.75607
G1 X13.760 Y43.886 E0.76187
G1 X12.962 Y44.203 E0.78735
G1 X12.673 Y44.292 E0.79633
G1 X11.909 Y44.468 E0.81961
G1 X11.428 Y44.535 E0.83405
G1 X10.868 Y44.577 E0.85070
G1 X10.247 Y44.593 E0.86916
G1 X-10.497 Y44.588 E1.48506
G1 X-11.268 Y44.551 E1.50799
G1 X-11.909 Y44.468 E1.52719
G1 X-12.673 Y44.292 E1.55047
G1 X-12.962 Y44.203 E1.55945
G1 X-13.760 Y43.886 E1.58493
G1 X-13.935 Y43.800 E1.59073
G1 X-14.873 Y43.212 E1.62360
G1 X-15.463 Y42.700 E1.64680
G1 X-42.700 Y15.463 E2.79045
G1 X-43.210 Y14.876 E2.81354
G1 X-43.800 Y13.934 E2.84655
G1 X-43.886 Y13.759 E2.85234
G1 X-44.203 Y12.962 E2.87782
G1 X-44.292 Y12.673 E2.88680
G1 X-44.497 Y11.728 E2.91549
G1 X-44.566 Y11.079 E2.93488
G1 X-44.591 Y10.371 E2.95591
G1 X-44.591 Y-10.371 E3.57176
G1 X-44.566 Y-11.079 E3.59280
G1 X-44.468 Y-11.909 E3.61763
G1 X-44.292 Y-12.673 E3.64089
G1 X-44.203 Y-12.962 E3.64987
G1 X-43.886 Y-13.759 E3.67535
G1 X-43.800 Y-13.934 E3.68114
G1 X-43.210 Y-14.876 E3.71414
G1 X-42.700 Y-15.463 E3.73724
G1 X-15.463 Y-42.700 E4.88089
G1 X-14.876 Y-43.210 E4.90398
G1 X-13.934 Y-43.800 E4.93698
G1 X-13.759 Y-43.886 E4.94278
G1 X-12.962 Y-44.203 E4.96826
G1 X-12.673 Y-44.292 E4.97724
G1 X-11.728 Y-44.497 E5.00592
G1 X-11.079 Y-44.566 E5.02532
G1 X-10.371 Y-44.591 E5.04635
G1 X10.371 Y-44.591 E5.66221
G1 X11.079 Y-44.566 E5.68324
G1 X11.909 Y-44.468 E5.70807
G1 X12.673 Y-44.292 E5.73133
G1 X12.962 Y-44.203 E5.74031
G1 X13.759 Y-43.886 E5.76578
G1 X13.934 Y-43.800 E5.77158
G1 X14.876 Y-43.210 E5.80458
G1 X15.463 Y-42.700 E5.82768
G1 X42.700 Y-15.463 E6.97133
G1 X43.212 Y-14.873 E6.99453
G1 X43.800 Y-13.935 E7.02740
G1 X43.886 Y-13.760 E7.03319
G1 X44.203 Y-12.962 E7.05868
G1 X44.292 Y-12.673 E7.06766
G1 X44.497 Y-11.728 E7.09636
G1 X44.566 Y-11.084 E7.11560
G1 X44.591 Y-10.369 E7.13686
G1 X44.591 Y10.369 E7.75258
G1 X44.566 Y11.084 E7.77383
G1 X44.468 Y11.910 E7.79851
G1 X44.292 Y12.673 E7.82177
G1 X44.203 Y12.962 E7.83076
G1 X43.886 Y13.760 E7.85625
G1 X43.800 Y13.935 E7.86204
G1 X43.212 Y14.873 E7.89491
G1 X42.700 Y15.463 E7.91811
G1 X15.500 Y42.663 E9.06021
G1 X15.211 Y42.447 F4200.000
G1 X14.654 Y42.930 E9.08210 F1200.000
G1 X13.777 Y43.479 E9.11280
G1 X13.602 Y43.565 E9.11860
G1 X12.857 Y43.862 E9.14241
G1 X12.568 Y43.951 E9.15139
G1 X11.854 Y44.116 E9.17313
G1 X11.392 Y44.180 E9.18698
G1 X10.857 Y44.220 E9.20292
G1 X10.247 Y44.236 E9.22105
G1 X-10.485 Y44.232 E9.83661
G1 X-11.233 Y44.195 E9.85883
G1 X-11.854 Y44.116 E9.87744
G1 X-12.568 Y43.951 E9.89918
G1 X-12.857 Y43.862 E9.90816
G1 X-13.777 Y43.479 E9.93775
G1 X-14.654 Y42.930 E9.96846
G1 X-15.211 Y42.447 E9.99035
G1 X-42.447 Y15.211 E11.13400
G1 X-42.928 Y14.656 E11.15579
G1 X-43.480 Y13.777 E11.18663
G1 X-43.862 Y12.856 E11.21621
G1 X-43.951 Y12.567 E11.22519
G1 X-44.144 Y11.673 E11.25234
G1 X-44.210 Y11.056 E11.27077
G1 X-44.234 Y10.363 E11.29137
G1 X-44.234 Y-10.363 E11.90674
G1 X-44.210 Y-11.056 E11.92734
G1 X-44.116 Y-11.854 E11.95121
G1 X-43.951 Y-12.568 E11.97294
G1 X-43.862 Y-12.857 E11.98192
G1 X-43.480 Y-13.777 E12.01150
G1 X-42.928 Y-14.656 E12.04233
G1 X-42.447 Y-15.211 E12.06412
G1 X-15.211 Y-42.447 E13.20777
G1 X-14.656 Y-42.928 E13.22957
G1 X-13.777 Y-43.480 E13.26040
G1 X-12.857 Y-43.862 E13.28998
G1 X-12.568 Y-43.951 E13.29896
G1 X-11.673 Y-44.144 E13.32612
G1 X-11.056 Y-44.210 E13.34455
G1 X-10.363 Y-44.234 E13.36515
G1 X10.363 Y-44.234 E13.98052
G1 X11.056 Y-44.210 E14.00112
G1 X11.854 Y-44.116 E14.02498
G1 X12.567 Y-43.951 E14.04671
G1 X12.856 Y-43.862 E14.05569
G1 X13.777 Y-43.480 E14.08527
G1 X14.656 Y-42.928 E14.11610
G1 X15.211 Y-42.447 E14.13790
G1 X42.447 Y-15.211 E15.28155
G1 X42.930 Y-14.654 E15.30344
G1 X43.479 Y-13.777 E15.33415
G1 X43.862 Y-12.857 E15.36374
G1 X43.951 Y-12.568 E15.37272
G1 X44.144 Y-11.673 E15.39989
G1 X44.209 Y-11.061 E15.41818
G1 X44.235 Y-10.361 E15.43898
G1 X44.235 Y10.361 E16.05423
G1 X44.209 Y11.061 E16.07503
G1 X44.116 Y11.854 E16.09876
G1 X43.951 Y12.568 E16.12049
G1 X43.862 Y12.857 E16.12947
G1 X43.479 Y13.777 E16.15907
G1 X42.930 Y14.654 E16.18977
G1 X42.447 Y15.211 E16.21167
G1 X15.248 Y42.410 E17.35376
G1 X14.958 Y42.195 F4200.000
G1 X14.434 Y42.648 E17.37434 F1200.000
G1 X13.620 Y43.159 E17.40289
G1 X13.444 Y43.245 E17.40868
G1 X12.752 Y43.520 E17.43081
G1 X12.463 Y43.610 E17.43979
G1 X11.799 Y43.763 E17.46001
G1 X11.357 Y43.824 E17.47327
G1 X10.846 Y43.863 E17.48849
G1 X10.247 Y43.879 E17.50628
G1 X-10.474 Y43.875 E18.12151
G1 X-11.198 Y43.840 E18.14302
G1 X-11.799 Y43.763 E18.16103
G1 X-12.463 Y43.610 E18.18125
G1 X-12.752 Y43.520 E18.19023
G1 X-13.620 Y43.159 E18.21814
G1 X-14.434 Y42.648 E18.24668
G1 X-14.958 Y42.195 E18.26727
G1 X-42.195 Y14.958 E19.41092
G1 X-42.647 Y14.437 E19.43141
G1 X-43.159 Y13.619 E19.46007
G1 X-43.521 Y12.751 E19.48797
G1 X-43.610 Y12.462 E19.49695
G1 X-43.791 Y11.618 E19.52258
G1 X-43.853 Y11.033 E19.54005
G1 X-43.878 Y10.355 E19.56022
G1 X-43.878 Y-10.355 E20.17510
G1 X-43.853 Y-11.033 E20.19527
G1 X-43.763 Y-11.799 E20.21817
G1 X-43.610 Y-12.462 E20.23837
G1 X-43.521 Y-12.751 E20.24735
G1 X-43.159 Y-13.619 E20.27525
G1 X-42.647 Y-14.437 E20.30391
G1 X-42.195 Y-14.958 E20.32440
G1 X-14.958 Y-42.195 E21.46805
G1 X-14.437 Y-42.647 E21.48854
G1 X-13.619 Y-43.159 E21.51720
G1 X-12.751 Y-43.521 E21.54511
G1 X-12.462 Y-43.610 E21.55409
G1 X-11.618 Y-43.791 E21.57972
G1 X-11.033 Y-43.853 E21.59718
G1 X-10.355 Y-43.878 E21.61735
G1 X10.355 Y-43.878 E22.23223
G1 X11.033 Y-43.853 E22.25240
G1 X11.799 Y-43.763 E22.27530
G1 X12.462 Y-43.610 E22.29550
G1 X12.751 Y-43.521 E22.30448
G1 X13.619 Y-43.159 E22.33239
G1 X14.437 Y-42.647 E22.36105
G1 X14.958 Y-42.195 E22.38154
G1 X42.195 Y-14.958 E23.52519
G1 X42.648 Y-14.434 E23.54577
G1 X43.159 Y-13.620 E23.57432
G1 X43.520 Y-12.752 E23.60223
G1 X43.610 Y-12.463 E23.61121
G1 X43.791 Y-11.618 E23.63685
G1 X43.853 Y-11.038 E23.65419
G1 X43.878 Y-10.353 E23.67454
G1 X43.878 Y10.353 E24.28931
G1 X43.853 Y11.038 E24.30967
G1 X43.763 Y11.799 E24.33244
G1 X43.610 Y12.462 E24.35265
G1 X43.520 Y12.752 E24.36163
G1 X43.159 Y13.620 E24.38955
G1 X42.648 Y14.434 E24.41809
G1 X42.195 Y14.958 E24.43867
G1 X14.995 Y42.158 E25.58076
G1 X14.706 Y41.942 F4200.000
G1 X14.215 Y42.367 E25.60004 F1200.000
G1 X13.462 Y42.838 E25.62642
G1 X13.287 Y42.925 E25.63222
G1 X12.646 Y43.179 E25.65267
G1 X12.357 Y43.268 E25.66165
G1 X11.744 Y43.410 E25.68033
G1 X11.322 Y43.469 E25.69300
G1 X10.835 Y43.506 E25.70751
G1 X10.247 Y43.522 E25.72497
G1 X-10.463 Y43.518 E26.33987
G1 X-11.162 Y43.485 E26.36066
G1 X-11.744 Y43.410 E26.37808
G1 X-12.357 Y43.268 E26.39676
G1 X-12.647 Y43.179 E26.40574
G1 X-13.462 Y42.838 E26.43198
G1 X-14.215 Y42.367 E26.45836
G1 X-14.706 Y41.942 E26.47764
G1 X-41.942 Y14.706 E27.62129
G1 X-42.365 Y14.217 E27.64047
G1 X-42.839 Y13.461 E27.66696
G1 X-43.179 Y12.646 E27.69319
G1 X-43.269 Y12.357 E27.70217
G1 X-43.438 Y11.563 E27.72627
G1 X-43.497 Y11.011 E27.74278
G1 X-43.521 Y10.346 E27.76251
G1 X-43.521 Y-10.346 E28.37690
G1 X-43.497 Y-11.011 E28.39664
G1 X-43.410 Y-11.744 E28.41858
G1 X-43.269 Y-12.357 E28.43725
G1 X-43.179 Y-12.646 E28.44623
G1 X-42.839 Y-13.461 E28.47246
G1 X-42.365 Y-14.217 E28.49895
G1 X-41.942 Y-14.706 E28.51813
G1 X-14.706 Y-41.942 E29.66178
G1 X-14.217 Y-42.365 E29.68097
G1 X-13.461 Y-42.839 E29.70746
G1 X-12.646 Y-43.179 E29.73369
G1 X-12.357 Y-43.269 E29.74267
G1 X-11.563 Y-43.438 E29.76677
G1 X-11.011 Y-43.497 E29.78327
G1 X-10.346 Y-43.521 E29.80301
G1 X10.346 Y-43.521 E30.41741
G1 X11.011 Y-43.497 E30.43714
G1 X11.744 Y-43.410 E30.45908
G1 X12.357 Y-43.269 E30.47775
G1 X12.646 Y-43.179 E30.48673
G1 X13.461 Y-42.839 E30.51296
G1 X14.217 Y-42.365 E30.53945
G1 X14.706 Y-41.942 E30.55863
G1 X41.942 Y-14.706 E31.70228
G1 X42.367 Y-14.215 E31.72156
G1 X42.838 Y-13.462 E31.74794
G1 X43.179 Y-12.647 E31.77418
G1 X43.268 Y-12.357 E31.78316
G1 X43.438 Y-11.563 E31.80727
G1 X43.497 Y-11.015 E31.82365
G1 X43.521 Y-10.345 E31.84356
G1 X43.521 Y10.345 E32.45785
G1 X43.497 Y11.015 E32.47776
G1 X43.410 Y11.744 E32.49958
G1 X43.268 Y12.357 E32.51825
G1 X43.179 Y12.646 E32.52723
G1 X42.838 Y13.462 E32.55348
G1 X42.367 Y14.215 E32.57986
G1 X41.942 Y14.706 E32.59913
G1 X14.743 Y41.905 E33.74122
G1 E33.04122 F600.00000
G92 E0
G1 Z0.400 F4200.000
G1 X-9.840 Y2.352 F4200.000
G1 Z0.200 F4200.000
G1 E0.70000 F600.00000
G1 X-8.848 Y1.569 E0.73752 F600.000
G1 X-8.470 Y1.421 E0.74957
G1 X-7.902 Y1.149 E0.76828
G1 X-6.907 Y0.870 E0.79896
G1 X-5.890 Y0.707 E0.82954
G1 X-4.858 Y0.655 E0.86022
G1 X-4.408 Y0.710 E0.87370
G1 X-3.823 Y0.743 E0.89109
G1 X-3.199 Y0.942 E0.91052
G1 X-2.787 Y1.029 E0.92304
G1 X-1.752 Y1.705 E0.95975
G1 X-1.609 Y1.849 E0.96576
G1 X-0.945 Y2.944 E1.00380
G1 X-0.829 Y3.367 E1.01681
G1 X-0.592 Y4.025 E1.03757
G1 X-0.386 Y5.127 E1.07085
G1 X-0.293 Y6.217 E1.10336
G1 X-0.300 Y7.300 E1.13549
G1 X-0.425 Y8.375 E1.16764
G1 X-0.614 Y9.010 E1.18731
G1 X-0.708 Y9.422 E1.19986
G1 X-1.367 Y10.555 E1.23878
G1 X-2.471 Y11.238 E1.27732
G1 X-2.864 Y11.328 E1.28930
G1 X-3.474 Y11.517 E1.30826
G1 X-4.495 Y11.624 E1.33874
G1 X-5.513 Y11.599 E1.36897
G1 X-6.536 Y11.461 E1.39961
G1 X-7.571 Y11.195 E1.43135
G1 X-8.204 Y10.915 E1.45189
G1 X-8.597 Y10.770 E1.46433
G1 X-9.723 Y9.984 E1.50509
G1 X-10.466 Y8.895 E1.54423
G1 X-10.582 Y8.522 E1.55583
G1 X-10.813 Y7.935 E1.57458
G1 X-10.985 Y6.983 E1.60329
G1 X-11.025 Y6.059 E1.63076
G1 X-10.959 Y5.148 E1.65786
G1 X-10.780 Y4.233 E1.68556
G1 X-10.566 Y3.685 E1.70302
G1 X-10.467 Y3.336 E1.71379
G1 X-9.869 Y2.396 E1.74687
G1 X-9.572 Y2.595 F4200.000
G1 X-8.669 Y1.883 E1.78102 F600.000
G1 X-8.328 Y1.749 E1.79188
G1 X-7.776 Y1.485 E1.81006
G1 X-6.830 Y1.219 E1.83922
G1 X-5.856 Y1.063 E1.86852
G1 X-4.869 Y1.014 E1.89785
G1 X-4.439 Y1.066 E1.91071
G1 X-3.888 Y1.097 E1.92710
G1 X-3.291 Y1.288 E1.94572
G1 X-2.926 Y1.364 E1.95679
G1 X-1.979 Y1.983 E1.99038
G1 X-1.893 Y2.070 E1.99401
G1 X-1.276 Y3.087 E2.02932
G1 X-1.170 Y3.475 E2.04126
G1 X-0.938 Y4.119 E2.06158
G1 X-0.740 Y5.175 E2.09348
G1 X-0.650 Y6.231 E2.12497
G1 X-0.657 Y7.278 E2.15604
G1 X-0.776 Y8.303 E2.18670
G1 X-0.959 Y8.920 E2.20579
G1 X-1.044 Y9.290 E2.21706
G1 X-1.631 Y10.298 E2.25170
G1 X-2.609 Y10.903 E2.28585
G1 X-2.957 Y10.983 E2.29646
G1 X-3.546 Y11.166 E2.31478
G1 X-4.510 Y11.266 E2.34353
G1 X-5.485 Y11.243 E2.37250
G1 X-6.467 Y11.110 E2.40193
G1 X-7.454 Y10.856 E2.43217
G1 X-8.070 Y10.584 E2.45217
G1 X-8.430 Y10.451 E2.46358
G1 X-9.465 Y9.729 E2.50104
G1 X-10.141 Y8.738 E2.53665
G1 X-10.245 Y8.404 E2.54704
G1 X-10.468 Y7.837 E2.56513
G1 X-10.629 Y6.943 E2.59209
G1 X-10.667 Y6.064 E2.61822
G1 X-10.604 Y5.195 E2.64408
G1 X-10.436 Y4.332 E2.67018
G1 X-10.228 Y3.799 E2.68719
G1 X-10.138 Y3.484 E2.69691
G1 X-9.600 Y2.639 E2.72665
G1 X-9.660 Y2.256 F4200.000
G1 E2.02665 F600.00000
G92 E0
G1 Z0.400 F4200.000
G1 X-4.368 Y0.269 F4200.000
G1 X-0.864 Y0.088 F4200.000
G1 X0.027 Y0.454 F4200.000
G1 X0.026 Y0.975 F4200.000
G1 X0.024 Y1.204 F4200.000
G1 X0.016 Y2.404 F4200.000
G1 X0.572 Y2.756 F4200.000
G1 X0.614 Y4.022 F4200.000
G1 Z0.200 F4200.000
G1 E0.70000 F600.00000
G1 X0.858 Y3.364 E0.72084 F600.000
G1 X0.980 Y2.941 E0.73390
G1 X1.716 Y1.767 E0.77504
G1 X2.847 Y1.039 E0.81500
G1 X3.259 Y0.953 E0.82747
G1 X3.884 Y0.755 E0.84694
G1 X4.465 Y0.722 E0.86422
G1 X4.912 Y0.668 E0.87759
G1 X5.944 Y0.719 E0.90828
G1 X6.947 Y0.879 E0.93845
G1 X7.932 Y1.157 E0.96883
G1 X8.495 Y1.428 E0.98737
G1 X8.869 Y1.575 E0.99931
G1 X9.851 Y2.356 E1.03655
G1 X10.472 Y3.338 E1.07106
G1 X10.570 Y3.687 E1.08181
G1 X10.783 Y4.234 E1.09924
G1 X10.960 Y5.149 E1.12691
G1 X11.025 Y6.059 E1.15401
G1 X10.985 Y6.983 E1.18147
G1 X10.813 Y7.935 E1.21018
G1 X10.582 Y8.522 E1.22893
G1 X10.466 Y8.895 E1.24052
G1 X9.723 Y9.984 E1.27966
G1 X8.597 Y10.770 E1.32042
G1 X8.204 Y10.915 E1.33287
G1 X7.571 Y11.195 E1.35341
G1 X6.536 Y11.461 E1.38514
G1 X5.513 Y11.599 E1.41579
G1 X4.495 Y11.624 E1.44602
G1 X3.474 Y11.517 E1.47649
G1 X2.864 Y11.328 E1.49546
G1 X2.471 Y11.238 E1.50744
G1 X1.367 Y10.555 E1.54598
G1 X0.707 Y9.422 E1.58490
G1 X0.614 Y9.010 E1.59745
G1 X0.425 Y8.375 E1.61712
G1 X0.303 Y7.298 E1.64929
G1 X0.299 Y6.215 E1.68145
G1 X0.398 Y5.124 E1.71398
G1 X0.604 Y4.073 E1.74577
G1 X0.959 Y4.119 F4200.000
G1 X1.198 Y3.476 E1.76614 F600.000
G1 X1.309 Y3.088 E1.77811
G1 X1.976 Y2.024 E1.81540
G1 X2.985 Y1.375 E1.85103
G1 X3.349 Y1.299 E1.86208
G1 X3.949 Y1.109 E1.88074
G1 X4.496 Y1.078 E1.89704
G1 X4.925 Y1.026 E1.90984
G1 X5.907 Y1.074 E1.93904
G1 X6.870 Y1.229 E1.96801
G1 X7.806 Y1.492 E1.99686
G1 X8.352 Y1.755 E2.01486
G1 X8.689 Y1.888 E2.02561
G1 X9.581 Y2.598 E2.05947
G1 X10.142 Y3.485 E2.09065
G1 X10.231 Y3.800 E2.10036
G1 X10.438 Y4.333 E2.11734
G1 X10.605 Y5.196 E2.14343
G1 X10.668 Y6.064 E2.16928
G1 X10.629 Y6.943 E2.19541
G1 X10.468 Y7.837 E2.22236
G1 X10.245 Y8.404 E2.24045
G1 X10.141 Y8.738 E2.25085
G1 X9.465 Y9.729 E2.28646
G1 X8.430 Y10.451 E2.32392
G1 X8.069 Y10.584 E2.33533
G1 X7.453 Y10.856 E2.35533
G1 X6.467 Y11.110 E2.38556
G1 X5.485 Y11.243 E2.41500
G1 X4.509 Y11.266 E2.44396
G1 X3.546 Y11.166 E2.47272
G1 X2.957 Y10.983 E2.49103
G1 X2.609 Y10.903 E2.50165
G1 X1.631 Y10.298 E2.53579
G1 X1.043 Y9.290 E2.57044
G1 X0.959 Y8.920 E2.58171
G1 X0.777 Y8.303 E2.60080
G1 X0.660 Y7.278 E2.63145
G1 X0.656 Y6.231 E2.66253
G1 X0.752 Y5.175 E2.69402
G1 X0.949 Y4.171 E2.72440
G1 X0.721 Y3.862 F4200.000
G1 X1.874 Y-1.635 F4200.000
G1 X1.237 Y-1.741 E2.74358 F1200.000
G1 X0.685 Y-1.806 E2.76007
G1 X0.178 Y-1.832 E2.77515
G1 X-0.332 Y-1.819 E2.79029
G1 X-0.891 Y-1.767 E2.80695
G1 X-1.538 Y-1.674 E2.82638
G1 X-5.501 Y-0.937 E2.94605
G1 X-6.710 Y-0.746 E2.98239
G1 X-7.931 Y-0.595 E3.01891
G1 X-9.134 Y-0.517 E3.05473
G1 X-10.312 Y-0.562 E3.08971
G1 X-11.609 Y-0.934 E3.12978
G1 X-12.076 Y-1.932 E3.16250
G1 X-11.949 Y-2.815 E3.18901
G1 X-11.599 Y-3.599 E3.21449
G1 X-11.102 Y-4.372 E3.24179
G1 X-10.502 Y-5.140 E3.27070
G1 X-10.173 Y-5.484 E3.28484
G1 X-9.810 Y-5.916 E3.30161
G1 X-9.270 Y-6.425 E3.32362
G1 X-8.999 Y-6.723 E3.33559
G1 X-7.948 Y-7.616 E3.37656
G1 X-7.700 Y-7.795 E3.38563
G1 X-6.895 Y-8.455 E3.41653
G1 X-6.582 Y-8.638 E3.42731
G1 X-6.055 Y-9.002 E3.44630
G1 X-5.614 Y-9.237 E3.46114
G1 X-5.294 Y-9.433 E3.47229
G1 X-4.392 Y-9.883 E3.50222
G1 X-3.742 Y-10.160 E3.52321
G1 X-3.228 Y-10.352 E3.53949
G1 X-2.490 Y-10.586 E3.56247
G1 X-1.994 Y-10.713 E3.57768
G1 X-1.405 Y-10.827 E3.59549
G1 X-0.828 Y-10.899 E3.61275
G1 X-0.367 Y-10.923 E3.62647
G1 X0.288 Y-10.920 E3.64592
G1 X0.841 Y-10.873 E3.66239
G1 X1.387 Y-10.792 E3.67878
G1 X1.933 Y-10.679 E3.69533
G1 X2.486 Y-10.536 E3.71229
G1 X3.498 Y-10.211 E3.74384
G1 X4.084 Y-9.984 E3.76251
G1 X4.683 Y-9.724 E3.78191
G1 X5.517 Y-9.303 E3.80963
G1 X5.813 Y-9.120 E3.81998
G1 X6.225 Y-8.900 E3.83384
G1 X6.719 Y-8.556 E3.85171
G1 X7.015 Y-8.382 E3.86190
G1 X7.782 Y-7.745 E3.89150
G1 X8.017 Y-7.574 E3.90014
G1 X9.040 Y-6.698 E3.94013
G1 X9.306 Y-6.402 E3.95194
G1 X9.835 Y-5.901 E3.97357
G1 X10.193 Y-5.472 E3.99018
G1 X10.517 Y-5.131 E4.00414
G1 X11.116 Y-4.362 E4.03308
G1 X11.608 Y-3.601 E4.05998
G1 X11.963 Y-2.817 E4.08554
G1 X12.104 Y-1.938 E4.11195
G1 X11.669 Y-0.930 E4.14456
G1 X10.402 Y-0.543 E4.18390
G1 X9.257 Y-0.488 E4.21795
G1 X8.087 Y-0.558 E4.25273
G1 X6.902 Y-0.703 E4.28818
G1 X5.727 Y-0.889 E4.32350
G1 X1.926 Y-1.625 E4.43848
G1 X1.937 Y-1.987 F4200.000
G1 X1.287 Y-2.094 E4.45805 F900.000
G1 X0.715 Y-2.162 E4.47514
G1 X0.182 Y-2.189 E4.49097
G1 X-0.353 Y-2.176 E4.50688
G1 X-0.933 Y-2.122 E4.52417
