; generated by Slic3r 1.2.0 on 2014-08-05 at 19:49:46

; external perimeters extrusion width = 0.35mm
; perimeters extrusion width = 0.59mm
; infill extrusion width = 0.67mm
; solid infill extrusion width = 0.59mm
; top infill extrusion width = 0.59mm
; support material extrusion width = 0.35mm

G21 ; set units to millimeters
M107
G28
G92 X0 Y0 Z0 E0
G1 F5000 Y30 X30
G1 X220
G1 F100 E10

G28
G92 X0 Y0 Z0
G1 F4000 X101 Y127
G92 X0 Y0 Z0 E0
G90 ; use absolute coordinates
G92 E0
M82 ; use absolute distances for extrusion
G1 F600.000 E-0.70000
G1 Z0.400 F5400.000
G92 E0
G1 X0.000 Y24.714 F5400.000
G1 Z0.200 F5400.000
G1 E0.70000 F600.000
G1 X-20.000 Y24.714 E1.26413 F1800.000
G1 X-21.295 Y24.533 E1.30102
G1 X-27.295 Y22.818 E1.47703
G1 X-29.004 Y21.919 E1.53152
G1 X-30.209 Y20.409 E1.58601
G1 X-30.714 Y18.286 E1.64756
G1 X-30.714 Y-14.286 E2.56629
G1 X-30.318 Y-16.176 E2.62078
G1 X-29.251 Y-17.699 E2.67323
G1 X-23.251 Y-23.414 E2.90695
G1 X-21.609 Y-24.431 E2.96143
G1 X-20.000 Y-24.714 E3.00752
G1 X20.000 Y-24.714 E4.13579
G1 X21.891 Y-24.318 E4.19027
G1 X23.251 Y-23.414 E4.23636 F1800.000
G1 X29.251 Y-17.699 E4.47007
G1 X30.347 Y-16.109 E4.52456
G1 X30.714 Y-14.286 E4.57701
G1 X30.714 Y18.286 E5.49575
G1 X30.318 Y20.176 E5.55023
G1 X29.198 Y21.750 E5.60472
G1 X27.295 Y22.818 E5.66627
G1 X21.295 Y24.533 E5.84228
G1 X20.000 Y24.714 E5.87917
G1 X0.053 Y24.714 E6.44182
G1 X0.053 Y24.357 F5400.000
G1 X-20.000 Y24.357 E7.00744 F1800.000
G1 X-21.197 Y24.189 E7.04153
G1 X-27.197 Y22.475 E7.21754
G1 X-28.832 Y21.597 E7.26990
G1 X-29.953 Y20.117 E7.32226
G1 X-30.357 Y18.286 E7.37516
G1 X-30.357 Y-14.286 E8.29390
G1 X-29.962 Y-16.099 E8.34626
G1 X-29.005 Y-17.441 E8.39273
G1 X-23.005 Y-23.155 E8.62645
G1 X-21.419 Y-24.120 E8.67881
G1 X-20.000 Y-24.357 E8.71938
G1 X20.000 Y-24.357 E9.84765
G1 X21.814 Y-23.962 E9.90001
G1 X23.005 Y-23.155 E9.94059 F1800.000
G1 X29.005 Y-17.441 E10.17430
G1 X30.046 Y-15.904 E10.22666
G1 X30.357 Y-14.286 E10.27314
G1 X30.357 Y18.286 E11.19187
G1 X29.962 Y20.099 E11.24423
G1 X28.847 Y21.584 E11.29659
G1 X27.197 Y22.475 E11.34949
G1 X21.197 Y24.189 E11.52551
G1 X20.000 Y24.357 E11.55960
G1 X0.105 Y24.357 E12.12077
G1 F600.000 E11.42077
G1 Z0.400 F5400.000
G92 E0
G1 X0.105 Y18.557 F5400.000
G1 Z0.200 F5400.000
G1 E0.70000 F600.000
G1 X-14.957 Y18.557 E1.12485 F900.000
G1 X-14.900 Y18.488 E1.12738
G1 X-15.018 Y18.312 E1.13335
G1 X-15.454 Y18.444 E1.14621
G1 X-15.905 Y18.488 E1.15899
G1 X-16.355 Y18.444 E1.17175
G1 X-16.731 Y18.330 E1.18283
G1 X-17.188 Y18.099 E1.19727
G1 X-17.538 Y17.812 E1.21004
G1 X-17.825 Y17.462 E1.22281
G1 X-18.039 Y17.062 E1.23559
G1 X-18.170 Y16.629 E1.24836
G1 X-18.214 Y16.179 E1.26113
G1 X-18.176 Y15.788 E1.27221
G1 X-18.039 Y15.295 E1.28664
G1 X-17.825 Y14.895 E1.29942
G1 X-17.538 Y14.545 E1.31219
G1 X-17.188 Y14.258 E1.32496
G1 X-16.789 Y14.045 E1.33773
G1 X-16.355 Y13.913 E1.35050
G1 X-15.905 Y13.869 E1.36328
G1 X-15.376 Y13.921 E1.37827
G1 X-15.325 Y13.667 E1.38557
G1 X-15.524 Y13.607 E1.39143
G1 X-16.000 Y13.560 E1.40492
G1 X-16.476 Y13.607 E1.41841
G1 X-16.934 Y13.746 E1.43191
G1 X-17.356 Y13.971 E1.44540
G1 X-18.557 Y14.957 E1.48924
G1 X-18.557 Y-14.957 E2.33301
G1 X-17.356 Y-13.971 E2.37685
G1 X-16.934 Y-13.746 E2.39034
G1 X-16.476 Y-13.607 E2.40384
G1 X-16.000 Y-13.560 E2.41733
G1 X-15.524 Y-13.607 E2.43082
G1 X-15.325 Y-13.667 E2.43668
G1 X-15.376 Y-13.921 E2.44398
G1 X-15.905 Y-13.869 E2.45898
G1 X-16.355 Y-13.913 E2.47175
G1 X-16.789 Y-14.045 E2.48452
G1 X-17.188 Y-14.258 E2.49729
G1 X-17.538 Y-14.545 E2.51007
G1 X-17.825 Y-14.895 E2.52284
G1 X-18.039 Y-15.295 E2.53561
G1 X-18.170 Y-15.728 E2.54838
G1 X-18.214 Y-16.179 E2.56115
G1 X-18.170 Y-16.629 E2.57392
G1 X-18.039 Y-17.062 E2.58670
G1 X-17.825 Y-17.462 E2.59947
G1 X-17.538 Y-17.812 E2.61224
G1 X-17.188 Y-18.099 E2.62501
G1 X-16.789 Y-18.313 E2.63778
G1 X-16.355 Y-18.444 E2.65055
G1 X-15.905 Y-18.488 E2.66332
G1 X-15.454 Y-18.444 E2.67610
G1 X-15.018 Y-18.312 E2.68896
G1 X-14.900 Y-18.488 E2.69493
G1 X-14.957 Y-18.557 E2.69746
G1 X14.957 Y-18.557 E3.54124
G1 X14.900 Y-18.488 E3.54376
G1 X15.018 Y-18.312 E3.54974 F900.000
G1 X15.454 Y-18.444 E3.56260
G1 X15.905 Y-18.488 E3.57537
G1 X16.355 Y-18.444 E3.58814
G1 X16.789 Y-18.313 E3.60091
G1 X17.188 Y-18.099 E3.61369
G1 X17.538 Y-17.812 E3.62646
G1 X17.825 Y-17.462 E3.63923
G1 X18.039 Y-17.062 E3.65200
G1 X18.170 Y-16.629 E3.66477
G1 X18.214 Y-16.179 E3.67754
G1 X18.170 Y-15.728 E3.69032
G1 X18.039 Y-15.295 E3.70309
G1 X17.825 Y-14.895 E3.71586
G1 X17.538 Y-14.545 E3.72863
G1 X17.188 Y-14.258 E3.74141
G1 X16.789 Y-14.045 E3.75418
G1 X16.355 Y-13.913 E3.76695
G1 X15.905 Y-13.869 E3.77972
G1 X15.376 Y-13.921 E3.79471
G1 X15.325 Y-13.667 E3.80202
G1 X15.524 Y-13.607 E3.80787
G1 X16.000 Y-13.560 E3.82137
G1 X16.476 Y-13.607 E3.83486
G1 X16.934 Y-13.746 E3.84835
G1 X17.356 Y-13.971 E3.86185
G1 X18.557 Y-14.957 E3.90568
G1 X18.557 Y14.957 E4.74946
G1 X17.356 Y13.971 E4.79329
G1 X16.934 Y13.746 E4.80679
G1 X16.476 Y13.607 E4.82028
G1 X16.000 Y13.560 E4.83377
G1 X15.524 Y13.607 E4.84727
G1 X15.325 Y13.667 E4.85313
G1 X15.376 Y13.921 E4.86043
G1 X15.905 Y13.869 E4.87543
G1 X16.355 Y13.913 E4.88819
G1 X16.789 Y14.045 E4.90097
G1 X17.188 Y14.258 E4.91374
G1 X17.538 Y14.545 E4.92651
G1 X17.825 Y14.895 E4.93928
G1 X18.039 Y15.295 E4.95205
G1 X18.170 Y15.728 E4.96483
G1 X18.214 Y16.179 E4.97760
G1 X18.170 Y16.629 E4.99037
G1 X18.039 Y17.062 E5.00314
G1 X17.825 Y17.462 E5.01591
G1 X17.538 Y17.812 E5.02868
G1 X17.188 Y18.099 E5.04146
G1 X16.789 Y18.313 E5.05423
G1 X16.413 Y18.427 E5.06530
G1 X15.905 Y18.488 E5.07975
G1 X15.454 Y18.444 E5.09251
G1 X15.018 Y18.312 E5.10537
G1 X14.900 Y18.488 E5.11135
G1 X14.957 Y18.557 E5.11388
G1 X0.157 Y18.557 E5.53132
G1 F600.000 E4.83132
G1 Z0.400 F5400.000
G92 E0
G1 X13.991 Y16.559 F5400.000
G1 Z0.200 F5400.000
G1 E0.70000 F600.000
G1 X13.954 Y16.179 E0.71079 F720.000
G1 X13.991 Y15.798 E0.72157
G1 X14.102 Y15.432 E0.73236
G1 X14.282 Y15.095 E0.74315
G1 X14.525 Y14.799 E0.75394
G1 X14.821 Y14.556 E0.76473
G1 X15.158 Y14.376 E0.77551
G1 X15.524 Y14.265 E0.78630
G1 X15.880 Y14.230 E0.79639
G1 X16.285 Y14.265 E0.80786 F720.000
G1 X16.651 Y14.376 E0.81865
G1 X16.989 Y14.556 E0.82944
G1 X17.284 Y14.799 E0.84023
G1 X17.527 Y15.095 E0.85102
G1 X17.707 Y15.432 E0.86180
G1 X17.811 Y15.774 E0.87189
G1 X17.856 Y16.179 E0.88337
G1 X17.818 Y16.559 E0.89416
G1 X17.707 Y16.925 E0.90494
G1 X17.527 Y17.262 E0.91573
G1 X17.284 Y17.558 E0.92652
G1 X17.008 Y17.785 E0.93660
G1 X16.651 Y17.981 E0.94808
G1 X16.285 Y18.092 E0.95887
G1 X15.905 Y18.130 E0.96966
G1 X15.524 Y18.092 E0.98044
G1 X15.158 Y17.981 E0.99123
G1 X14.821 Y17.801 E1.00202
G1 X14.525 Y17.558 E1.01281
G1 X14.282 Y17.262 E1.02360
G1 X14.102 Y16.925 E1.03438
G1 X14.006 Y16.609 E1.04369
G1 F600.000 E0.34369
G1 Z0.400 F5400.000
G92 E0
G1 X16.130 Y14.475 F5400.000
G1 X-13.954 Y16.179 F5400.000
G1 Z0.200 F5400.000
G1 E0.70000 F600.000
G1 X-13.991 Y16.559 E0.71079 F720.000
G1 X-14.102 Y16.925 E0.72158
G1 X-14.282 Y17.262 E0.73236
G1 X-14.525 Y17.558 E0.74315
G1 X-14.821 Y17.801 E0.75394
G1 X-15.158 Y17.981 E0.76473
G1 X-15.524 Y18.092 E0.77551
G1 X-15.905 Y18.130 E0.78630
G1 X-16.285 Y18.092 E0.79709
G1 X-16.651 Y17.981 E0.80788
G1 X-16.989 Y17.801 E0.81867
G1 X-17.284 Y17.558 E0.82945
G1 X-17.527 Y17.262 E0.84024
G1 X-17.695 Y16.947 E0.85033
G1 X-17.818 Y16.559 E0.86181
G1 X-17.856 Y16.179 E0.87259
G1 X-17.821 Y15.823 E0.88268
G1 X-17.707 Y15.432 E0.89416
G1 X-17.527 Y15.095 E0.90494
G1 X-17.284 Y14.799 E0.91573
G1 X-16.989 Y14.556 E0.92652
G1 X-16.651 Y14.376 E0.93731
G1 X-16.285 Y14.265 E0.94809
G1 X-15.930 Y14.230 E0.95818
G1 X-15.524 Y14.265 E0.96966 F720.000
G1 X-15.158 Y14.376 E0.98045
G1 X-14.821 Y14.556 E0.99123
G1 X-14.525 Y14.799 E1.00202
G1 X-14.282 Y15.095 E1.01281
G1 X-14.102 Y15.432 E1.02360
G1 X-13.991 Y15.798 E1.03439
G1 X-13.959 Y16.126 E1.04369
G1 F600.000 E0.34369
G1 Z0.400 F5400.000
G92 E0
G1 X-15.594 Y14.328 F5400.000
G1 X-15.905 Y-14.228 F5400.000
G1 Z0.200 F5400.000
G1 E0.70000 F600.000
G1 X-16.285 Y-14.265 E0.71079 F720.000
G1 X-16.651 Y-14.376 E0.72158
G1 X-16.989 Y-14.556 E0.73236
G1 X-17.284 Y-14.799 E0.74315
G1 X-17.527 Y-15.095 E0.75394
G1 X-17.707 Y-15.432 E0.76473
G1 X-17.818 Y-15.798 E0.77552
G1 X-17.856 Y-16.179 E0.78630
G1 X-17.818 Y-16.559 E0.79709
G1 X-17.707 Y-16.925 E0.80788
G1 X-17.527 Y-17.262 E0.81867
G1 X-17.284 Y-17.558 E0.82945
G1 X-16.989 Y-17.801 E0.84024
G1 X-16.651 Y-17.981 E0.85103
G1 X-16.260 Y-18.094 E0.86251
G1 X-15.905 Y-18.130 E0.87259 F720.000
G1 X-15.524 Y-18.092 E0.88338
G1 X-15.158 Y-17.981 E0.89417
G1 X-14.821 Y-17.801 E0.90496
G1 X-14.525 Y-17.558 E0.91574
G1 X-14.282 Y-17.262 E0.92653
G1 X-14.102 Y-16.925 E0.93732
G1 X-13.991 Y-16.559 E0.94811
G1 X-13.954 Y-16.179 E0.95890
G1 X-13.991 Y-15.798 E0.96968
G1 X-14.102 Y-15.432 E0.98047
G1 X-14.282 Y-15.095 E0.99126
G1 X-14.525 Y-14.799 E1.00205
G1 X-14.821 Y-14.556 E1.01284
G1 X-15.158 Y-14.376 E1.02362
G1 X-15.524 Y-14.265 E1.03441
G1 X-15.852 Y-14.233 E1.04372
G1 F600.000 E0.34372
G1 Z0.400 F5400.000
G92 E0
G1 X-15.937 Y-17.960 F5400.000
G1 X13.954 Y-16.179 F5400.000
G1 Z0.200 F5400.000
G1 E0.70000 F600.000
G1 X13.991 Y-16.559 E0.71079 F720.000
G1 X14.102 Y-16.925 E0.72158
G1 X14.282 Y-17.262 E0.73236
G1 X14.525 Y-17.558 E0.74315
G1 X14.821 Y-17.801 E0.75394
G1 X15.158 Y-17.981 E0.76473
G1 X15.524 Y-18.092 E0.77551
G1 X15.742 Y-18.114 E0.78170
G1 X15.905 Y-18.130 E0.78630 F720.000
G1 X16.285 Y-18.092 E0.79709
G1 X16.651 Y-17.981 E0.80788
G1 X16.989 Y-17.801 E0.81867
G1 X17.284 Y-17.558 E0.82945
G1 X17.527 Y-17.262 E0.84024
G1 X17.707 Y-16.925 E0.85103
G1 X17.818 Y-16.559 E0.86182
G1 X17.856 Y-16.179 E0.87261
G1 X17.818 Y-15.798 E0.88339
G1 X17.707 Y-15.432 E0.89418
G1 X17.527 Y-15.095 E0.90497
G1 X17.284 Y-14.799 E0.91576
G1 X16.989 Y-14.556 E0.92655
G1 X16.651 Y-14.376 E0.93733
G1 X16.285 Y-14.265 E0.94812
G1 X15.905 Y-14.228 E0.95891
G1 X15.524 Y-14.265 E0.96970
G1 X15.158 Y-14.376 E0.98048
G1 X14.821 Y-14.556 E0.99127
G1 X14.525 Y-14.799 E1.00206
G1 X14.282 Y-15.095 E1.01285
G1 X14.102 Y-15.432 E1.02364
G1 X13.991 Y-15.798 E1.03442
G1 X13.959 Y-16.126 E1.04373
G1 F600.000 E0.34373
G1 Z0.400 F5400.000
G92 E0
G1 X15.870 Y-18.012 F5400.000
G1 X14.202 Y-18.200 F5400.000
G1 Z0.200 F5400.000
G1 E0.70000 F600.000
G1 X13.673 Y-17.555 E0.72353 F720.000
G1 X13.414 Y-17.071 E0.73901
G1 X13.255 Y-16.546 E0.75449
G1 X13.201 Y-16.000 E0.76997
G1 X13.255 Y-15.454 E0.78544
G1 X13.414 Y-14.929 E0.80092
G1 X13.673 Y-14.445 E0.81640
G1 X14.021 Y-14.021 E0.83187
G1 X14.445 Y-13.673 E0.84735
G1 X14.929 Y-13.414 E0.86283
G1 X15.454 Y-13.255 E0.87831
G1 X16.000 Y-13.201 E0.89378
G1 X16.546 Y-13.255 E0.90926
G1 X17.071 Y-13.414 E0.92474
G1 X17.555 Y-13.673 E0.94021
G1 X18.200 Y-14.202 E0.96375
G1 X18.200 Y14.202 E1.76493
G1 X17.555 Y13.673 E1.78846
G1 X17.071 Y13.414 E1.80394
G1 X16.546 Y13.255 E1.81942
G1 X16.000 Y13.201 E1.83490
G1 X15.454 Y13.255 E1.85037
G1 X14.929 Y13.414 E1.86585
G1 X14.445 Y13.673 E1.88133
G1 X14.021 Y14.021 E1.89680
G1 X13.673 Y14.445 E1.91228
G1 X13.414 Y14.929 E1.92776
G1 X13.255 Y15.454 E1.94324
G1 X13.201 Y16.000 E1.95871
G1 X13.255 Y16.546 E1.97419
G1 X13.414 Y17.071 E1.98967
G1 X13.673 Y17.555 E2.00514
G1 X14.202 Y18.200 E2.02868
G1 X-13.355 Y18.200 E2.80598
G1 X-14.202 Y18.200 E2.82986
G1 X-13.673 Y17.555 E2.85339
G1 X-13.414 Y17.071 E2.86887
G1 X-13.255 Y16.546 E2.88435
G1 X-13.201 Y16.000 E2.89983
G1 X-13.255 Y15.454 E2.91530
G1 X-13.414 Y14.929 E2.93078
G1 X-13.673 Y14.445 E2.94626
G1 X-14.021 Y14.021 E2.96173
G1 X-14.445 Y13.673 E2.97721
G1 X-14.929 Y13.414 E2.99269
G1 X-15.454 Y13.255 E3.00817
G1 X-16.000 Y13.201 E3.02364
G1 X-16.546 Y13.255 E3.03912
G1 X-17.071 Y13.414 E3.05460
G1 X-17.555 Y13.673 E3.07008
G1 X-18.200 Y14.202 E3.09361
G1 X-18.200 Y-14.202 E3.89479
G1 X-17.555 Y-13.673 E3.91832
G1 X-17.071 Y-13.414 E3.93380
G1 X-16.546 Y-13.255 E3.94928
G1 X-16.000 Y-13.201 E3.96476
G1 X-15.454 Y-13.255 E3.98023
G1 X-14.929 Y-13.414 E3.99571
G1 X-14.445 Y-13.673 E4.01119
G1 X-14.021 Y-14.021 E4.02667
G1 X-13.673 Y-14.445 E4.04214
G1 X-13.414 Y-14.929 E4.05762
G1 X-13.255 Y-15.454 E4.07310
G1 X-13.201 Y-16.000 E4.08857
G1 X-13.255 Y-16.546 E4.10405
G1 X-13.414 Y-17.071 E4.11953
G1 X-13.673 Y-17.555 E4.13501
G1 X-14.202 Y-18.200 E4.15854
G1 X13.359 Y-18.200 E4.93594
G1 X14.149 Y-18.200 E4.95824 F720.000
G1 X13.359 Y-18.550 F5400.000
G1 F600.000 E4.25824
G1 Z0.400 F5400.000
G92 E0
G1 X-17.673 Y18.625 F5400.000
G1 Z0.200 F5400.000
G1 E0.70000 F600.000
G1 X-17.546 Y18.729 E0.70462 F900.000
G1 X-18.729 Y18.729 E0.73797
G1 X-18.729 Y17.745 E0.76572
G1 X-18.513 Y17.691 E0.77201 F900.000
G1 X-18.422 Y17.860 E0.77743
G1 X-18.045 Y18.319 E0.79417
G1 X-17.714 Y18.592 E0.80628
G1 X-17.487 Y18.316 F5400.000
G1 X-17.387 Y18.397 E0.80992 F900.000
G1 X-16.926 Y18.644 E0.82468
G1 X-16.425 Y18.796 E0.83944
G1 X-16.239 Y18.814 E0.84471
G1 X-16.253 Y19.086 E0.85238
G1 X-19.086 Y19.086 E0.93229
G1 X-19.086 Y15.853 E1.02349
G1 X-18.493 Y15.366 E1.04511
G1 X-18.531 Y15.753 E1.05606
G1 X-18.573 Y16.179 E1.06813 F900.000
G1 X-18.522 Y16.699 E1.08288
G1 X-18.370 Y17.200 E1.09764
G1 X-18.123 Y17.661 E1.11240
G1 X-17.792 Y18.066 E1.12715
G1 X-17.528 Y18.282 E1.13679
G1 F600.000 E0.43679
G1 Z0.400 F5400.000
G92 E0
G1 X-23.872 Y12.657 F5400.000
G1 Z0.200 F5400.000
G1 E0.70000 F600.000
G1 X-24.372 Y12.657 E0.71411 F900.000
G1 X-24.372 Y10.200 E0.78343
G1 X-19.628 Y10.200 E0.91722
G1 X-19.628 Y12.657 E0.98654
G1 X-23.819 Y12.657 E1.10475 F900.000
G1 X-23.819 Y13.014 F5400.000
G1 X-24.729 Y13.014 E1.13041 F900.000
G1 X-24.729 Y9.843 E1.21988
G1 X-19.271 Y9.843 E1.37382 F900.000
G1 X-19.271 Y13.014 E1.46328
G1 X-23.767 Y13.014 E1.59008
G1 X-23.767 Y13.372 F5400.000
G1 X-25.086 Y13.372 E1.62729 F900.000
G1 X-25.086 Y9.486 E1.73691
G1 X-18.914 Y9.486 E1.91099
G1 X-18.914 Y13.372 E2.02060
G1 X-23.714 Y13.372 E2.15599 F900.000
G1 F600.000 E1.45599
G1 Z0.400 F5400.000
G92 E0
G1 X-20.064 Y-12.657 F5400.000
G1 Z0.200 F5400.000
G1 E0.70000 F600.000
G1 X-19.628 Y-12.657 E0.71230 F900.000
G1 X-19.628 Y-10.200 E0.78163
G1 X-24.372 Y-10.200 E0.91542 F900.000
G1 X-24.372 Y-12.657 E0.98474
G1 X-20.117 Y-12.657 E1.10475
G1 X-20.117 Y-13.014 F5400.000
G1 X-19.271 Y-13.014 E1.12861 F900.000
G1 X-19.271 Y-9.843 E1.21808
G1 X-24.729 Y-9.843 E1.37201
G1 X-24.729 Y-13.014 E1.46148
G1 X-20.169 Y-13.014 E1.59008 F900.000
G1 X-20.169 Y-13.372 F5400.000
G1 X-18.914 Y-13.372 E1.62549 F900.000
G1 X-18.914 Y-9.486 E1.73510
G1 X-25.086 Y-9.486 E1.90919 F900.000
G1 X-25.086 Y-13.372 E2.01880
G1 X-20.222 Y-13.372 E2.15599
G1 X-17.998 Y-18.358 F5400.000
G1 X-18.422 Y-17.860 E2.17442 F900.000
G1 X-18.513 Y-17.691 E2.17985
G1 X-18.729 Y-17.745 E2.18614
G1 X-18.729 Y-18.729 E2.21389
G1 X-17.546 Y-18.729 E2.24724 F900.000
G1 X-17.958 Y-18.391 E2.26224
G1 X-17.731 Y-18.115 F5400.000
G1 X-17.792 Y-18.066 E2.26445 F900.000
G1 X-18.124 Y-17.661 E2.27921
G1 X-18.370 Y-17.200 E2.29396
G1 X-18.522 Y-16.699 E2.30872
G1 X-18.573 Y-16.179 E2.32348
G1 X-18.493 Y-15.367 E2.34649
G1 X-19.086 Y-15.853 E2.36811
G1 X-19.086 Y-19.086 E2.45931
G1 X-16.253 Y-19.086 E2.53922
G1 X-16.239 Y-18.814 E2.54690
G1 X-16.425 Y-18.796 E2.55217 F900.000
G1 X-16.926 Y-18.644 E2.56693
G1 X-17.387 Y-18.397 E2.58168
G1 X-17.690 Y-18.149 E2.59275
G1 X17.941 Y-18.405 F5400.000
G1 X17.546 Y-18.729 E2.60713 F900.000
G1 X18.729 Y-18.729 E2.64048 F900.000
G1 X18.729 Y-17.745 E2.66823
G1 X18.513 Y-17.691 E2.67452
G1 X18.422 Y-17.860 E2.67994
G1 X18.045 Y-18.319 E2.69668
G1 X17.981 Y-18.372 E2.69903
G1 X17.755 Y-18.096 F5400.000
G1 X17.387 Y-18.397 E2.71243 F900.000
G1 X16.926 Y-18.644 E2.72719
G1 X16.425 Y-18.796 E2.74194
G1 X16.239 Y-18.814 E2.74722
G1 X16.253 Y-19.086 E2.75489
G1 X19.086 Y-19.086 E2.83480
G1 X19.086 Y-15.853 E2.92600
G1 X18.493 Y-15.367 E2.94762 F900.000
G1 X18.573 Y-16.179 E2.97064
G1 X18.522 Y-16.699 E2.98539
G1 X18.370 Y-17.200 E3.00015
G1 X18.123 Y-17.661 E3.01490
G1 X17.795 Y-18.062 E3.02953
G1 X19.628 Y-11.384 F5400.000
G1 X19.628 Y-12.657 E3.06545 F900.000
G1 X24.372 Y-12.657 E3.19925
G1 X24.372 Y-10.200 E3.26857
