; generated by Slic3r 1.1.3-dev on 2014-06-28 at 12:42:26

; perimeters extrusion width = 0.35mm
; infill extrusion width = 0.57mm
; solid infill extrusion width = 0.57mm
; top infill extrusion width = 0.57mm

G21 ; set units to millimeters
M107
G28
G92 X0 Y0 Z0 E0
G1 F5000 Y30 X30
G1 X220
G1 F100 E10
G28
G92 X0 Y0 Z0
G1 F4000 X101 Y127
G92 X0 Y0 Z0 E0
M106 S255
G90 ; use absolute coordinates
G92 E0
M82 ; use absolute distances for extrusion
G1 F600.000 E-0.70000
G1 Z0.400 F7800.000
G92 E0
G1 X0.000 Y-15.255 F7800.000
G1 Z0.200 F7800.000
G1 E0.70000 F600.000
G1 X72.112 Y-15.255 E3.03412 F1080.000
G1 X74.329 Y-14.858 E3.10701
G1 X76.270 Y-13.717 E3.17990 F1080.000
G1 X77.575 Y-12.180 E3.24516
G1 X87.575 Y4.304 E3.86921
G1 X88.385 Y6.405 E3.94210
G1 X88.501 Y7.618 E3.98154
G1 X88.501 Y9.674 E4.04809
G1 X88.104 Y11.891 E4.12098
G1 X86.963 Y13.832 E4.19387
G1 X85.219 Y15.257 E4.26676
G1 X82.112 Y16.063 E4.37067
G1 X-82.112 Y16.063 E9.68626
G1 X-84.329 Y15.666 E9.75915
G1 X-86.270 Y14.525 E9.83204
G1 X-87.695 Y12.781 E9.90493
G1 X-88.501 Y9.674 E10.00884
G1 X-88.501 Y7.618 E10.07538
G1 X-88.104 Y5.401 E10.14828
G1 X-87.575 Y4.304 E10.18771
G1 X-77.575 Y-12.180 E10.81177
G1 X-76.086 Y-13.869 E10.88466
G1 X-74.103 Y-14.937 E10.95755
G1 X-72.112 Y-15.255 E11.02281
G1 X-0.052 Y-15.255 E13.35522
G1 F600.000 E12.65522
G1 Z0.400 F7800.000
G92 E0
G1 X63.410 Y-2.346 F7800.000
G1 Z0.200 F7800.000
G1 E0.70000 F600.000
G1 X63.491 Y-2.606 E0.70882 F540.000
G1 X63.612 Y-2.832 E0.71712
G1 X63.776 Y-3.035 E0.72555
G1 X63.982 Y-3.204 E0.73418
G1 X64.212 Y-3.330 E0.74269
G1 X64.465 Y-3.406 E0.75122
G1 X64.790 Y-3.425 E0.76176
G1 X64.991 Y-3.406 E0.76831 F540.000
G1 X65.239 Y-3.332 E0.77669
G1 X65.477 Y-3.204 E0.78541
G1 X65.679 Y-3.035 E0.79395
G1 X65.844 Y-2.835 E0.80236
G1 X65.969 Y-2.602 E0.81089
G1 X66.045 Y-2.346 E0.81956
G1 X66.070 Y-2.088 E0.82794
G1 X66.045 Y-1.826 E0.83645
G1 X65.970 Y-1.573 E0.84499
G1 X65.842 Y-1.336 E0.85372
G1 X65.677 Y-1.137 E0.86208
G1 X65.478 Y-0.968 E0.87052
G1 X65.239 Y-0.843 E0.87928
G1 X64.991 Y-0.767 E0.88767
G1 X64.728 Y-0.744 E0.89621
G1 X64.465 Y-0.767 E0.90475
G1 X64.216 Y-0.843 E0.91319
G1 X63.976 Y-0.972 E0.92198
G1 X63.778 Y-1.137 E0.93034
G1 X63.615 Y-1.339 E0.93873
G1 X63.490 Y-1.570 E0.94724
G1 X63.410 Y-1.827 E0.95596
G1 X63.389 Y-2.087 E0.96441
G1 X63.406 Y-2.294 E0.97112
G1 X63.794 Y-2.262 F7800.000
G1 X63.851 Y-2.454 E0.97760 F378.000
G1 X63.938 Y-2.616 E0.98357
G1 X64.055 Y-2.760 E0.98957
G1 X64.200 Y-2.880 E0.99565
G1 X64.363 Y-2.969 E1.00165
G1 X64.542 Y-3.022 E1.00772
G1 X64.704 Y-3.038 E1.01297
G1 X64.914 Y-3.022 E1.01979 F378.000
G1 X65.092 Y-2.969 E1.02580
G1 X65.258 Y-2.880 E1.03192
G1 X65.401 Y-2.760 E1.03794
G1 X65.519 Y-2.617 E1.04396
G1 X65.608 Y-2.452 E1.05001
G1 X65.661 Y-2.271 E1.05612
G1 X65.679 Y-2.087 E1.06210
G1 X65.661 Y-1.901 E1.06817
G1 X65.595 Y-1.697 E1.07509
G1 X65.518 Y-1.556 E1.08030
G1 X65.400 Y-1.413 E1.08629
G1 X65.259 Y-1.292 E1.09232
G1 X65.092 Y-1.205 E1.09842
G1 X64.914 Y-1.150 E1.10445
G1 X64.728 Y-1.135 E1.11048
G1 X64.542 Y-1.150 E1.11651
G1 X64.364 Y-1.205 E1.12256
G1 X64.198 Y-1.294 E1.12864
G1 X64.056 Y-1.413 E1.13466
G1 X63.939 Y-1.557 E1.14064
G1 X63.851 Y-1.720 E1.14665
G1 X63.794 Y-1.901 E1.15279
G1 X63.789 Y-2.209 E1.16277
G1 X64.761 Y-3.241 F7800.000
G1 X51.770 Y-2.087 F7800.000
G1 X51.745 Y-1.823 E1.17137 F540.000
G1 X51.667 Y-1.573 E1.17984
G1 X51.544 Y-1.339 E1.18840
G1 X51.375 Y-1.135 E1.19697
G1 X51.180 Y-0.972 E1.20522
G1 X50.940 Y-0.843 E1.21400
G1 X50.691 Y-0.767 E1.22245
G1 X50.428 Y-0.744 E1.23099
G1 X50.168 Y-0.765 E1.23942
G1 X49.918 Y-0.843 E1.24790
G1 X49.739 Y-0.937 E1.25444
G1 X49.478 Y-1.137 E1.26509
G1 X49.315 Y-1.339 E1.27349
G1 X49.220 Y-1.512 E1.27989
G1 X49.111 Y-1.823 E1.29054
G1 X49.086 Y-2.087 E1.29914
G1 X49.111 Y-2.349 E1.30767
G1 X49.191 Y-2.606 E1.31635
G1 X49.312 Y-2.832 E1.32466
G1 X49.476 Y-3.035 E1.33311
G1 X49.683 Y-3.205 E1.34179
G1 X49.918 Y-3.331 E1.35040
G1 X50.164 Y-3.406 E1.35872
G1 X50.490 Y-3.425 E1.36930
G1 X50.691 Y-3.406 E1.37585 F540.000
G1 X50.944 Y-3.330 E1.38438
G1 X51.174 Y-3.204 E1.39288
G1 X51.378 Y-3.037 E1.40140
G1 X51.546 Y-2.832 E1.41000
G1 X51.666 Y-2.602 E1.41839
G1 X51.745 Y-2.350 E1.42696
G1 X51.765 Y-2.140 E1.43378
G1 X51.377 Y-2.102 F7800.000
G1 X51.361 Y-1.900 E1.44036 F378.000
G1 X51.306 Y-1.721 E1.44642
G1 X51.219 Y-1.557 E1.45242
G1 X51.100 Y-1.413 E1.45849
G1 X50.958 Y-1.294 E1.46447
G1 X50.792 Y-1.205 E1.47056
G1 X50.614 Y-1.150 E1.47660
G1 X50.428 Y-1.135 E1.48263
G1 X50.244 Y-1.150 E1.48862
G1 X50.066 Y-1.205 E1.49464
G1 X49.923 Y-1.280 E1.49988
G1 X49.756 Y-1.413 E1.50680
G1 X49.639 Y-1.557 E1.51278
G1 X49.563 Y-1.697 E1.51795
G1 X49.495 Y-1.900 E1.52486
G1 X49.477 Y-2.087 E1.53096
G1 X49.495 Y-2.273 E1.53699
G1 X49.551 Y-2.453 E1.54311
G1 X49.638 Y-2.616 E1.54909
G1 X49.755 Y-2.760 E1.55509
G1 X49.900 Y-2.880 E1.56120
G1 X50.066 Y-2.969 E1.56728
G1 X50.242 Y-3.022 E1.57323
G1 X50.404 Y-3.038 E1.57849
G1 X50.614 Y-3.022 E1.58531 F378.000
G1 X50.793 Y-2.969 E1.59138
G1 X50.956 Y-2.880 E1.59738
G1 X51.100 Y-2.761 E1.60343
G1 X51.220 Y-2.616 E1.60951
G1 X51.305 Y-2.452 E1.61549
G1 X51.361 Y-2.273 E1.62157
G1 X51.372 Y-2.155 E1.62541
G1 X50.351 Y-3.242 F7800.000
G1 X37.299 Y-2.087 F7800.000
G1 X37.270 Y-1.823 E1.63403 F540.000
G1 X37.196 Y-1.573 E1.64247
G1 X37.069 Y-1.339 E1.65108
G1 X36.904 Y-1.135 E1.65957
G1 X36.703 Y-0.970 E1.66797
G1 X36.467 Y-0.844 E1.67664
G1 X36.216 Y-0.765 E1.68518
G1 X35.956 Y-0.744 E1.69360
G1 X35.690 Y-0.767 E1.70224
G1 X35.444 Y-0.843 E1.71058
G1 X35.265 Y-0.937 E1.71712
G1 X35.004 Y-1.137 E1.72777
G1 X34.841 Y-1.339 E1.73617
G1 X34.746 Y-1.512 E1.74257
G1 X34.637 Y-1.823 E1.75322
G1 X34.612 Y-2.087 E1.76182
G1 X34.637 Y-2.350 E1.77035
G1 X34.717 Y-2.606 E1.77903
G1 X34.838 Y-2.832 E1.78734
G1 X35.002 Y-3.035 E1.79579
G1 X35.209 Y-3.205 E1.80447
G1 X35.444 Y-3.331 E1.81308
G1 X35.690 Y-3.406 E1.82141
G1 X36.018 Y-3.425 E1.83204
G1 X36.220 Y-3.406 E1.83863 F540.000
G1 X36.471 Y-3.330 E1.84710
G1 X36.698 Y-3.205 E1.85548
G1 X36.906 Y-3.037 E1.86415
G1 X37.072 Y-2.832 E1.87268
G1 X37.195 Y-2.602 E1.88112
G1 X37.270 Y-2.350 E1.88964
G1 X37.293 Y-2.140 E1.89649
G1 X36.906 Y-2.097 F7800.000
G1 X36.887 Y-1.900 E1.90291 F378.000
G1 X36.834 Y-1.721 E1.90894
G1 X36.745 Y-1.557 E1.91499
G1 X36.628 Y-1.413 E1.92100
G1 X36.483 Y-1.293 E1.92707
G1 X36.318 Y-1.205 E1.93311
G1 X36.140 Y-1.150 E1.93915
G1 X35.956 Y-1.135 E1.94514
G1 X35.768 Y-1.150 E1.95124
G1 X35.592 Y-1.205 E1.95721
G1 X35.449 Y-1.280 E1.96245
G1 X35.282 Y-1.413 E1.96936
G1 X35.165 Y-1.557 E1.97535
G1 X35.089 Y-1.697 E1.98052
G1 X35.021 Y-1.900 E1.98743
G1 X35.003 Y-2.087 E1.99353
G1 X35.021 Y-2.273 E1.99956
G1 X35.077 Y-2.453 E2.00568
G1 X35.164 Y-2.616 E2.01166
G1 X35.281 Y-2.760 E2.01766
G1 X35.426 Y-2.880 E2.02377
G1 X35.592 Y-2.969 E2.02985
G1 X35.768 Y-3.022 E2.03580
G1 X35.932 Y-3.038 E2.04112
G1 X36.142 Y-3.022 E2.04796 F378.000
G1 X36.320 Y-2.969 E2.05396
G1 X36.481 Y-2.880 E2.05992
G1 X36.629 Y-2.761 E2.06606
G1 X36.746 Y-2.616 E2.07208
G1 X36.834 Y-2.452 E2.07810
G1 X36.887 Y-2.273 E2.08416
G1 X36.900 Y-2.149 E2.08818
G1 X35.880 Y-3.242 F7800.000
G1 X22.996 Y-2.087 F7800.000
G1 X22.971 Y-1.826 E2.09666 F540.000
G1 X22.896 Y-1.573 E2.10523
G1 X22.769 Y-1.339 E2.11384
G1 X22.604 Y-1.135 E2.12233
G1 X22.403 Y-0.970 E2.13073
G1 X22.166 Y-0.843 E2.13944
G1 X21.917 Y-0.767 E2.14789
G1 X21.654 Y-0.744 E2.15643
G1 X21.394 Y-0.765 E2.16486
G1 X21.146 Y-0.843 E2.17327
G1 X20.905 Y-0.967 E2.18205
G1 X20.705 Y-1.137 E2.19056
G1 X20.540 Y-1.336 E2.19892
G1 X20.411 Y-1.573 E2.20765
G1 X20.339 Y-1.826 E2.21617
G1 X20.311 Y-2.087 E2.22467
G1 X20.340 Y-2.346 E2.23309
G1 X20.410 Y-2.597 E2.24154
G1 X20.538 Y-2.835 E2.25026
G1 X20.703 Y-3.035 E2.25866
G1 X20.905 Y-3.205 E2.26720
G1 X21.146 Y-3.332 E2.27601
G1 X21.390 Y-3.406 E2.28427
G1 X21.716 Y-3.425 E2.29485
G1 X21.917 Y-3.406 E2.30139 F540.000
G1 X22.170 Y-3.330 E2.30993
G1 X22.398 Y-3.205 E2.31835
G1 X22.606 Y-3.037 E2.32702
G1 X22.772 Y-2.832 E2.33555
G1 X22.895 Y-2.602 E2.34398
G1 X22.971 Y-2.346 E2.35265
G1 X22.991 Y-2.140 E2.35935
G1 X22.603 Y-2.103 F7800.000
G1 X22.587 Y-1.901 E2.36589 F378.000
G1 X22.534 Y-1.721 E2.37197
G1 X22.445 Y-1.557 E2.37801
G1 X22.328 Y-1.413 E2.38402
G1 X22.183 Y-1.293 E2.39009
G1 X22.018 Y-1.205 E2.39615
G1 X21.840 Y-1.150 E2.40219
G1 X21.654 Y-1.135 E2.40822
G1 X21.470 Y-1.150 E2.41421
G1 X21.293 Y-1.205 E2.42021
G1 X21.124 Y-1.292 E2.42636
G1 X20.982 Y-1.413 E2.43241
G1 X20.864 Y-1.556 E2.43840
G1 X20.774 Y-1.721 E2.44448
G1 X20.723 Y-1.901 E2.45053
G1 X20.703 Y-2.087 E2.45660
G1 X20.723 Y-2.272 E2.46260
G1 X20.773 Y-2.451 E2.46862
G1 X20.863 Y-2.617 E2.47474
G1 X20.981 Y-2.760 E2.48075
G1 X21.123 Y-2.880 E2.48677
G1 X21.293 Y-2.969 E2.49296
G1 X21.468 Y-3.022 E2.49889
G1 X21.630 Y-3.038 E2.50415
G1 X21.840 Y-3.022 E2.51097 F378.000
G1 X22.019 Y-2.969 E2.51704
G1 X22.181 Y-2.880 E2.52301
G1 X22.329 Y-2.761 E2.52914
G1 X22.446 Y-2.616 E2.53517
G1 X22.534 Y-2.452 E2.54119
G1 X22.587 Y-2.271 E2.54730
G1 X22.598 Y-2.155 E2.55109
G1 X21.577 Y-3.242 F7800.000
G1 X8.525 Y-2.087 F7800.000
G1 X8.496 Y-1.823 E2.55971 F540.000
G1 X8.422 Y-1.573 E2.56815
G1 X8.295 Y-1.339 E2.57676
G1 X8.132 Y-1.137 E2.58517
G1 X7.932 Y-0.970 E2.59358
G1 X7.692 Y-0.843 E2.60239
G1 X7.446 Y-0.767 E2.61073
G1 X7.180 Y-0.744 E2.61937
G1 X6.920 Y-0.765 E2.62779
G1 X6.670 Y-0.843 E2.63626
G1 X6.491 Y-0.937 E2.64281
G1 X6.230 Y-1.137 E2.65345
G1 X6.067 Y-1.339 E2.66186
G1 X5.940 Y-1.573 E2.67047
G1 X5.866 Y-1.823 E2.67891
G1 X5.837 Y-2.087 E2.68753
G1 X5.882 Y-2.500 E2.70097
G1 X5.910 Y-2.500 E2.70187
G1 X5.941 Y-2.602 E2.70532
G1 X6.064 Y-2.832 E2.71376
G1 X6.228 Y-3.035 E2.72220
G1 X6.435 Y-3.205 E2.73089
G1 X6.670 Y-3.331 E2.73950
G1 X6.916 Y-3.406 E2.74781
G1 X7.241 Y-3.425 E2.75837
G1 X7.446 Y-3.406 E2.76503 F540.000
G1 X7.692 Y-3.331 E2.77336
G1 X7.927 Y-3.205 E2.78197
G1 X8.134 Y-3.035 E2.79066
G1 X8.298 Y-2.832 E2.79910
G1 X8.421 Y-2.602 E2.80754
G1 X8.452 Y-2.500 E2.81099
G1 X8.480 Y-2.500 E2.81189
G1 X8.519 Y-2.140 E2.82363
G1 X8.132 Y-2.097 F7800.000
G1 X8.113 Y-1.900 E2.83005 F378.000
G1 X8.060 Y-1.721 E2.83608
G1 X7.971 Y-1.557 E2.84213
G1 X7.854 Y-1.413 E2.84811
G1 X7.711 Y-1.293 E2.85415
G1 X7.544 Y-1.205 E2.86028
G1 X7.368 Y-1.150 E2.86625
G1 X7.180 Y-1.135 E2.87235
G1 X6.996 Y-1.150 E2.87834
G1 X6.818 Y-1.205 E2.88436
G1 X6.675 Y-1.280 E2.88960
G1 X6.508 Y-1.413 E2.89651
G1 X6.391 Y-1.557 E2.90250
G1 X6.302 Y-1.721 E2.90854
G1 X6.249 Y-1.900 E2.91457
G1 X6.229 Y-2.087 E2.92068
G1 X6.249 Y-2.273 E2.92672
G1 X6.302 Y-2.452 E2.93278
G1 X6.390 Y-2.616 E2.93880
G1 X6.507 Y-2.760 E2.94480
G1 X6.652 Y-2.880 E2.95090
G1 X6.818 Y-2.969 E2.95698
G1 X6.994 Y-3.022 E2.96293
G1 X7.156 Y-3.038 E2.96819
G1 X7.368 Y-3.022 E2.97509 F378.000
G1 X7.544 Y-2.969 E2.98104
G1 X7.710 Y-2.880 E2.98712
G1 X7.855 Y-2.760 E2.99323
G1 X7.972 Y-2.616 E2.99923
G1 X8.060 Y-2.452 E3.00525
G1 X8.113 Y-2.273 E3.01130
G1 X8.126 Y-2.149 E3.01532
G1 X7.103 Y-3.244 F7800.000
G1 X-5.606 Y-2.087 F7800.000
G1 X-5.631 Y-1.826 E3.02380 F540.000
G1 X-5.706 Y-1.573 E3.03237
G1 X-5.834 Y-1.336 E3.04108
G1 X-5.999 Y-1.137 E3.04944
G1 X-6.199 Y-0.967 E3.05795
G1 X-6.440 Y-0.843 E3.06673
G1 X-6.688 Y-0.765 E3.07514
G1 X-6.948 Y-0.744 E3.08357
G1 X-7.208 Y-0.765 E3.09200
G1 X-7.458 Y-0.843 E3.10048
G1 X-7.637 Y-0.937 E3.10702
G1 X-7.895 Y-1.135 E3.11757
G1 X-8.064 Y-1.339 E3.12613
G1 X-8.189 Y-1.576 E3.13482
G1 X-8.262 Y-1.823 E3.14313
G1 X-8.291 Y-2.087 E3.15175
G1 X-8.262 Y-2.350 E3.16030
G1 X-8.188 Y-2.599 E3.16871
G1 X-8.066 Y-2.832 E3.17721
G1 X-7.898 Y-3.037 E3.18582
G1 X-7.693 Y-3.205 E3.19440
G1 X-7.458 Y-3.331 E3.20301
G1 X-7.212 Y-3.406 E3.21133
G1 X-6.886 Y-3.425 E3.22190
G1 X-6.684 Y-3.406 E3.22849 F540.000
G1 X-6.440 Y-3.332 E3.23675
G1 X-6.199 Y-3.205 E3.24556
G1 X-5.997 Y-3.035 E3.25410
G1 X-5.832 Y-2.835 E3.26250
G1 X-5.707 Y-2.602 E3.27104
G1 X-5.631 Y-2.346 E3.27970
G1 X-5.611 Y-2.140 E3.28640
G1 X-5.999 Y-2.103 F7800.000
G1 X-6.015 Y-1.901 E3.29294 F378.000
G1 X-6.068 Y-1.721 E3.29902
G1 X-6.158 Y-1.556 E3.30509
G1 X-6.276 Y-1.413 E3.31109
G1 X-6.418 Y-1.292 E3.31714
G1 X-6.587 Y-1.205 E3.32328
G1 X-6.764 Y-1.150 E3.32929
G1 X-6.948 Y-1.135 E3.33527
G1 X-7.132 Y-1.150 E3.34126
G1 X-7.310 Y-1.205 E3.34728
G1 X-7.453 Y-1.280 E3.35252
G1 X-7.620 Y-1.413 E3.35940
G1 X-7.739 Y-1.557 E3.36547
G1 X-7.826 Y-1.722 E3.37151
G1 X-7.879 Y-1.900 E3.37750
G1 X-7.899 Y-2.087 E3.38361
G1 X-7.879 Y-2.273 E3.38965
G1 X-7.826 Y-2.451 E3.39567
G1 X-7.740 Y-2.616 E3.40170
G1 X-7.620 Y-2.761 E3.40777
G1 X-7.476 Y-2.880 E3.41385
G1 X-7.310 Y-2.969 E3.41993
G1 X-7.134 Y-3.022 E3.42588
G1 X-6.972 Y-3.038 E3.43113
G1 X-6.762 Y-3.022 E3.43797 F378.000
G1 X-6.587 Y-2.969 E3.44390
G1 X-6.417 Y-2.880 E3.45009
G1 X-6.275 Y-2.760 E3.45611
G1 X-6.157 Y-2.617 E3.46212
G1 X-6.068 Y-2.452 E3.46817
G1 X-6.015 Y-2.271 E3.47428
G1 X-6.004 Y-2.155 E3.47807
G1 X-7.025 Y-3.242 F7800.000
G1 F600.000 E2.77807
G1 Z0.400 F7800.000
G92 E0
G1 X-63.151 Y-2.087 F7800.000
G1 Z0.200 F7800.000
G1 E0.70000 F600.000
G1 X-63.180 Y-1.823 E0.70862 F540.000
G1 X-63.254 Y-1.573 E0.71706
G1 X-63.381 Y-1.339 E0.72567
G1 X-63.546 Y-1.135 E0.73416
G1 X-63.747 Y-0.970 E0.74256
G1 X-63.983 Y-0.844 E0.75123
G1 X-64.234 Y-0.765 E0.75977
G1 X-64.494 Y-0.744 E0.76819
G1 X-64.760 Y-0.767 E0.77683
G1 X-65.006 Y-0.843 E0.78516
G1 X-65.185 Y-0.937 E0.79171
G1 X-65.446 Y-1.137 E0.80235
G1 X-65.609 Y-1.339 E0.81076
G1 X-65.704 Y-1.512 E0.81716
G1 X-65.813 Y-1.823 E0.82780
G1 X-65.838 Y-2.087 E0.83641
G1 X-65.813 Y-2.350 E0.84493
G1 X-65.733 Y-2.606 E0.85362
G1 X-65.612 Y-2.832 E0.86193
G1 X-65.448 Y-3.035 E0.87037
G1 X-65.241 Y-3.205 E0.87906
G1 X-65.006 Y-3.331 E0.88767
G1 X-64.760 Y-3.406 E0.89600
G1 X-64.432 Y-3.425 E0.90663
G1 X-64.230 Y-3.406 E0.91322 F540.000
G1 X-63.979 Y-3.330 E0.92168
G1 X-63.752 Y-3.205 E0.93007
G1 X-63.544 Y-3.037 E0.93874
G1 X-63.378 Y-2.832 E0.94726
G1 X-63.255 Y-2.602 E0.95571
G1 X-63.180 Y-2.350 E0.96424
G1 X-63.157 Y-2.140 E0.97108
G1 X-63.544 Y-2.097 F7800.000
G1 X-63.563 Y-1.900 E0.97750 F378.000
G1 X-63.616 Y-1.721 E0.98353
G1 X-63.705 Y-1.557 E0.98957
G1 X-63.822 Y-1.413 E0.99558
G1 X-63.967 Y-1.293 E1.00165
G1 X-64.132 Y-1.205 E1.00770
G1 X-64.310 Y-1.150 E1.01374
G1 X-64.494 Y-1.135 E1.01972
G1 X-64.682 Y-1.150 E1.02583
G1 X-64.858 Y-1.205 E1.03180
G1 X-65.001 Y-1.280 E1.03704
G1 X-65.168 Y-1.413 E1.04395
G1 X-65.285 Y-1.557 E1.04994
G1 X-65.361 Y-1.697 E1.05511
G1 X-65.429 Y-1.900 E1.06202
G1 X-65.447 Y-2.087 E1.06812
G1 X-65.429 Y-2.273 E1.07415
G1 X-65.373 Y-2.453 E1.08027
G1 X-65.286 Y-2.616 E1.08625
G1 X-65.169 Y-2.760 E1.09225
G1 X-65.024 Y-2.880 E1.09835
G1 X-64.858 Y-2.969 E1.10443
G1 X-64.682 Y-3.022 E1.11039
G1 X-64.518 Y-3.038 E1.11571
G1 X-64.308 Y-3.022 E1.12254 F378.000
G1 X-64.130 Y-2.969 E1.12855
G1 X-63.969 Y-2.880 E1.13451
G1 X-63.821 Y-2.761 E1.14064
G1 X-63.704 Y-2.616 E1.14667
G1 X-63.616 Y-2.452 E1.15269
G1 X-63.563 Y-2.273 E1.15875
G1 X-63.550 Y-2.149 E1.16277
G1 X-64.570 Y-3.242 F7800.000
G1 X-51.536 Y-2.087 F7800.000
G1 X-51.511 Y-2.346 E1.17117 F540.000
G1 X-51.435 Y-2.602 E1.17983
G1 X-51.310 Y-2.835 E1.18837
G1 X-51.145 Y-3.035 E1.19677
G1 X-50.943 Y-3.204 E1.20530
G1 X-50.705 Y-3.332 E1.21404
G1 X-50.457 Y-3.406 E1.22242
G1 X-50.132 Y-3.425 E1.23296
G1 X-49.931 Y-3.406 E1.23950 F540.000
G1 X-49.678 Y-3.330 E1.24803
G1 X-49.448 Y-3.204 E1.25654
G1 X-49.244 Y-3.037 E1.26506
G1 X-49.076 Y-2.832 E1.27366
G1 X-48.956 Y-2.602 E1.28204
G1 X-48.877 Y-2.350 E1.29061
G1 X-48.852 Y-2.087 E1.29913
G1 X-48.877 Y-1.823 E1.30774
G1 X-48.955 Y-1.573 E1.31621
G1 X-49.078 Y-1.339 E1.32477
G1 X-49.247 Y-1.135 E1.33333
G1 X-49.502 Y-0.939 E1.34375
G1 X-49.682 Y-0.843 E1.35034
G1 X-49.931 Y-0.767 E1.35879
G1 X-50.194 Y-0.744 E1.36733
G1 X-50.457 Y-0.767 E1.37587
G1 X-50.705 Y-0.843 E1.38426
G1 X-50.944 Y-0.968 E1.39301
G1 X-51.143 Y-1.137 E1.40146
G1 X-51.307 Y-1.336 E1.40982
G1 X-51.436 Y-1.573 E1.41853
G1 X-51.511 Y-1.826 E1.42710
G1 X-51.531 Y-2.035 E1.43388
G1 X-51.143 Y-2.072 F7800.000
G1 X-51.127 Y-2.271 E1.44036 F378.000
G1 X-51.074 Y-2.452 E1.44646
