; generated by PrusaSlicer 2.3.3 on 2021-08-21 at 03:42:01 UTC

; 

; external perimeters extrusion width = 0.39mm
; perimeters extrusion width = 0.39mm
; infill extrusion width = 0.39mm
; solid infill extrusion width = 0.39mm
; top infill extrusion width = 0.35mm
; first layer extrusion width = 0.37mm

M201 X9000 Y9000 Z500 E10000 ; sets maximum accelerations, mm/sec^2
M203 X500 Y500 Z12 E120 ; sets maximum feedrates, mm/sec
M204 P1500 R1500 T1500 ; sets acceleration (P, T) and retract acceleration (R), mm/sec^2
M205 X10.00 Y10.00 Z0.20 E2.50 ; sets the jerk limits, mm/sec
M205 S0 T0 ; sets the minimum extruding and travel feed rate, mm/sec
M107
M190 S38 ; set bed temperature and wait for it to be reached
;TYPE:Custom
M109 S185 ; start_custom set temperature and wait for it to be reached
G28 ; home all axes
G1 Z5 F5000 ; lift nozzle
G28 ; home all axes
G1 Z5 F5000 ; lift nozzle ; end_custom
G21 ; set units to millimeters
G90 ; use absolute coordinates
M82 ; use absolute distances for extrusion
G92 E0
; Filament gcode
;LAYER_CHANGE
;Z:0.35
;HEIGHT:0.35
G1 E-1.00000 F2400.000
G92 E0
G1 Z1.000 F7200.000
G1 X86.267 Y105.267
G1 Z0.350
G1 E1.00000 F2400.000
;TYPE:Skirt
;WIDTH:0.37
G1 F1200.000
G1 X88.142 Y103.809 E1.10192
G1 X89.691 Y102.838 E1.18035
G1 X91.819 Y101.784 E1.28227
G1 X93.529 Y101.144 E1.36062
G1 X95.828 Y100.537 E1.46262
G1 X98.185 Y100.196 E1.56482
G1 X100.004 Y100.116 E1.64297
G1 X102.517 Y100.268 E1.75100
G1 X104.994 Y100.721 E1.85903
G1 X107.397 Y101.470 E1.96706
G1 X109.694 Y102.502 E2.07509
G1 X111.844 Y103.799 E2.18284
G1 X113.832 Y105.353 E2.29114
G1 X115.615 Y107.131 E2.39917
G1 X117.185 Y109.132 E2.50831
G1 X118.473 Y111.258 E2.61495
G1 X127.259 Y128.237 E3.43530
G1 X128.147 Y130.375 E3.53466
G1 X128.443 Y131.405 E3.58066
G1 X128.723 Y132.815 E3.64234
G1 X128.865 Y134.246 E3.70403
G1 X128.880 Y135.331 E3.75058
G1 X128.780 Y136.765 E3.81226
G1 X128.541 Y138.176 E3.87367
G1 X128.269 Y139.233 E3.92050
G1 X127.800 Y140.578 E3.98163
G1 X127.047 Y142.163 E4.05693
G1 X125.917 Y143.917 E4.14649
G1 X124.794 Y145.249 E4.22122
G1 X123.512 Y146.447 E4.29652
G1 X121.834 Y147.656 E4.38525
G1 X120.285 Y148.493 E4.46082
G1 X118.261 Y149.261 E4.55371
G1 X116.547 Y149.665 E4.62929
G1 X114.146 Y149.884 E4.73272
G1 X85.733 Y149.882 E5.95195
G1 X84.249 Y149.782 E6.01579
G1 X82.837 Y149.544 E6.07720
G1 X81.774 Y149.272 E6.12431
G1 X80.423 Y148.800 E6.18572
G1 X78.997 Y148.135 E6.25323
G1 X77.736 Y147.379 E6.31631
G1 X76.826 Y146.720 E6.36453
G1 X75.658 Y145.704 E6.43093
G1 X74.648 Y144.628 E6.49429
G1 X73.706 Y143.392 E6.56097
G1 X72.898 Y142.064 E6.62765
G1 X72.269 Y140.743 E6.69045
G1 X71.873 Y139.684 E6.73895
G1 X71.461 Y138.186 E6.80563
G1 X71.217 Y136.736 E6.86871
G1 X71.116 Y135.186 E6.93539
G1 X71.178 Y133.633 E7.00208
G1 X71.386 Y132.178 E7.06515
G1 X71.642 Y131.079 E7.11354
G1 X72.128 Y129.607 E7.18005
G1 X72.735 Y128.248 E7.24396
G1 X81.867 Y110.640 E8.09510
G1 X83.304 Y108.455 E8.20729
G1 X84.912 Y106.560 E8.31393
G1 X86.229 Y105.303 E8.39206
G1 X86.432 Y105.516 F7200.000
G1 F1200.000
G1 X88.312 Y104.050 E8.49435
G1 X89.833 Y103.097 E8.57135
G1 X91.932 Y102.057 E8.67187
G1 X93.617 Y101.426 E8.74909
G1 X95.889 Y100.825 E8.84995
G1 X98.214 Y100.489 E8.95074
G1 X100.007 Y100.411 E9.02775
G1 X102.478 Y100.560 E9.13398
G1 X104.920 Y101.007 E9.24048
G1 X107.290 Y101.744 E9.34699
G1 X109.559 Y102.764 E9.45376
G1 X111.679 Y104.043 E9.55999
G1 X113.639 Y105.576 E9.66677
G1 X115.396 Y107.329 E9.77327
G1 X116.940 Y109.297 E9.88059
G1 X118.213 Y111.398 E9.98601
G1 X126.997 Y128.372 E10.80612
G1 X127.864 Y130.458 E10.90308
G1 X128.155 Y131.468 E10.94815
G1 X128.431 Y132.856 E11.00889
G1 X128.570 Y134.265 E11.06964
G1 X128.585 Y135.328 E11.11525
G1 X128.486 Y136.734 E11.17572
G1 X128.251 Y138.123 E11.23619
G1 X127.986 Y139.152 E11.28180
G1 X127.521 Y140.483 E11.34228
G1 X126.778 Y142.040 E11.41634
G1 X125.618 Y143.826 E11.50768
G1 X124.498 Y145.131 E11.58146
G1 X122.987 Y146.492 E11.66873
G1 X121.573 Y147.471 E11.74252
G1 X120.070 Y148.266 E11.81550
G1 X118.154 Y148.985 E11.90331
G1 X116.480 Y149.378 E11.97710
G1 X114.146 Y149.589 E12.07767
G1 X85.743 Y149.588 E13.29645
G1 X84.286 Y149.489 E13.35913
G1 X82.896 Y149.255 E13.41960
G1 X81.854 Y148.988 E13.46575
G1 X80.518 Y148.521 E13.52650
G1 X79.132 Y147.873 E13.59214
G1 X77.896 Y147.132 E13.65397
G1 X77.008 Y146.488 E13.70105
G1 X75.861 Y145.490 E13.76630
G1 X74.875 Y144.439 E13.82814
G1 X73.948 Y143.222 E13.89377
G1 X73.156 Y141.921 E13.95914
G1 X72.534 Y140.614 E14.02124
G1 X72.025 Y139.185 E14.08633
G1 X71.748 Y138.119 E14.13358
G1 X71.509 Y136.698 E14.19541
G1 X71.411 Y135.172 E14.26104
G1 X71.472 Y133.656 E14.32614
G1 X71.678 Y132.223 E14.38824
G1 X72.046 Y130.745 E14.45361
G1 X72.409 Y129.699 E14.50112
G1 X72.997 Y128.384 E14.56295
G1 X82.125 Y110.782 E15.41376
G1 X83.541 Y108.629 E15.52434
G1 X85.119 Y106.771 E15.62894
G1 X86.394 Y105.552 E15.70464
G1 X86.598 Y105.765 F7200.000
G1 F1200.000
G1 X88.477 Y104.294 E15.80703
G1 X89.975 Y103.355 E15.88288
G1 X92.045 Y102.330 E15.98201
G1 X93.705 Y101.707 E16.05808
G1 X95.945 Y101.115 E16.15753
G1 X98.244 Y100.782 E16.25719
G1 X100.004 Y100.705 E16.33278
G1 X102.446 Y100.853 E16.43776
G1 X104.852 Y101.294 E16.54274
G1 X107.188 Y102.021 E16.64772
G1 X109.419 Y103.024 E16.75270
G1 X111.514 Y104.288 E16.85767
G1 X113.441 Y105.795 E16.96265
G1 X115.173 Y107.523 E17.06763
G1 X116.699 Y109.467 E17.17367
G1 X117.954 Y111.538 E17.27759
G1 X126.735 Y128.507 E18.09747
G1 X127.583 Y130.548 E18.19231
G1 X128.139 Y132.897 E18.29588
G1 X128.276 Y134.278 E18.35542
G1 X128.290 Y135.318 E18.40008
G1 X128.194 Y136.696 E18.45934
G1 X127.962 Y138.064 E18.51887
G1 X127.704 Y139.066 E18.56327
G1 X127.241 Y140.387 E18.62333
G1 X126.521 Y141.896 E18.69508
G1 X125.381 Y143.650 E18.78486
G1 X124.284 Y144.928 E18.85714
G1 X122.797 Y146.266 E18.94294
G1 X121.417 Y147.221 E19.01495
G1 X119.944 Y148.000 E19.08644
G1 X118.060 Y148.706 E19.17277
G1 X116.414 Y149.090 E19.24531
G1 X114.139 Y149.294 E19.34332
G1 X85.753 Y149.293 E20.56139
G1 X84.316 Y149.196 E20.62317
G1 X82.948 Y148.965 E20.68270
G1 X81.934 Y148.704 E20.72762
G1 X80.613 Y148.241 E20.78769
G1 X79.268 Y147.610 E20.85147
G1 X78.051 Y146.881 E20.91233
G1 X76.861 Y145.991 E20.97611
G1 X76.063 Y145.275 E21.02210
G1 X75.097 Y144.245 E21.08269
G1 X74.192 Y143.058 E21.14674
G1 X73.414 Y141.777 E21.21105
G1 X72.805 Y140.496 E21.27191
G1 X72.306 Y139.096 E21.33569
G1 X72.037 Y138.059 E21.38168
G1 X71.803 Y136.666 E21.44228
G1 X71.706 Y135.171 E21.50659
G1 X71.766 Y133.679 E21.57064
G1 X71.968 Y132.275 E21.63150
G1 X72.329 Y130.827 E21.69554
G1 X72.687 Y129.796 E21.74236
G1 X73.259 Y128.520 E21.80239
G1 X82.383 Y110.925 E22.65286
G1 X83.775 Y108.809 E22.76155
G1 X85.326 Y106.981 E22.86440
G1 X86.560 Y105.801 E22.93767
G1 E21.93767 F2400.000
G92 E0
G1 Z1.350 F7200.000
G1 X97.318 Y133.320
G1 Z0.350
G1 E1.00000 F2400.000
;TYPE:Perimeter
G1 F360.000
G1 X102.680 Y133.320 E1.23009
G1 X102.680 Y136.031 E1.34639
G1 X102.625 Y136.548 E1.36870
G1 X102.537 Y136.865 E1.38282
G1 X102.328 Y137.331 E1.40473
G1 X102.162 Y137.587 E1.41782
G1 X101.795 Y137.994 E1.44135
G1 X101.341 Y138.324 E1.46541
G1 X100.829 Y138.552 E1.48948
G1 X100.280 Y138.668 E1.51355
G1 X99.720 Y138.668 E1.53761
G1 X99.181 Y138.554 E1.56123
G1 X98.875 Y138.433 E1.57536
G1 X98.423 Y138.170 E1.59781
G1 X98.016 Y137.804 E1.62130
G1 X97.823 Y137.566 E1.63443
G1 X97.554 Y137.101 E1.65750
G1 X97.439 Y136.792 E1.67162
G1 X97.332 Y136.281 E1.69403
G1 X97.318 Y133.373 E1.81883
G1 E0.81883 F2400.000
G92 E0
G1 Z1.350 F7200.000
G1 X101.004 Y138.151
G1 Z0.350
G1 E1.00000 F2400.000
;TYPE:External perimeter
G1 F360.000
G1 X100.737 Y138.270 E1.01255
G1 X100.249 Y138.374 E1.03395
G1 X99.751 Y138.374 E1.05536
G1 X99.267 Y138.271 E1.07659
G1 X99.004 Y138.167 E1.08871
G1 X98.597 Y137.931 E1.10889
G1 X98.230 Y137.600 E1.13008
G1 X98.067 Y137.399 E1.14121
G1 X97.822 Y136.974 E1.16224
G1 X97.723 Y136.710 E1.17435
G1 X97.627 Y136.250 E1.19452
G1 X97.614 Y133.615 E1.30757
G1 X102.385 Y133.615 E1.51229
G1 X102.385 Y136.015 E1.61527
G1 X102.335 Y136.493 E1.63587
G1 X102.259 Y136.764 E1.64797
G1 X102.068 Y137.189 E1.66795
G1 X101.927 Y137.407 E1.67907
G1 X101.597 Y137.774 E1.70027
G1 X101.193 Y138.067 E1.72168
G1 X101.052 Y138.130 E1.72829
G1 X100.988 Y138.443 F7200.000
G1 E0.72829 F2400.000
G92 E0
G1 Z1.350 F7200.000
G1 X90.836 Y140.084
G1 Z0.350
G1 E1.00000 F2400.000
;TYPE:Perimeter
G1 F1440.000
G1 X90.705 Y140.215 E1.00794
G1 X90.140 Y140.675 E1.03920
G1 X89.814 Y140.899 E1.05618
G1 X89.504 Y141.089 E1.07176
G1 X88.854 Y141.417 E1.10301
G1 X88.116 Y141.699 E1.13693
G1 X87.777 Y141.796 E1.15206
G1 X87.033 Y141.948 E1.18463
G1 X86.288 Y142.018 E1.21675
G1 X85.529 Y142.009 E1.24932
G1 X85.177 Y141.976 E1.26450
G1 X84.429 Y141.846 E1.29707
G1 X83.709 Y141.640 E1.32920
G1 X83.006 Y141.355 E1.36176
G1 X82.690 Y141.196 E1.37695
G1 X82.041 Y140.802 E1.40951
G1 X81.446 Y140.348 E1.44164
G1 X80.903 Y139.833 E1.47376
G1 X80.417 Y139.263 E1.50589
G1 X79.995 Y138.645 E1.53801
G1 X79.642 Y137.985 E1.57013
G1 X79.356 Y137.281 E1.60270
G1 X79.250 Y136.944 E1.61788
G1 X79.080 Y136.204 E1.65045
G1 X78.990 Y135.451 E1.68302
G1 X78.976 Y135.097 E1.69820
G1 X79.007 Y134.339 E1.73077
G1 X79.117 Y133.598 E1.76290
G1 X79.306 Y132.874 E1.79502
G1 X79.574 Y132.164 E1.82759
G1 X79.725 Y131.844 E1.84277
G1 X80.107 Y131.176 E1.87578
G1 X80.307 Y130.885 E1.89096
G1 X80.785 Y130.295 E1.92353
G1 X81.316 Y129.766 E1.95566
G1 X81.907 Y129.291 E1.98823
G1 X82.200 Y129.092 E2.00341
G1 X82.869 Y128.712 E2.03642
G1 X83.189 Y128.562 E2.05160
G1 X83.910 Y128.294 E2.08461
G1 X84.251 Y128.197 E2.09980
G1 X84.995 Y128.049 E2.13237
G1 X85.756 Y127.980 E2.16517
G1 X86.387 Y127.964 E2.19224
G1 X86.683 Y127.896 E2.20528
G1 X86.950 Y127.787 E2.21764
G1 X87.195 Y127.636 E2.23000
G1 X87.413 Y127.447 E2.24236
G1 X87.597 Y127.226 E2.25472
G1 X87.744 Y126.978 E2.26708
G1 X87.848 Y126.709 E2.27944
G1 X87.908 Y126.428 E2.29180
G1 X87.921 Y126.140 E2.30416
G1 X87.886 Y125.840 E2.31713
G1 X87.476 Y124.578 E2.37407
G1 X87.346 Y124.085 E2.39595
G1 X87.138 Y123.051 E2.44121
G1 X87.014 Y122.003 E2.48647
G1 X86.985 Y121.496 E2.50828
G1 X86.987 Y120.433 E2.55387
G1 X87.020 Y119.926 E2.57568
G1 X87.149 Y118.879 E2.62094
G1 X87.361 Y117.854 E2.66587
G1 X87.655 Y116.848 E2.71081
G1 X88.015 Y115.904 E2.75419
G1 X88.475 Y114.932 E2.80032
G1 X89.004 Y114.020 E2.84559
G1 X89.600 Y113.159 E2.89051
G1 X90.264 Y112.349 E2.93544
G1 X90.990 Y111.595 E2.98037
G1 X91.781 Y110.896 E3.02564
G1 X92.181 Y110.584 E3.04744
G1 X93.056 Y109.981 E3.09304
G1 X93.498 Y109.714 E3.11517
G1 X93.950 Y109.466 E3.13731
G1 X94.903 Y109.014 E3.18257
G1 X95.883 Y108.644 E3.22750
G1 X96.896 Y108.351 E3.27276
G1 X97.392 Y108.239 E3.29457
G1 X98.441 Y108.069 E3.34016
G1 X98.945 Y108.018 E3.36193
G1 X100.044 Y107.977 E3.40911
G1 X101.046 Y108.018 E3.45214
G1 X102.086 Y108.144 E3.49709
G1 X103.119 Y108.354 E3.54235
G1 X104.110 Y108.641 E3.58661
G1 X105.099 Y109.015 E3.63199
G1 X105.809 Y109.346 E3.66557
G1 X106.500 Y109.713 E3.69916
G1 X107.394 Y110.278 E3.74454
G1 X107.813 Y110.579 E3.76667
G1 X108.219 Y110.896 E3.78881
G1 X109.010 Y111.595 E3.83407
G1 X109.742 Y112.355 E3.87933
G1 X110.395 Y113.153 E3.92360
G1 X110.996 Y114.020 E3.96886
G1 X111.525 Y114.932 E4.01412
G1 X111.969 Y115.863 E4.05839
G1 X112.348 Y116.856 E4.10399
G1 X112.500 Y117.341 E4.12579
G1 X112.757 Y118.372 E4.17139
G1 X112.850 Y118.871 E4.19319
G1 X112.980 Y119.926 E4.23878
G1 X113.013 Y120.433 E4.26059
G1 X113.015 Y121.488 E4.30585
G1 X112.934 Y122.532 E4.35078
G1 X112.768 Y123.574 E4.39604
G1 X112.524 Y124.578 E4.44038
G1 X112.105 Y125.867 E4.49856
G1 X112.084 Y126.357 E4.51959
G1 X112.149 Y126.701 E4.53461
G1 X112.256 Y126.978 E4.54736
G1 X112.403 Y127.226 E4.55973
G1 X112.587 Y127.447 E4.57209
G1 X112.805 Y127.636 E4.58445
G1 X113.050 Y127.787 E4.59681
G1 X113.317 Y127.896 E4.60917
G1 X113.613 Y127.964 E4.62220
G1 X114.244 Y127.980 E4.64927
G1 X115.005 Y128.049 E4.68208
G1 X115.739 Y128.195 E4.71420
G1 X116.454 Y128.419 E4.74633
G1 X117.150 Y128.721 E4.77890
G1 X117.462 Y128.888 E4.79408
G1 X118.101 Y129.298 E4.82665
G1 X118.684 Y129.766 E4.85877
G1 X119.215 Y130.295 E4.89091
G1 X119.674 Y130.861 E4.92217
G1 X119.893 Y131.178 E4.93871
G1 X120.275 Y131.844 E4.97166
G1 X120.426 Y132.164 E4.98684
G1 X120.694 Y132.874 E5.01941
G1 X120.885 Y133.608 E5.05198
G1 X120.947 Y133.957 E5.06716
G1 X121.018 Y134.712 E5.09973
G1 X121.009 Y135.461 E5.13185
G1 X120.919 Y136.215 E5.16442
G1 X120.849 Y136.561 E5.17960
G1 X120.640 Y137.291 E5.21217
G1 X120.355 Y137.994 E5.24474
G1 X120.196 Y138.311 E5.25992
G1 X119.797 Y138.968 E5.29293
G1 X119.589 Y139.255 E5.30811
G1 X119.091 Y139.841 E5.34113
G1 X118.833 Y140.098 E5.35675
G1 X118.562 Y140.342 E5.37238
G1 X117.959 Y140.802 E5.40495
G1 X117.310 Y141.196 E5.43751
G1 X116.994 Y141.355 E5.45270
G1 X116.281 Y141.644 E5.48571
G1 X115.944 Y141.751 E5.50089
G1 X115.194 Y141.923 E5.53390
G1 X114.834 Y141.976 E5.54953
G1 X114.471 Y142.009 E5.56516
G1 X113.702 Y142.019 E5.59817
G1 X113.349 Y141.995 E5.61335
G1 X112.598 Y141.883 E5.64592
G1 X111.863 Y141.692 E5.67849
G1 X111.529 Y141.576 E5.69367
G1 X110.834 Y141.271 E5.72624
G1 X110.176 Y140.893 E5.75881
G1 X109.884 Y140.693 E5.77399
G1 X109.294 Y140.215 E5.80656
G1 X108.759 Y139.677 E5.83912
G1 X108.530 Y139.407 E5.85432
G1 X108.098 Y138.808 E5.88603
G1 X107.897 Y138.478 E5.90258
G1 X107.567 Y137.819 E5.93422
G1 X107.421 Y137.462 E5.95076
G1 X107.195 Y136.740 E5.98326
G1 X107.048 Y136.005 E6.01539
G1 X106.979 Y135.244 E6.04819
G1 X106.964 Y134.613 E6.07526
G1 X106.895 Y134.317 E6.08830
G1 X106.786 Y134.051 E6.10066
G1 X106.635 Y133.805 E6.11302
G1 X106.447 Y133.588 E6.12538
G1 X106.226 Y133.403 E6.13774
G1 X105.977 Y133.257 E6.15010
G1 X105.709 Y133.152 E6.16246
G1 X105.427 Y133.093 E6.17482
G1 X105.139 Y133.079 E6.18718
G1 X104.828 Y133.116 E6.20064
G1 X103.963 Y133.425 E6.24005
G1 X103.550 Y133.733 E6.26217
G1 X103.353 Y133.967 E6.27529
G1 X103.196 Y134.229 E6.28840
G1 X103.124 Y134.451 E6.29841
G1 X102.975 Y134.427 E6.30490
G1 X102.975 Y133.026 E6.36506
G1 X97.021 Y133.026 E6.62052
G1 X97.028 Y134.410 E6.67993
G1 X96.885 Y134.438 E6.68619
G1 X96.777 Y134.175 E6.69842
G1 X96.475 Y133.751 E6.72076
G1 X96.037 Y133.425 E6.74419
G1 X95.172 Y133.116 E6.78360
G1 X94.861 Y133.079 E6.79706
G1 X94.573 Y133.093 E6.80942
G1 X94.291 Y133.152 E6.82178
G1 X94.023 Y133.257 E6.83414
G1 X93.774 Y133.403 E6.84650
G1 X93.553 Y133.588 E6.85886
G1 X93.365 Y133.805 E6.87122
G1 X93.214 Y134.051 E6.88358
G1 X93.105 Y134.317 E6.89594
G1 X93.036 Y134.613 E6.90897
G1 X93.021 Y135.244 E6.93605
G1 X92.952 Y136.005 E6.96885
G1 X92.803 Y136.750 E7.00142
G1 X92.707 Y137.090 E7.01660
G1 X92.441 Y137.801 E7.04917
G1 X92.107 Y138.471 E7.08130
G1 X91.703 Y139.101 E7.11342
G1 X91.234 Y139.685 E7.14554
G1 X90.873 Y140.047 E7.16749
G1 X91.082 Y140.255 F7200.000
G1 F1440.000
G1 X90.903 Y140.435 E7.17835
G1 X90.317 Y140.911 E7.21077
G1 X89.975 Y141.147 E7.22860
G1 X89.648 Y141.346 E7.24504
G1 X88.974 Y141.687 E7.27745
G1 X88.209 Y141.979 E7.31256
G1 X87.847 Y142.083 E7.32872
G1 X87.077 Y142.240 E7.36247
G1 X86.300 Y142.314 E7.39595
G1 X85.514 Y142.304 E7.42970
G1 X85.138 Y142.269 E7.44589
G1 X84.363 Y142.134 E7.47964
G1 X83.613 Y141.919 E7.51311
G1 X82.884 Y141.624 E7.54686
G1 X82.547 Y141.454 E7.56306
G1 X81.874 Y141.046 E7.59681
G1 X81.254 Y140.573 E7.63028
G1 X80.688 Y140.036 E7.66376
G1 X80.183 Y139.442 E7.69723
G1 X79.743 Y138.798 E7.73071
G1 X79.374 Y138.110 E7.76418
G1 X79.078 Y137.381 E7.79793
G1 X78.965 Y137.022 E7.81413
G1 X78.789 Y136.255 E7.84788
G1 X78.696 Y135.474 E7.88163
G1 X78.681 Y135.097 E7.89782
G1 X78.713 Y134.311 E7.93157
G1 X78.828 Y133.539 E7.96505
G1 X79.024 Y132.784 E7.99852
G1 X79.302 Y132.048 E8.03227
G1 X79.463 Y131.707 E8.04846
G1 X79.858 Y131.019 E8.08249
G1 X80.071 Y130.708 E8.09868
G1 X80.566 Y130.097 E8.13243
G1 X81.119 Y129.546 E8.16591
G1 X81.732 Y129.054 E8.19966
G1 X82.044 Y128.842 E8.21585
G1 X82.733 Y128.450 E8.24988
G1 X83.075 Y128.290 E8.26607
G1 X83.818 Y128.013 E8.30010
