; generated by PrusaSlicer 2.3.3 on 2021-08-22 at 00:42:05 UTC

; 

; external perimeters extrusion width = 0.39mm
; perimeters extrusion width = 0.39mm
; infill extrusion width = 0.39mm
; solid infill extrusion width = 0.39mm
; top infill extrusion width = 0.35mm
; first layer extrusion width = 0.37mm

M201 X9000 Y9000 Z500 E10000 ; sets maximum accelerations, mm/sec^2
M203 X500 Y500 Z12 E120 ; sets maximum feedrates, mm/sec
M204 P1500 R1500 T1500 ; sets acceleration (P, T) and retract acceleration (R), mm/sec^2
M205 X10.00 Y10.00 Z0.20 E2.50 ; sets the jerk limits, mm/sec
M205 S0 T0 ; sets the minimum extruding and travel feed rate, mm/sec
M107
M190 S38 ; set bed temperature and wait for it to be reached
;TYPE:Custom
M109 S185 ; start_custom set temperature and wait for it to be reached
G28 ; home all axes
G1 Z5 F5000 ; lift nozzle
G28 ; home all axes
G1 Z5 F5000 ; lift nozzle ; end_custom
G21 ; set units to millimeters
G90 ; use absolute coordinates
M82 ; use absolute distances for extrusion
G92 E0
; Filament gcode
;LAYER_CHANGE
;Z:0.32
;HEIGHT:0.32
G1 E-1.00000 F3000.000
G92 E0
G1 Z1.000 F7200.000
G1 X61.411 Y72.655
G1 Z0.320
G1 E1.00000 F3000.000
;TYPE:Skirt
;WIDTH:0.37
G1 F1800.000
G1 X62.864 Y73.369 E1.06004
G1 X64.758 Y74.821 E1.14853
G1 X145.837 Y155.897 E5.40039
G1 X151.163 Y161.483 E5.68660
G1 X151.714 Y162.229 E5.72099
G1 X152.162 Y163.048 E5.75563
G1 X152.494 Y163.915 E5.79003
G1 X152.706 Y164.818 E5.82442
G1 X152.796 Y165.741 E5.85882
G1 X152.761 Y166.668 E5.89322
G1 X152.603 Y167.582 E5.92761
G1 X152.323 Y168.466 E5.96201
G1 X151.773 Y169.568 E6.00768
G1 X151.031 Y170.559 E6.05360
G1 X145.407 Y176.164 E6.34801
G1 X144.394 Y176.876 E6.39393
G1 X143.271 Y177.396 E6.43984
G1 X142.072 Y177.707 E6.48576
G1 X140.837 Y177.798 E6.53167
G1 X139.600 Y177.667 E6.57783
G1 X138.412 Y177.317 E6.62374
G1 X137.305 Y176.762 E6.66966
G1 X136.316 Y176.017 E6.71557
G1 X130.891 Y170.831 E6.99387
G1 X49.551 Y89.458 E11.26037
G1 X48.514 Y88.080 E11.32431
G1 X48.052 Y87.321 E11.35727
G1 X47.626 Y86.326 E11.39742
G1 X47.362 Y85.282 E11.43734
G1 X47.265 Y84.320 E11.47318
G1 X47.259 Y81.820 E11.56592
G1 X47.460 Y80.657 E11.60967
G1 X47.857 Y79.546 E11.65343
G1 X48.376 Y78.610 E11.69311
G1 X49.033 Y77.765 E11.73279
G1 X52.578 Y74.209 E11.91898
G1 X53.220 Y73.653 E11.95050
G1 X54.164 Y73.046 E11.99210
G1 X55.199 Y72.598 E12.03393
G1 X56.294 Y72.325 E12.07577
G1 X57.418 Y72.233 E12.11761
G1 X59.844 Y72.301 E12.20761
G1 X61.360 Y72.643 E12.26523
G1 X61.294 Y72.935 F7200.000
G1 F1800.000
G1 X62.706 Y73.625 E12.32351
G1 X64.554 Y75.043 E12.40987
G1 X145.623 Y156.110 E16.66124
G1 X150.926 Y161.670 E16.94616
G1 X151.458 Y162.389 E16.97933
G1 X151.888 Y163.173 E17.01250
G1 X152.207 Y164.009 E17.04566
G1 X152.411 Y164.880 E17.07883
G1 X152.496 Y165.776 E17.11223
G1 X152.458 Y166.670 E17.14540
G1 X152.300 Y167.550 E17.17856
G1 X152.024 Y168.401 E17.21173
G1 X151.496 Y169.441 E17.25499
G1 X150.794 Y170.373 E17.29825
G1 X145.218 Y175.930 E17.59017
G1 X144.243 Y176.616 E17.63436
G1 X143.167 Y177.113 E17.67833
G1 X142.019 Y177.410 E17.72229
G1 X140.837 Y177.497 E17.76625
G1 X139.658 Y177.371 E17.81021
G1 X138.515 Y177.034 E17.85440
G1 X137.456 Y176.501 E17.89837
G1 X136.505 Y175.782 E17.94256
G1 X131.106 Y170.620 E18.21956
G1 X49.786 Y89.268 E22.48500
G1 X48.769 Y87.920 E22.54761
G1 X48.325 Y87.195 E22.57913
G1 X47.916 Y86.245 E22.61746
G1 X47.660 Y85.237 E22.65603
G1 X47.567 Y84.316 E22.69037
G1 X47.558 Y81.855 E22.78161
G1 X47.751 Y80.737 E22.82370
G1 X48.130 Y79.674 E22.86555
G1 X48.627 Y78.775 E22.90365
G1 X49.259 Y77.965 E22.94174
G1 X53.394 Y73.899 E23.15677
G1 X54.305 Y73.312 E23.19698
G1 X55.294 Y72.884 E23.23695
G1 X56.340 Y72.622 E23.27692
G1 X57.421 Y72.534 E23.31713
G1 X59.800 Y72.599 E23.40540
G1 X61.243 Y72.924 E23.46024
G1 X61.178 Y73.215 F7200.000
G1 F1800.000
G1 X62.545 Y73.879 E23.51658
G1 X64.346 Y75.261 E23.60075
G1 X145.406 Y156.318 E27.85163
G1 X150.690 Y161.857 E28.13553
G1 X151.203 Y162.550 E28.16747
G1 X151.617 Y163.305 E28.19941
G1 X151.923 Y164.110 E28.23135
G1 X152.117 Y164.949 E28.26329
G1 X152.195 Y165.807 E28.29523
G1 X152.155 Y166.668 E28.32717
G1 X151.998 Y167.514 E28.35911
G1 X151.727 Y168.332 E28.39105
G1 X151.225 Y169.307 E28.43171
G1 X150.558 Y170.184 E28.47259
G1 X145.032 Y175.692 E28.76189
G1 X144.102 Y176.349 E28.80414
G1 X143.074 Y176.826 E28.84617
G1 X141.971 Y177.113 E28.88843
G1 X140.840 Y177.196 E28.93045
G1 X139.713 Y177.075 E28.97248
G1 X138.620 Y176.752 E29.01474
G1 X137.604 Y176.237 E29.05699
G1 X136.701 Y175.552 E29.09902
G1 X131.317 Y170.404 E29.37525
G1 X50.024 Y89.083 E33.63918
G1 X49.021 Y87.753 E33.70094
G1 X48.602 Y87.072 E33.73059
G1 X48.207 Y86.163 E33.76734
G1 X47.958 Y85.197 E33.80433
G1 X47.868 Y84.309 E33.83742
G1 X47.857 Y81.897 E33.92688
G1 X48.038 Y80.828 E33.96708
G1 X48.403 Y79.801 E34.00750
G1 X48.880 Y78.939 E34.04403
G1 X49.482 Y78.167 E34.08033
G1 X53.563 Y74.149 E34.29269
G1 X54.431 Y73.586 E34.33105
G1 X55.379 Y73.173 E34.36941
G1 X56.389 Y72.920 E34.40800
G1 X57.420 Y72.836 E34.44636
G1 X59.751 Y72.897 E34.53284
G1 X61.127 Y73.203 E34.58511
G1 E33.58511 F3000.000
G92 E0
G1 Z1.320 F7200.000
G1 X91.661 Y120.866
G1 Z0.320
G1 E1.00000 F3000.000
;TYPE:Perimeter
G1 F2340.000
G1 X55.506 Y84.712 E2.89602
G1 X55.506 Y84.485 E2.90441
G1 X54.848 Y83.827 E2.93894
G1 X54.828 Y82.693 E2.98100
G1 X57.693 Y79.828 E3.13123
G1 X58.827 Y79.848 E3.17329
G1 X59.485 Y80.506 E3.20781
G1 X59.712 Y80.506 E3.21620
G1 X140.259 Y161.054 E7.44028
G1 X140.259 Y161.280 E7.44867
G1 X144.925 Y165.946 E7.69333
G1 X140.945 Y169.925 E7.90201
G1 X136.280 Y165.259 E8.14667
G1 X136.054 Y165.259 E8.15506
G1 X91.698 Y120.903 E10.48117
G1 X91.485 Y121.117 F7200.000
;TYPE:External perimeter
G1 F1287.000
G1 X55.205 Y84.836 E12.38377
G1 X55.205 Y84.610 E12.39216
G1 X54.549 Y83.954 E12.42657
G1 X54.525 Y82.570 E12.47789
G1 X57.570 Y79.525 E12.63760
G1 X58.954 Y79.549 E12.68892
G1 X59.610 Y80.205 E12.72333
G1 X59.836 Y80.205 E12.73172
G1 X140.561 Y160.929 E16.96505
G1 X140.561 Y161.155 E16.97344
G1 X145.351 Y165.946 E17.22465
G1 X140.945 Y170.351 E17.45568
G1 X136.155 Y165.561 E17.70689
G1 X135.929 Y165.561 E17.71528
G1 X91.522 Y121.154 E20.04406
G1 X91.575 Y120.778 F7200.000
G1 E19.04406 F3000.000
G92 E0
G1 Z1.320 F7200.000
G1 X140.169 Y161.286
G1 Z0.320
G1 E1.00000 F3000.000
;TYPE:Solid infill
;WIDTH:0.373763
G1 F2700.000
G1 X59.615 Y80.732 E5.27714
G1 X59.392 Y80.732 E5.28553
G1 X58.732 Y80.072 E5.32057
G1 X58.520 Y80.069 E5.32852
G1 X144.501 Y166.049 E9.89383
G1 X144.285 Y166.265 E9.90528
G1 X58.081 Y80.061 E14.48245
G1 X57.785 Y80.056 E14.49357
G1 X57.715 Y80.126 E14.49730
G1 X144.070 Y166.481 E19.08247
G1 X143.854 Y166.697 E19.09392
G1 X57.499 Y80.342 E23.67909
G1 X57.283 Y80.558 E23.69055
G1 X143.638 Y166.912 E28.27572
G1 X143.422 Y167.128 E28.28717
G1 X57.068 Y80.773 E32.87234
G1 X56.852 Y80.989 E32.88379
G1 X143.207 Y167.344 E37.46896
G1 X142.991 Y167.560 E37.48042
G1 X56.636 Y81.205 E42.06558
G1 X56.420 Y81.420 E42.07704
G1 X142.775 Y167.775 E46.66221
G1 X142.560 Y167.991 E46.67366
G1 X56.205 Y81.636 E51.25883
G1 X55.989 Y81.852 E51.27028
G1 X142.344 Y168.207 E55.85545
G1 X142.128 Y168.423 E55.86691
G1 X55.773 Y82.068 E60.45208
G1 X55.558 Y82.283 E60.46353
G1 X141.912 Y168.638 E65.04870
G1 X141.697 Y168.854 E65.06015
G1 X55.342 Y82.499 E69.64532
G1 X55.126 Y82.715 E69.65678
G1 X141.481 Y169.070 E74.24194
G1 X141.265 Y169.285 E74.25340
G1 X55.061 Y83.081 E78.83056
G1 X55.069 Y83.520 E78.84705
G1 X141.049 Y169.501 E83.41236
G1 X140.945 Y169.605 E83.41788
G1 X136.374 Y165.033 E83.66063
G1 X136.150 Y165.033 E83.66902
G1 X55.597 Y84.480 E87.94615
;LAYER_CHANGE
;Z:0.6
;HEIGHT:0.28
G1 E86.94615 F3000.000
G92 E0
G1 Z1.320 F7200.000
M104 S175 ; set temperature
M140 S32 ; set bed temperature
G1 X84.832 Y104.974
G1 Z0.600
G1 E1.00000 F3000.000
;TYPE:Perimeter
;WIDTH:0.39
G1 F3900.000
G1 X140.421 Y160.563 E3.79277
G1 X140.421 Y161.213 E3.81588
G1 X145.153 Y165.946 E4.05363
G1 X140.945 Y170.153 E4.26501
G1 X136.213 Y165.421 E4.50276
G1 X135.563 Y165.421 E4.52587
G1 X55.345 Y85.203 E8.55598
G1 X55.345 Y84.552 E8.57909
G1 X54.748 Y83.956 E8.60906
G1 X54.726 Y82.680 E8.65437
G1 X57.680 Y79.726 E8.80279
G1 X58.956 Y79.748 E8.84810
G1 X59.552 Y80.345 E8.87807
G1 X60.203 Y80.345 E8.90118
G1 X84.794 Y104.936 E10.13665
G1 X85.028 Y104.703 F7200.000
;TYPE:External perimeter
G1 F2145.000
G1 X140.751 Y160.426 E12.93615
G1 X140.751 Y161.077 E12.95926
G1 X145.619 Y165.946 E13.20387
G1 X140.945 Y170.619 E13.43869
G1 X136.077 Y165.751 E13.68331
G1 X135.426 Y165.751 E13.70642
G1 X55.015 Y85.339 E17.74624
G1 X55.015 Y84.689 E17.76935
G1 X54.421 Y84.095 E17.79920
G1 X54.394 Y82.546 E17.85422
G1 X57.546 Y79.394 E18.01258
G1 X59.095 Y79.421 E18.06760
G1 X59.689 Y80.015 E18.09745
G1 X60.339 Y80.015 E18.12056
G1 X84.991 Y104.666 E19.35903
G1 X84.939 Y105.042 F7200.000
G1 E18.35903 F3000.000
G92 E0
G1 Z1.600 F7200.000
G1 X140.840 Y169.908
G1 Z0.600
G1 E1.00000 F3000.000
;TYPE:Solid infill
;WIDTH:0.390691
G1 F4500.000
G1 X144.803 Y165.945 E1.19949
G1 X144.569 Y165.711 E1.21126
G1 X140.711 Y169.569 E1.40546
G1 X140.478 Y169.335 E1.41723
G1 X144.335 Y165.478 E1.61144
G1 X144.101 Y165.244 E1.62321
G1 X140.244 Y169.101 E1.81741
G1 X140.010 Y168.868 E1.82918
G1 X143.868 Y165.010 E2.02338
G1 X143.634 Y164.776 E2.03515
G1 X139.776 Y168.634 E2.22936
G1 X139.543 Y168.400 E2.24113
G1 X143.400 Y164.543 E2.43533
G1 X143.166 Y164.309 E2.44710
G1 X139.309 Y168.166 E2.64130
G1 X139.075 Y167.933 E2.65307
G1 X142.933 Y164.075 E2.84728
G1 X142.699 Y163.841 E2.85905
G1 X138.841 Y167.699 E3.05325
G1 X138.608 Y167.465 E3.06502
G1 X142.465 Y163.608 E3.25922
G1 X142.231 Y163.374 E3.27099
G1 X138.374 Y167.231 E3.46520
G1 X138.140 Y166.997 E3.47697
G1 X141.997 Y163.140 E3.67117
G1 X141.764 Y162.906 E3.68294
G1 X137.906 Y166.764 E3.87715
G1 X137.672 Y166.530 E3.88891
G1 X141.530 Y162.672 E4.08312
G1 X141.296 Y162.439 E4.09489
G1 X137.439 Y166.296 E4.28909
G1 X137.205 Y166.062 E4.30086
G1 X141.062 Y162.205 E4.49507
G1 X140.829 Y161.971 E4.50684
G1 X136.971 Y165.829 E4.70104
G1 X136.737 Y165.595 E4.71281
G1 X140.595 Y161.737 E4.90701
G1 X140.361 Y161.504 E4.91878
G1 X136.504 Y165.361 E5.11299
G1 X136.316 Y165.173 E5.12245
G1 X136.224 Y165.173 E5.12571
G1 X140.173 Y161.224 E5.32453
G1 X140.173 Y160.756 E5.34118
G1 X135.756 Y165.173 E5.56354
G1 X135.665 Y165.173 E5.56679
G1 X135.477 Y164.985 E5.57626
G1 X139.985 Y160.477 E5.80322
G1 X139.751 Y160.243 E5.81499
G1 X135.243 Y164.751 E6.04194
G1 X135.009 Y164.517 E6.05371
G1 X139.517 Y160.009 E6.28067
G1 X139.284 Y159.776 E6.29243
G1 X134.776 Y164.284 E6.51939
G1 X134.542 Y164.050 E6.53116
G1 X139.050 Y159.542 E6.75812
G1 X138.816 Y159.308 E6.76988
G1 X134.308 Y163.816 E6.99684
G1 X134.074 Y163.582 E7.00861
G1 X138.582 Y159.074 E7.23556
G1 X138.349 Y158.841 E7.24733
G1 X133.841 Y163.349 E7.47429
G1 X133.607 Y163.115 E7.48606
G1 X138.115 Y158.607 E7.71301
G1 X137.881 Y158.373 E7.72478
G1 X133.373 Y162.881 E7.95174
G1 X133.139 Y162.647 E7.96351
G1 X137.647 Y158.139 E8.19046
G1 X137.414 Y157.906 E8.20223
G1 X132.906 Y162.414 E8.42919
G1 X132.672 Y162.180 E8.44096
G1 X137.180 Y157.672 E8.66791
G1 X136.946 Y157.438 E8.67968
G1 X132.438 Y161.946 E8.90664
G1 X132.204 Y161.712 E8.91841
G1 X136.712 Y157.204 E9.14536
G1 X136.478 Y156.970 E9.15713
G1 X131.970 Y161.478 E9.38409
G1 X131.737 Y161.245 E9.39586
G1 X136.245 Y156.737 E9.62281
G1 X136.011 Y156.503 E9.63458
G1 X131.503 Y161.011 E9.86154
G1 X131.269 Y160.777 E9.87331
G1 X135.777 Y156.269 E10.10026
G1 X135.543 Y156.035 E10.11203
G1 X131.035 Y160.543 E10.33899
G1 X130.802 Y160.310 E10.35076
G1 X135.310 Y155.802 E10.57771
G1 X135.076 Y155.568 E10.58948
G1 X130.568 Y160.076 E10.81644
G1 X130.334 Y159.842 E10.82821
G1 X134.842 Y155.334 E11.05516
G1 X134.608 Y155.100 E11.06693
G1 X130.100 Y159.608 E11.29389
G1 X129.866 Y159.375 E11.30565
G1 X134.375 Y154.866 E11.53261
G1 X134.141 Y154.633 E11.54438
G1 X129.633 Y159.141 E11.77133
G1 X129.399 Y158.907 E11.78310
G1 X133.907 Y154.399 E12.01006
G1 X133.673 Y154.165 E12.02183
G1 X129.165 Y158.673 E12.24878
G1 X128.931 Y158.439 E12.26055
G1 X133.439 Y153.931 E12.48751
G1 X133.206 Y153.698 E12.49928
G1 X128.698 Y158.206 E12.72623
G1 X128.464 Y157.972 E12.73800
G1 X132.972 Y153.464 E12.96496
G1 X132.738 Y153.230 E12.97673
G1 X128.230 Y157.738 E13.20368
G1 X127.996 Y157.504 E13.21545
G1 X132.504 Y152.996 E13.44241
G1 X132.271 Y152.763 E13.45418
G1 X127.763 Y157.271 E13.68113
G1 X127.529 Y157.037 E13.69290
G1 X132.037 Y152.529 E13.91986
G1 X131.803 Y152.295 E13.93163
G1 X127.295 Y156.803 E14.15858
G1 X127.061 Y156.569 E14.17035
G1 X131.569 Y152.061 E14.39731
G1 X131.335 Y151.827 E14.40908
G1 X126.827 Y156.336 E14.63603
G1 X126.594 Y156.102 E14.64780
G1 X131.102 Y151.594 E14.87476
G1 X130.868 Y151.360 E14.88653
G1 X126.360 Y155.868 E15.11348
G1 X126.126 Y155.634 E15.12525
G1 X130.634 Y151.126 E15.35221
G1 X130.400 Y150.892 E15.36398
G1 X125.892 Y155.400 E15.59093
G1 X125.659 Y155.167 E15.60270
G1 X130.167 Y150.659 E15.82966
G1 X129.933 Y150.425 E15.84142
G1 X125.425 Y154.933 E16.06838
G1 X125.191 Y154.699 E16.08015
G1 X129.699 Y150.191 E16.30710
G1 X129.465 Y149.957 E16.31887
G1 X124.957 Y154.465 E16.54583
G1 X124.724 Y154.232 E16.55760
G1 X129.232 Y149.724 E16.78455
G1 X128.998 Y149.490 E16.79632
G1 X124.490 Y153.998 E17.02328
G1 X124.256 Y153.764 E17.03505
G1 X128.764 Y149.256 E17.26200
G1 X128.530 Y149.022 E17.27377
G1 X124.022 Y153.530 E17.50073
G1 X123.788 Y153.296 E17.51250
G1 X128.296 Y148.788 E17.73945
G1 X128.063 Y148.555 E17.75122
G1 X123.555 Y153.063 E17.97818
G1 X123.321 Y152.829 E17.98995
G1 X127.829 Y148.321 E18.21690
G1 X127.595 Y148.087 E18.22867
G1 X123.087 Y152.595 E18.45563
G1 X122.853 Y152.361 E18.46740
G1 X127.361 Y147.853 E18.69435
G1 X127.128 Y147.620 E18.70612
G1 X122.620 Y152.128 E18.93308
G1 X122.386 Y151.894 E18.94485
G1 X126.894 Y147.386 E19.17180
G1 X126.660 Y147.152 E19.18357
G1 X122.152 Y151.660 E19.41053
G1 X121.918 Y151.426 E19.42230
G1 X126.426 Y146.918 E19.64925
G1 X126.193 Y146.685 E19.66102
G1 X121.685 Y151.193 E19.88798
G1 X121.451 Y150.959 E19.89975
G1 X125.959 Y146.451 E20.12670
G1 X125.725 Y146.217 E20.13847
G1 X121.217 Y150.725 E20.36543
G1 X120.983 Y150.491 E20.37719
G1 X125.491 Y145.983 E20.60415
G1 X125.257 Y145.749 E20.61592
G1 X120.749 Y150.257 E20.84288
G1 X120.516 Y150.024 E20.85464
G1 X125.024 Y145.516 E21.08160
G1 X124.790 Y145.282 E21.09337
G1 X120.282 Y149.790 E21.32032
G1 X120.048 Y149.556 E21.33209
G1 X124.556 Y145.048 E21.55905
G1 X124.322 Y144.814 E21.57082
G1 X119.814 Y149.322 E21.79777
G1 X119.581 Y149.089 E21.80954
G1 X124.089 Y144.581 E22.03650
G1 X123.855 Y144.347 E22.04827
G1 X119.347 Y148.855 E22.27522
G1 X119.113 Y148.621 E22.28699
G1 X123.621 Y144.113 E22.51395
G1 X123.387 Y143.879 E22.52572
G1 X118.879 Y148.387 E22.75267
G1 X118.645 Y148.154 E22.76444
G1 X123.154 Y143.645 E22.99140
G1 X122.920 Y143.412 E23.00317
G1 X118.412 Y147.920 E23.23012
G1 X118.178 Y147.686 E23.24189
G1 X122.686 Y143.178 E23.46885
G1 X122.452 Y142.944 E23.48062
G1 X117.944 Y147.452 E23.70757
G1 X117.710 Y147.218 E23.71934
G1 X122.218 Y142.710 E23.94630
G1 X121.985 Y142.477 E23.95807
G1 X117.477 Y146.985 E24.18502
G1 X117.243 Y146.751 E24.19679
G1 X121.751 Y142.243 E24.42375
G1 X121.517 Y142.009 E24.43552
G1 X117.009 Y146.517 E24.66247
G1 X116.775 Y146.283 E24.67424
G1 X121.283 Y141.775 E24.90120
G1 X121.050 Y141.542 E24.91296
G1 X116.542 Y146.050 E25.13992
G1 X116.308 Y145.816 E25.15169
G1 X120.816 Y141.308 E25.37865
G1 X120.582 Y141.074 E25.39041
G1 X116.074 Y145.582 E25.61737
G1 X115.840 Y145.348 E25.62914
G1 X120.348 Y140.840 E25.85609
G1 X120.114 Y140.606 E25.86786
G1 X115.606 Y145.114 E26.09482
G1 X115.373 Y144.881 E26.10659
G1 X119.881 Y140.373 E26.33354
G1 X119.647 Y140.139 E26.34531
G1 X115.139 Y144.647 E26.57227
G1 X114.905 Y144.413 E26.58404
G1 X119.413 Y139.905 E26.81099
G1 X119.179 Y139.671 E26.82276
G1 X114.671 Y144.179 E27.04972
G1 X114.438 Y143.946 E27.06149
G1 X118.946 Y139.438 E27.28844
G1 X118.712 Y139.204 E27.30021
G1 X114.204 Y143.712 E27.52717
