; generated by PrusaSlicer 2.3.3 on 2021-08-21 at 03:40:12 UTC

; 

; external perimeters extrusion width = 0.39mm
; perimeters extrusion width = 0.39mm
; infill extrusion width = 0.39mm
; solid infill extrusion width = 0.39mm
; top infill extrusion width = 0.35mm
; first layer extrusion width = 0.37mm

M201 X9000 Y9000 Z500 E10000 ; sets maximum accelerations, mm/sec^2
M203 X500 Y500 Z12 E120 ; sets maximum feedrates, mm/sec
M204 P1500 R1500 T1500 ; sets acceleration (P, T) and retract acceleration (R), mm/sec^2
M205 X10.00 Y10.00 Z0.20 E2.50 ; sets the jerk limits, mm/sec
M205 S0 T0 ; sets the minimum extruding and travel feed rate, mm/sec
M107
M190 S38 ; set bed temperature and wait for it to be reached
;TYPE:Custom
M109 S185 ; start_custom set temperature and wait for it to be reached
G28 ; home all axes
G1 Z5 F5000 ; lift nozzle
G28 ; home all axes
G1 Z5 F5000 ; lift nozzle ; end_custom
G21 ; set units to millimeters
G90 ; use absolute coordinates
M82 ; use absolute distances for extrusion
G92 E0
; Filament gcode
;LAYER_CHANGE
;Z:0.35
;HEIGHT:0.35
G1 E-1.00000 F2400.000
G92 E0
G1 Z1.000 F7200.000
G1 X95.147 Y56.663
G1 Z0.350
G1 E1.00000 F2400.000
;TYPE:Skirt
;WIDTH:0.37
G1 F1200.000
G1 X96.679 Y56.257 E1.06800
G1 X97.551 Y56.187 E1.10552
G1 X102.326 Y56.166 E1.31043
G1 X103.186 Y56.221 E1.34740
G1 X104.032 Y56.383 E1.38438
G1 X104.851 Y56.650 E1.42135
G1 X105.631 Y57.017 E1.45832
G1 X106.874 Y57.891 E1.52355
G1 X108.527 Y59.572 E1.62473
G1 X109.347 Y60.641 E1.68249
G1 X109.945 Y61.854 E1.74054
G1 X110.258 Y62.963 E1.78999
G1 X110.547 Y64.948 E1.87604
G1 X110.560 Y179.827 E6.80556
G1 X110.378 Y187.300 E7.12630
G1 X110.273 Y188.233 E7.16660
G1 X110.041 Y189.143 E7.20691
G1 X109.688 Y190.014 E7.24721
G1 X109.220 Y190.828 E7.28751
G1 X108.645 Y191.571 E7.32781
G1 X107.974 Y192.228 E7.36811
G1 X107.221 Y192.788 E7.40841
G1 X106.398 Y193.241 E7.44872
G1 X105.190 Y193.670 E7.50371
G1 X103.924 Y193.867 E7.55871
G1 X96.195 Y193.874 E7.89033
G1 X94.938 Y193.701 E7.94477
G1 X93.741 Y193.303 E7.99893
G1 X92.630 Y192.690 E8.05337
G1 X91.651 Y191.883 E8.10782
G1 X90.840 Y190.916 E8.16198
G1 X90.217 Y189.810 E8.21642
G1 X89.807 Y188.610 E8.27086
G1 X89.625 Y187.354 E8.32531
G1 X89.440 Y179.833 E8.64813
G1 X89.447 Y65.066 E13.57281
G1 X89.824 Y62.593 E13.68018
G1 X90.106 Y61.724 E13.71937
G1 X90.497 Y60.906 E13.75828
G1 X91.457 Y59.589 E13.82821
G1 X92.919 Y58.082 E13.91830
G1 X93.748 Y57.408 E13.96415
G1 X95.101 Y56.688 E14.02989
G1 X95.239 Y56.949 F7200.000
G1 F1200.000
G1 X96.747 Y56.546 E14.09690
G1 X97.562 Y56.482 E14.13199
G1 X102.320 Y56.461 E14.33614
G1 X103.148 Y56.514 E14.37177
G1 X103.964 Y56.670 E14.40739
G1 X104.753 Y56.928 E14.44302
G1 X105.509 Y57.286 E14.47892
G1 X106.692 Y58.124 E14.54111
G1 X108.322 Y59.785 E14.64099
G1 X109.106 Y60.812 E14.69641
G1 X109.676 Y61.978 E14.75211
G1 X109.972 Y63.033 E14.79913
G1 X110.253 Y64.980 E14.88353
G1 X110.265 Y179.827 E19.81166
G1 X110.083 Y187.290 E20.13197
G1 X109.981 Y188.190 E20.17086
G1 X109.756 Y189.068 E20.20974
G1 X109.412 Y189.906 E20.24863
G1 X108.957 Y190.690 E20.28751
G1 X108.399 Y191.404 E20.32640
G1 X107.748 Y192.034 E20.36528
G1 X107.016 Y192.569 E20.40417
G1 X106.218 Y192.999 E20.44305
G1 X105.075 Y193.395 E20.49496
G1 X103.879 Y193.575 E20.54686
G1 X96.208 Y193.579 E20.87602
G1 X95.004 Y193.413 E20.92820
G1 X93.850 Y193.029 E20.98037
G1 X92.787 Y192.440 E21.03255
G1 X91.854 Y191.669 E21.08445
G1 X91.075 Y190.736 E21.13663
G1 X90.482 Y189.681 E21.18853
G1 X90.091 Y188.530 E21.24071
G1 X89.919 Y187.327 E21.29289
G1 X89.735 Y179.829 E21.61469
G1 X89.742 Y65.079 E26.53865
G1 X90.110 Y62.665 E26.64346
G1 X90.382 Y61.827 E26.68126
G1 X90.761 Y61.038 E26.71879
G1 X91.684 Y59.778 E26.78585
G1 X93.122 Y58.296 E26.87445
G1 X93.940 Y57.635 E26.91957
G1 X95.192 Y56.974 E26.98033
G1 X95.329 Y57.237 F7200.000
G1 F1200.000
G1 X95.420 Y57.190 E26.98471
G1 X96.822 Y56.833 E27.04682
G1 X102.320 Y56.756 E27.28276
G1 X103.118 Y56.807 E27.31705
G1 X103.908 Y56.961 E27.35160
G1 X104.667 Y57.211 E27.38589
G1 X105.388 Y57.556 E27.42018
G1 X106.516 Y58.361 E27.47963
G1 X108.121 Y60.001 E27.57812
G1 X108.871 Y60.994 E27.63149
G1 X109.410 Y62.108 E27.68460
G1 X109.685 Y63.105 E27.72897
G1 X109.960 Y65.012 E27.81164
G1 X109.970 Y179.827 E32.73840
G1 X109.788 Y187.279 E33.05828
G1 X109.689 Y188.147 E33.09575
G1 X109.470 Y188.992 E33.13322
G1 X109.139 Y189.794 E33.17043
G1 X108.697 Y190.547 E33.20790
G1 X108.156 Y191.232 E33.24538
G1 X107.530 Y191.832 E33.28258
G1 X106.821 Y192.343 E33.32006
G1 X106.049 Y192.751 E33.35753
G1 X104.971 Y193.117 E33.40640
G1 X103.844 Y193.281 E33.45527
G1 X96.221 Y193.285 E33.78236
G1 X95.074 Y193.127 E33.83202
G1 X93.970 Y192.760 E33.88196
G1 X92.952 Y192.196 E33.93189
G1 X92.056 Y191.454 E33.98182
G1 X91.315 Y190.565 E34.03149
G1 X90.746 Y189.550 E34.08142
G1 X90.375 Y188.447 E34.13135
G1 X90.212 Y187.301 E34.18102
G1 X90.030 Y179.832 E34.50162
G1 X90.036 Y65.092 E39.42513
G1 X90.395 Y62.742 E39.52713
G1 X90.657 Y61.935 E39.56354
G1 X91.021 Y61.176 E39.59969
G1 X91.908 Y59.970 E39.66390
G1 X93.330 Y58.506 E39.75150
G1 X94.131 Y57.861 E39.79561
G1 X95.283 Y57.261 E39.85133
G1 E38.85133 F2400.000
G92 E0
G1 Z1.350 F7200.000
G1 X97.300 Y70.165
G1 Z0.350
G1 E1.00000 F2400.000
;TYPE:Perimeter
G1 F1440.000
G1 X97.300 Y65.775 E1.18840
G1 X97.475 Y65.600 E1.19902
G1 X97.475 Y64.670 E1.23891
G1 X98.097 Y64.026 E1.27734
G1 X101.903 Y64.026 E1.44066
G1 X102.525 Y64.670 E1.47908
G1 X102.525 Y65.600 E1.51898
G1 X102.700 Y65.775 E1.52960
G1 X102.700 Y179.417 E6.40602
G1 X102.525 Y179.592 E6.41664
G1 X102.525 Y186.021 E6.69251
G1 X97.475 Y186.021 E6.90923
G1 X97.475 Y179.592 E7.18510
G1 X97.300 Y179.417 E7.19572
G1 X97.300 Y70.218 E11.88149
G1 X97.005 Y70.218 F7200.000
G1 F1440.000
G1 X97.005 Y65.652 E12.07739
G1 X97.180 Y65.477 E12.08801
G1 X97.180 Y64.551 E12.12777
G1 X97.972 Y63.731 E12.17668
G1 X102.028 Y63.731 E12.35074
G1 X102.820 Y64.551 E12.39965
G1 X102.820 Y65.477 E12.43942
G1 X102.995 Y65.652 E12.45004
G1 X102.995 Y179.539 E17.33695
G1 X102.820 Y179.714 E17.34757
G1 X102.820 Y186.316 E17.63085
G1 X97.180 Y186.316 E17.87287
G1 X97.180 Y179.714 E18.15615
G1 X97.005 Y179.539 E18.16677
G1 X97.005 Y70.270 E22.85554
G1 X96.710 Y70.270 F7200.000
;TYPE:External perimeter
G1 F720.000
G1 X96.710 Y65.530 E23.05893
G1 X96.885 Y65.355 E23.06955
G1 X96.885 Y64.432 E23.10918
G1 X97.847 Y63.436 E23.16858
G1 X102.153 Y63.436 E23.35337
G1 X103.115 Y64.432 E23.41277
G1 X103.115 Y65.355 E23.45241
G1 X103.290 Y65.530 E23.46303
G1 X103.290 Y179.661 E28.36042
G1 X103.115 Y179.836 E28.37104
G1 X103.115 Y186.611 E28.66173
G1 X96.885 Y186.611 E28.92906
G1 X96.885 Y179.836 E29.21976
G1 X96.710 Y179.661 E29.23038
G1 X96.710 Y70.323 E33.92213
G1 X97.013 Y70.095 F7200.000
G1 E32.92213 F2400.000
G92 E0
G1 Z1.350 F7200.000
G1 X101.260 Y64.114
G1 Z0.350
G1 E1.00000 F2400.000
;TYPE:Solid infill
;WIDTH:0.370529
G1 F1680.000
G1 X102.304 Y65.159 E1.06349
G1 X102.304 Y65.576 E1.08145
G1 X100.975 Y64.247 E1.16227
G1 X100.557 Y64.247 E1.18023
G1 X102.479 Y66.169 E1.29708
G1 X102.479 Y66.587 E1.31504
G1 X100.139 Y64.247 E1.45730
G1 X99.721 Y64.247 E1.47526
G1 X102.479 Y67.005 E1.64291
G1 X102.479 Y67.423 E1.66087
G1 X99.304 Y64.247 E1.85392
G1 X98.886 Y64.247 E1.87188
G1 X102.479 Y67.840 E2.09033
G1 X102.479 Y68.258 E2.10829
G1 X98.468 Y64.247 E2.35214
G1 X98.191 Y64.247 E2.36405
G1 X98.122 Y64.319 E2.36833
G1 X102.479 Y68.676 E2.63322
G1 X102.479 Y69.094 E2.65118
G1 X97.916 Y64.531 E2.92856
G1 X97.711 Y64.744 E2.94126
G1 X102.479 Y69.511 E3.23112
G1 X102.479 Y69.929 E3.24908
G1 X97.696 Y65.146 E3.53986
G1 X97.696 Y65.564 E3.55782
G1 X102.479 Y70.347 E3.84860
G1 X102.479 Y70.765 E3.86656
G1 X97.551 Y65.836 E4.16617
G1 X97.521 Y65.866 E4.16798
G1 X97.521 Y66.224 E4.18338
G1 X102.479 Y71.183 E4.48480
G1 X102.479 Y71.600 E4.50276
G1 X97.521 Y66.642 E4.80418
G1 X97.521 Y67.060 E4.82214
G1 X102.479 Y72.018 E5.12356
G1 X102.479 Y72.436 E5.14152
G1 X97.521 Y67.478 E5.44294
G1 X97.521 Y67.896 E5.46090
G1 X102.479 Y72.854 E5.76232
G1 X102.479 Y73.272 E5.78028
G1 X97.521 Y68.313 E6.08170
G1 X97.521 Y68.731 E6.09966
G1 X102.479 Y73.689 E6.40108
G1 X102.479 Y74.107 E6.41904
G1 X97.521 Y69.149 E6.72046
G1 X97.521 Y69.567 E6.73841
G1 X102.479 Y74.525 E7.03983
G1 X102.479 Y74.943 E7.05779
G1 X97.521 Y69.985 E7.35921
G1 X97.521 Y70.402 E7.37717
G1 X102.479 Y75.360 E7.67859
G1 X102.479 Y75.778 E7.69655
G1 X97.521 Y70.820 E7.99797
G1 X97.521 Y71.238 E8.01593
G1 X102.479 Y76.196 E8.31735
G1 X102.479 Y76.614 E8.33531
G1 X97.521 Y71.656 E8.63673
G1 X97.521 Y72.073 E8.65469
G1 X102.479 Y77.032 E8.95611
G1 X102.479 Y77.449 E8.97407
G1 X97.521 Y72.491 E9.27549
G1 X97.521 Y72.909 E9.29345
G1 X102.479 Y77.867 E9.59487
G1 X102.479 Y78.285 E9.61283
G1 X97.521 Y73.327 E9.91425
G1 X97.521 Y73.745 E9.93221
G1 X102.479 Y78.703 E10.23363
G1 X102.479 Y79.121 E10.25159
G1 X97.521 Y74.162 E10.55301
G1 X97.521 Y74.580 E10.57097
G1 X102.479 Y79.538 E10.87239
G1 X102.479 Y79.956 E10.89035
G1 X97.521 Y74.998 E11.19177
G1 X97.521 Y75.416 E11.20973
G1 X102.479 Y80.374 E11.51115
G1 X102.479 Y80.792 E11.52911
G1 X97.521 Y75.834 E11.83053
G1 X97.521 Y76.251 E11.84848
G1 X102.479 Y81.209 E12.14990
G1 X102.479 Y81.627 E12.16786
G1 X97.521 Y76.669 E12.46928
G1 X97.521 Y77.087 E12.48724
G1 X102.479 Y82.045 E12.78866
G1 X102.479 Y82.463 E12.80662
G1 X97.521 Y77.505 E13.10804
G1 X97.521 Y77.922 E13.12600
G1 X102.479 Y82.881 E13.42742
G1 X102.479 Y83.298 E13.44538
G1 X97.521 Y78.340 E13.74680
G1 X97.521 Y78.758 E13.76476
G1 X102.479 Y83.716 E14.06618
G1 X102.479 Y84.134 E14.08414
G1 X97.521 Y79.176 E14.38556
G1 X97.521 Y79.594 E14.40352
G1 X102.479 Y84.552 E14.70494
G1 X102.479 Y84.969 E14.72290
G1 X97.521 Y80.011 E15.02432
G1 X97.521 Y80.429 E15.04228
G1 X102.479 Y85.387 E15.34370
G1 X102.479 Y85.805 E15.36166
G1 X97.521 Y80.847 E15.66308
G1 X97.521 Y81.265 E15.68104
G1 X102.479 Y86.223 E15.98246
G1 X102.479 Y86.641 E16.00042
G1 X97.521 Y81.682 E16.30184
G1 X97.521 Y82.100 E16.31980
G1 X102.479 Y87.058 E16.62122
G1 X102.479 Y87.476 E16.63917
G1 X97.521 Y82.518 E16.94059
G1 X97.521 Y82.936 E16.95855
G1 X102.479 Y87.894 E17.25997
G1 X102.479 Y88.312 E17.27793
G1 X97.521 Y83.354 E17.57935
G1 X97.521 Y83.771 E17.59731
G1 X102.479 Y88.730 E17.89873
G1 X102.479 Y89.147 E17.91669
G1 X97.521 Y84.189 E18.21811
G1 X97.521 Y84.607 E18.23607
G1 X102.479 Y89.565 E18.53749
G1 X102.479 Y89.983 E18.55545
G1 X97.521 Y85.025 E18.85687
G1 X97.521 Y85.443 E18.87483
G1 X102.479 Y90.401 E19.17625
G1 X102.479 Y90.818 E19.19421
G1 X97.521 Y85.860 E19.49563
G1 X97.521 Y86.278 E19.51359
G1 X102.479 Y91.236 E19.81501
G1 X102.479 Y91.654 E19.83297
G1 X97.521 Y86.696 E20.13439
G1 X97.521 Y87.114 E20.15235
G1 X102.479 Y92.072 E20.45377
G1 X102.479 Y92.490 E20.47173
G1 X97.521 Y87.531 E20.77315
G1 X97.521 Y87.949 E20.79111
G1 X102.479 Y92.907 E21.09253
G1 X102.479 Y93.325 E21.11049
G1 X97.521 Y88.367 E21.41191
G1 X97.521 Y88.785 E21.42987
G1 X102.479 Y93.743 E21.73129
G1 X102.479 Y94.161 E21.74924
G1 X97.521 Y89.203 E22.05066
G1 X97.521 Y89.620 E22.06862
G1 X102.479 Y94.579 E22.37004
G1 X102.479 Y94.996 E22.38800
G1 X97.521 Y90.038 E22.68942
G1 X97.521 Y90.456 E22.70738
G1 X102.479 Y95.414 E23.00880
G1 X102.479 Y95.832 E23.02676
G1 X97.521 Y90.874 E23.32818
G1 X97.521 Y91.292 E23.34614
G1 X102.479 Y96.250 E23.64756
G1 X102.479 Y96.667 E23.66552
G1 X97.521 Y91.709 E23.96694
G1 X97.521 Y92.127 E23.98490
G1 X102.479 Y97.085 E24.28632
G1 X102.479 Y97.503 E24.30428
G1 X97.521 Y92.545 E24.60570
G1 X97.521 Y92.963 E24.62366
G1 X102.479 Y97.921 E24.92508
G1 X102.479 Y98.339 E24.94304
G1 X97.521 Y93.380 E25.24446
G1 X97.521 Y93.798 E25.26242
G1 X102.479 Y98.756 E25.56384
G1 X102.479 Y99.174 E25.58180
G1 X97.521 Y94.216 E25.88322
G1 X97.521 Y94.634 E25.90118
G1 X102.479 Y99.592 E26.20260
G1 X102.479 Y100.010 E26.22056
G1 X97.521 Y95.052 E26.52198
G1 X97.521 Y95.469 E26.53994
G1 X102.479 Y100.427 E26.84136
G1 X102.479 Y100.845 E26.85931
G1 X97.521 Y95.887 E27.16073
G1 X97.521 Y96.305 E27.17869
G1 X102.479 Y101.263 E27.48011
G1 X102.479 Y101.681 E27.49807
G1 X97.521 Y96.723 E27.79949
G1 X97.521 Y97.140 E27.81745
G1 X102.479 Y102.099 E28.11887
G1 X102.479 Y102.516 E28.13683
G1 X97.521 Y97.558 E28.43825
G1 X97.521 Y97.976 E28.45621
G1 X102.479 Y102.934 E28.75763
G1 X102.479 Y103.352 E28.77559
G1 X97.521 Y98.394 E29.07701
G1 X97.521 Y98.812 E29.09497
G1 X102.479 Y103.770 E29.39639
G1 X102.479 Y104.188 E29.41435
G1 X97.521 Y99.229 E29.71577
G1 X97.521 Y99.647 E29.73373
G1 X102.479 Y104.605 E30.03515
G1 X102.479 Y105.023 E30.05311
G1 X97.521 Y100.065 E30.35453
G1 X97.521 Y100.483 E30.37249
G1 X102.479 Y105.441 E30.67391
G1 X102.479 Y105.859 E30.69187
G1 X97.521 Y100.901 E30.99329
G1 X97.521 Y101.318 E31.01125
G1 X102.479 Y106.276 E31.31267
G1 X102.479 Y106.694 E31.33063
G1 X97.521 Y101.736 E31.63205
G1 X97.521 Y102.154 E31.65000
G1 X102.479 Y107.112 E31.95142
G1 X102.479 Y107.530 E31.96938
G1 X97.521 Y102.572 E32.27080
G1 X97.521 Y102.989 E32.28876
G1 X102.479 Y107.948 E32.59018
G1 X102.479 Y108.365 E32.60814
G1 X97.521 Y103.407 E32.90956
G1 X97.521 Y103.825 E32.92752
G1 X102.479 Y108.783 E33.22894
G1 X102.479 Y109.201 E33.24690
G1 X97.521 Y104.243 E33.54832
G1 X97.521 Y104.661 E33.56628
G1 X102.479 Y109.619 E33.86770
G1 X102.479 Y110.037 E33.88566
G1 X97.521 Y105.078 E34.18708
G1 X97.521 Y105.496 E34.20504
G1 X102.479 Y110.454 E34.50646
G1 X102.479 Y110.872 E34.52442
G1 X97.521 Y105.914 E34.82584
G1 X97.521 Y106.332 E34.84380
G1 X102.479 Y111.290 E35.14522
G1 X102.479 Y111.708 E35.16318
G1 X97.521 Y106.750 E35.46460
G1 X97.521 Y107.167 E35.48256
G1 X102.479 Y112.125 E35.78398
G1 X102.479 Y112.543 E35.80194
G1 X97.521 Y107.585 E36.10336
G1 X97.521 Y108.003 E36.12132
G1 X102.479 Y112.961 E36.42274
G1 X102.479 Y113.379 E36.44069
G1 X97.521 Y108.421 E36.74211
G1 X97.521 Y108.838 E36.76007
G1 X102.479 Y113.797 E37.06149
G1 X102.479 Y114.214 E37.07945
G1 X97.521 Y109.256 E37.38087
G1 X97.521 Y109.674 E37.39883
G1 X102.479 Y114.632 E37.70025
G1 X102.479 Y115.050 E37.71821
G1 X97.521 Y110.092 E38.01963
G1 X97.521 Y110.510 E38.03759
G1 X102.479 Y115.468 E38.33901
G1 X102.479 Y115.886 E38.35697
G1 X97.521 Y110.927 E38.65839
G1 X97.521 Y111.345 E38.67635
G1 X102.479 Y116.303 E38.97777
G1 X102.479 Y116.721 E38.99573
G1 X97.521 Y111.763 E39.29715
G1 X97.521 Y112.181 E39.31511
G1 X102.479 Y117.139 E39.61653
G1 X102.479 Y117.557 E39.63449
G1 X97.521 Y112.599 E39.93591
G1 X97.521 Y113.016 E39.95387
G1 X102.479 Y117.974 E40.25529
G1 X102.479 Y118.392 E40.27325
G1 X97.521 Y113.434 E40.57467
G1 X97.521 Y113.852 E40.59263
G1 X102.479 Y118.810 E40.89405
G1 X102.479 Y119.228 E40.91201
G1 X97.521 Y114.270 E41.21343
G1 X97.521 Y114.687 E41.23139
G1 X102.479 Y119.646 E41.53281
G1 X102.479 Y120.063 E41.55076
G1 X97.521 Y115.105 E41.85218
G1 X97.521 Y115.523 E41.87014
G1 X102.479 Y120.481 E42.17156
G1 X102.479 Y120.899 E42.18952
G1 X97.521 Y115.941 E42.49094
G1 X97.521 Y116.359 E42.50890
G1 X102.479 Y121.317 E42.81032
G1 X102.479 Y121.734 E42.82828
G1 X97.521 Y116.776 E43.12970
G1 X97.521 Y117.194 E43.14766
G1 X102.479 Y122.152 E43.44908
G1 X102.479 Y122.570 E43.46704
G1 X97.521 Y117.612 E43.76846
G1 X97.521 Y118.030 E43.78642
G1 X102.479 Y122.988 E44.08784
G1 X102.479 Y123.406 E44.10580
G1 X97.521 Y118.447 E44.40722
G1 X97.521 Y118.865 E44.42518
G1 X102.479 Y123.823 E44.72660
G1 X102.479 Y124.241 E44.74456
G1 X97.521 Y119.283 E45.04598
G1 X97.521 Y119.701 E45.06394
G1 X102.479 Y124.659 E45.36536
G1 X102.479 Y125.077 E45.38332
G1 X97.521 Y120.119 E45.68474
G1 X97.521 Y120.536 E45.70270
G1 X102.479 Y125.495 E46.00412
G1 X102.479 Y125.912 E46.02208
G1 X97.521 Y120.954 E46.32350
G1 X97.521 Y121.372 E46.34146
G1 X102.479 Y126.330 E46.64288
G1 X102.479 Y126.748 E46.66083
G1 X97.521 Y121.790 E46.96225
G1 X97.521 Y122.208 E46.98021
G1 X102.479 Y127.166 E47.28163
G1 X102.479 Y127.583 E47.29959
G1 X97.521 Y122.625 E47.60101
G1 X97.521 Y123.043 E47.61897
G1 X102.479 Y128.001 E47.92039
G1 X102.479 Y128.419 E47.93835
G1 X97.521 Y123.461 E48.23977
G1 X97.521 Y123.879 E48.25773
G1 X102.479 Y128.837 E48.55915
