; generated by Slic3r 1.2.8-dev on 2015-06-12 at 17:17:12

; external perimeters extrusion width = 0.35mm
; perimeters extrusion width = 0.52mm
; infill extrusion width = 0.52mm
; solid infill extrusion width = 0.52mm
; top infill extrusion width = 0.52mm

M107
G28
G92 X0 Y0 Z0 E0
G1 F5000 Y30 X30
G1 X220
G1 F100 E10

G28
G92 X0 Y0 Z0
G1 F4000 X101 Y127
G92 X0 Y0 Z0 E0
G21 ; set units to millimeters
G90 ; use absolute coordinates
M82 ; use absolute distances for extrusion
G92 E0
G1 E-0.70000 F1500.00000
G92 E0
G1 Z0.200 F5400.000
G1 Z0.400 F5400.000
G1 X-17.925 Y-15.854 F5400.000
G1 Z0.200 F5400.000
G1 E0.70000 F1500.00000
G1 X-17.901 Y-16.351 E0.71478 F1800.000
G1 X-17.654 Y-18.859 E0.78959
G1 X-17.460 Y-19.834 E0.81911
G1 X-16.728 Y-22.245 E0.89393
G1 X-16.348 Y-23.163 E0.92344
G1 X-15.200 Y-25.312 E0.99577
G1 X-14.608 Y-26.212 E1.02777
G1 X-13.009 Y-28.160 E1.10258
G1 X-12.306 Y-28.863 E1.13210
G1 X-10.358 Y-30.462 E1.20692
G1 X-9.532 Y-31.014 E1.23643
G1 X-7.310 Y-32.202 E1.31125
G1 X-6.391 Y-32.582 E1.34077
G1 X-3.980 Y-33.314 E1.41559
G1 X-3.005 Y-33.508 E1.44510
G1 X-0.497 Y-33.755 E1.51992
G1 X0.497 Y-33.755 E1.54943
G1 X3.005 Y-33.508 E1.62425
G1 X3.980 Y-33.314 E1.65377
G1 X6.391 Y-32.582 E1.72859
G1 X7.310 Y-32.202 E1.75810
G1 X9.532 Y-31.014 E1.83292
G1 X10.358 Y-30.462 E1.86244
G1 X12.241 Y-28.916 E1.93476
G1 X13.009 Y-28.160 E1.96676
G1 X14.608 Y-26.212 E2.04158
G1 X15.160 Y-25.386 E2.07109
G1 X16.348 Y-23.163 E2.14591
G1 X16.728 Y-22.245 E2.17543
G1 X17.460 Y-19.834 E2.25024
G1 X17.654 Y-18.859 E2.27976
G1 X17.901 Y-16.351 E2.35458
G1 X17.925 Y-15.854 E2.36935
G1 X17.925 Y15.854 E3.31080
G1 X17.901 Y16.351 E3.32558
G1 X17.654 Y18.859 E3.40040
G1 X17.460 Y19.834 E3.42991
G1 X16.728 Y22.245 E3.50473
G1 X16.348 Y23.164 E3.53425
G1 X15.160 Y25.386 E3.60906
G1 X14.608 Y26.212 E3.63858
G1 X13.009 Y28.160 E3.71340
G1 X12.306 Y28.863 E3.74291
G1 X10.358 Y30.462 E3.81773
G1 X9.532 Y31.014 E3.84725
G1 X7.310 Y32.202 E3.92206
G1 X6.391 Y32.582 E3.95158
G1 X3.980 Y33.314 E4.02640
G1 X3.005 Y33.508 E4.05591
G1 X0.497 Y33.755 E4.13073
G1 X-0.497 Y33.755 E4.16025
G1 X-3.005 Y33.508 E4.23506
G1 X-3.980 Y33.314 E4.26458
G1 X-6.391 Y32.582 E4.33940
G1 X-7.310 Y32.202 E4.36891
G1 X-9.532 Y31.014 E4.44373
G1 X-10.358 Y30.462 E4.47325
G1 X-12.306 Y28.863 E4.54807
G1 X-13.009 Y28.160 E4.57758
G1 X-14.608 Y26.212 E4.65240
G1 X-15.160 Y25.386 E4.68192
G1 X-16.348 Y23.164 E4.75673
G1 X-16.728 Y22.245 E4.78625
G1 X-17.460 Y19.834 E4.86107
G1 X-17.654 Y18.859 E4.89058
G1 X-17.901 Y16.351 E4.96540
G1 X-17.925 Y15.854 E4.98018
G1 X-17.925 Y-15.801 E5.92007
G1 X-17.568 Y-15.854 F5400.000
G1 X-17.545 Y-16.316 E5.93380 F1800.000
G1 X-17.298 Y-18.824 E6.00862
G1 X-17.118 Y-19.730 E6.03606
G1 X-16.387 Y-22.141 E6.11088
G1 X-16.033 Y-22.995 E6.13831
G1 X-14.885 Y-25.143 E6.21064
G1 X-14.332 Y-25.986 E6.24056
G1 X-12.733 Y-27.934 E6.31538
G1 X-12.080 Y-28.587 E6.34281
G1 X-10.132 Y-30.186 E6.41763
G1 X-9.364 Y-30.699 E6.44507
G1 X-7.141 Y-31.887 E6.51988
G1 X-6.287 Y-32.241 E6.54732
G1 X-3.876 Y-32.972 E6.62214
G1 X-2.886 Y-33.161 E6.65206
G1 X-0.462 Y-33.399 E6.72438
G1 X0.462 Y-33.399 E6.75182
G1 X2.970 Y-33.152 E6.82664
G1 X3.876 Y-32.972 E6.85408
G1 X6.287 Y-32.241 E6.92890
G1 X7.141 Y-31.887 E6.95633
G1 X9.364 Y-30.699 E7.03115
G1 X10.132 Y-30.186 E7.05859
G1 X12.015 Y-28.640 E7.13091
G1 X12.733 Y-27.934 E7.16083
G1 X14.332 Y-25.986 E7.23565
G1 X14.845 Y-25.217 E7.26309
G1 X16.033 Y-22.995 E7.33791
G1 X16.387 Y-22.141 E7.36534
G1 X17.118 Y-19.730 E7.44016
G1 X17.298 Y-18.824 E7.46760
G1 X17.545 Y-16.316 E7.54242
G1 X17.568 Y-15.854 E7.55615
G1 X17.568 Y15.854 E8.49760
G1 X17.545 Y16.316 E8.51134
G1 X17.298 Y18.824 E8.58615
G1 X17.118 Y19.730 E8.61359
G1 X16.387 Y22.141 E8.68841
G1 X16.033 Y22.995 E8.71585
G1 X14.845 Y25.217 E8.79066
G1 X14.332 Y25.986 E8.81810
G1 X12.733 Y27.934 E8.89292
G1 X12.080 Y28.587 E8.92036
G1 X10.132 Y30.186 E8.99517
G1 X9.364 Y30.699 E9.02261
G1 X7.141 Y31.887 E9.09743
G1 X6.287 Y32.241 E9.12487
G1 X3.876 Y32.972 E9.19969
G1 X2.970 Y33.152 E9.22712
G1 X0.462 Y33.399 E9.30194
G1 X-0.462 Y33.399 E9.32938
G1 X-2.970 Y33.152 E9.40420
G1 X-3.876 Y32.972 E9.43163
G1 X-6.287 Y32.241 E9.50645
G1 X-7.141 Y31.887 E9.53389
G1 X-9.363 Y30.699 E9.60871
G1 X-10.132 Y30.186 E9.63614
G1 X-12.080 Y28.587 E9.71096
G1 X-12.733 Y27.934 E9.73840
G1 X-14.332 Y25.986 E9.81322
G1 X-14.845 Y25.217 E9.84066
G1 X-16.033 Y22.995 E9.91547
G1 X-16.387 Y22.141 E9.94291
G1 X-17.118 Y19.730 E10.01773
G1 X-17.298 Y18.824 E10.04517
G1 X-17.545 Y16.316 E10.11998
G1 X-17.568 Y15.854 E10.13372
G1 X-17.568 Y-15.801 E11.07361
G1 X-17.211 Y-15.854 F5400.000
G1 X-17.190 Y-16.281 E11.08630 F1800.000
G1 X-16.943 Y-18.789 E11.16112
G1 X-16.776 Y-19.626 E11.18648
G1 X-16.045 Y-22.038 E11.26130
G1 X-15.718 Y-22.827 E11.28666
G1 X-14.570 Y-24.975 E11.35898
G1 X-14.056 Y-25.759 E11.38682
G1 X-12.457 Y-27.707 E11.46164
G1 X-11.853 Y-28.311 E11.48700
G1 X-9.905 Y-29.910 E11.56182
G1 X-9.195 Y-30.384 E11.58718
G1 X-6.973 Y-31.572 E11.66199
G1 X-6.184 Y-31.899 E11.68736
G1 X-3.772 Y-32.630 E11.76217
G1 X-2.935 Y-32.797 E11.78753
G1 X-0.427 Y-33.044 E11.86235
G1 X0.427 Y-33.044 E11.88771
G1 X2.935 Y-32.797 E11.96253
G1 X3.772 Y-32.630 E11.98789
G1 X6.184 Y-31.899 E12.06270
G1 X6.973 Y-31.572 E12.08806
G1 X9.195 Y-30.384 E12.16288
G1 X9.905 Y-29.910 E12.18824
G1 X11.788 Y-28.364 E12.26056
G1 X12.457 Y-27.707 E12.28841
G1 X14.056 Y-25.759 E12.36322
G1 X14.530 Y-25.049 E12.38858
G1 X15.718 Y-22.827 E12.46340
G1 X16.045 Y-22.038 E12.48876
G1 X16.776 Y-19.626 E12.56358
G1 X16.943 Y-18.789 E12.58894
G1 X17.190 Y-16.281 E12.66375
G1 X17.211 Y-15.854 E12.67645
G1 X17.211 Y15.854 E13.61790
G1 X17.190 Y16.281 E13.63059
G1 X16.943 Y18.789 E13.70541
G1 X16.776 Y19.626 E13.73077
G1 X16.045 Y22.038 E13.80559
G1 X15.718 Y22.827 E13.83095
G1 X14.530 Y25.049 E13.90576
G1 X14.056 Y25.759 E13.93112
G1 X12.457 Y27.707 E14.00594
G1 X11.853 Y28.311 E14.03130
G1 X9.905 Y29.910 E14.10612
G1 X9.195 Y30.384 E14.13148
G1 X6.973 Y31.572 E14.20629
G1 X6.184 Y31.899 E14.23165
G1 X3.772 Y32.630 E14.30647
G1 X2.935 Y32.797 E14.33183
G1 X0.427 Y33.044 E14.40665
G1 X-0.427 Y33.044 E14.43201
G1 X-2.935 Y32.797 E14.50682
G1 X-3.772 Y32.630 E14.53218
G1 X-6.184 Y31.899 E14.60700
G1 X-6.973 Y31.572 E14.63236
G1 X-9.195 Y30.384 E14.70718
G1 X-9.905 Y29.910 E14.73254
G1 X-11.853 Y28.311 E14.80736
G1 X-12.457 Y27.707 E14.83272
G1 X-14.056 Y25.759 E14.90753
G1 X-14.530 Y25.049 E14.93289
G1 X-15.718 Y22.827 E15.00771
G1 X-16.045 Y22.038 E15.03307
G1 X-16.776 Y19.626 E15.10789
G1 X-16.943 Y18.789 E15.13325
G1 X-17.190 Y16.281 E15.20807
G1 X-17.211 Y15.854 E15.22076
G1 X-17.211 Y-15.801 E16.16065
G1 E15.46065 F1500.00000
G92 E0
G1 Z0.400 F5400.000
G1 X-8.693 Y7.161 F5400.000
G1 Z0.200 F5400.000
G1 E0.70000 F1500.00000
G1 X-6.830 Y5.632 E0.77156 F900.000
G1 X-4.705 Y4.496 E0.84312
G1 X-2.398 Y3.796 E0.91468
G1 X-0.000 Y3.560 E0.98623
G1 X2.398 Y3.796 E1.05779
G1 X4.705 Y4.496 E1.12935
G1 X6.830 Y5.632 E1.20091
G1 X8.693 Y7.161 E1.27247
G1 X10.222 Y9.024 E1.34403
G1 X11.358 Y11.149 E1.41558
G1 X12.058 Y13.455 E1.48714
G1 X12.294 Y15.854 E1.55870
G1 X12.058 Y18.252 E1.63026
G1 X11.358 Y20.559 E1.70182
G1 X10.222 Y22.684 E1.77338
G1 X8.693 Y24.547 E1.84493
G1 X6.830 Y26.076 E1.91649
G1 X4.705 Y27.212 E1.98805
G1 X2.398 Y27.912 E2.05961
G1 X-0.000 Y28.148 E2.13117
G1 X-2.398 Y27.912 E2.20273
G1 X-4.705 Y27.212 E2.27428
G1 X-6.830 Y26.076 E2.34584
G1 X-8.693 Y24.547 E2.41740
G1 X-10.222 Y22.684 E2.48896
G1 X-11.358 Y20.559 E2.56052
G1 X-12.058 Y18.252 E2.63208
G1 X-12.294 Y15.854 E2.70364
G1 X-12.058 Y13.455 E2.77519
G1 X-11.358 Y11.149 E2.84675
G1 X-10.222 Y9.024 E2.91831
G1 X-8.727 Y7.201 E2.98831
G1 X-8.947 Y6.907 F5400.000
G1 X-7.030 Y5.333 E3.06196 F720.000
G1 X-4.842 Y4.164 E3.13560
G1 X-2.468 Y3.444 E3.20925
G1 X-0.000 Y3.201 E3.28290
G1 X2.468 Y3.444 E3.35654
G1 X4.842 Y4.164 E3.43019
G1 X7.030 Y5.333 E3.50384
G1 X8.947 Y6.907 E3.57749
G1 X10.521 Y8.824 E3.65113
G1 X11.690 Y11.012 E3.72478
G1 X12.410 Y13.385 E3.79843
G1 X12.653 Y15.854 E3.87207
G1 X12.410 Y18.322 E3.94572
G1 X11.690 Y20.696 E4.01937
G1 X10.521 Y22.884 E4.09301
G1 X8.947 Y24.801 E4.16666
G1 X7.030 Y26.375 E4.24031
G1 X4.842 Y27.544 E4.31395
G1 X2.468 Y28.264 E4.38760
G1 X-0.000 Y28.507 E4.46125
G1 X-2.468 Y28.264 E4.53489
G1 X-4.842 Y27.544 E4.60854
G1 X-7.030 Y26.375 E4.68219
G1 X-8.947 Y24.801 E4.75583
G1 X-10.521 Y22.884 E4.82948
G1 X-11.690 Y20.696 E4.90313
G1 X-12.410 Y18.322 E4.97678
G1 X-12.653 Y15.854 E5.05042
G1 X-12.410 Y13.385 E5.12407
G1 X-11.690 Y11.012 E5.19772
G1 X-10.521 Y8.824 E5.27136
G1 X-8.980 Y6.948 E5.34345
G1 X-8.612 Y7.009 F5400.000
G1 X-11.288 Y20.012 F5400.000
G1 X-4.158 Y27.141 E5.64367 F1800.000
G1 X-3.431 Y27.362 E5.66628
G1 X-11.508 Y19.285 E6.00639
G1 X-11.729 Y18.558 E6.02901
G1 X-2.704 Y27.582 E6.40901
G1 X-2.043 Y27.737 E6.42921
G1 X-11.883 Y17.897 E6.84353
G1 X-11.938 Y17.335 E6.86033
G1 X-1.482 Y27.792 E7.30064
G1 X-0.920 Y27.847 E7.31744
G1 X-11.993 Y16.774 E7.78373
G1 X-12.049 Y16.212 E7.80053
G1 X-0.358 Y27.903 E8.29280
G1 X0.181 Y27.935 E8.30887
G1 X-12.081 Y15.673 E8.82519
G1 X-12.036 Y15.212 E8.83898
G1 X0.642 Y27.890 E9.37280
G1 X1.103 Y27.844 E9.38659
G1 X-11.990 Y14.751 E9.93791
G1 X-11.945 Y14.290 E9.95170
G1 X1.564 Y27.799 E10.52052
G1 X2.025 Y27.754 E10.53431
G1 X-11.900 Y13.829 E11.12063
G1 X-11.844 Y13.379 E11.13415
G1 X2.475 Y27.698 E11.73709
G1 X2.864 Y27.580 E11.74918
G1 X-11.726 Y12.990 E12.36353
G1 X-11.608 Y12.602 E12.37562
G1 X3.252 Y27.462 E13.00136
G1 X3.641 Y27.344 E13.01345
G1 X-11.490 Y12.213 E13.65058
G1 X-11.372 Y11.824 E13.66267
G1 X4.030 Y27.226 E14.31121
G1 X4.418 Y27.108 E14.32330
G1 X-11.255 Y11.436 E14.98323
G1 X-11.117 Y11.067 E14.99495
G1 X4.787 Y26.971 E15.66460
G1 X5.117 Y26.794 E15.67574
G1 X-10.940 Y10.737 E16.35185
G1 X-10.764 Y10.407 E16.36300
G1 X5.447 Y26.618 E17.04558
G1 X5.777 Y26.441 E17.05672
G1 X-10.588 Y10.077 E17.74578
G1 X-10.411 Y9.747 E17.75692
G1 X6.107 Y26.265 E18.45244
G1 X6.437 Y26.089 E18.46358
G1 X-10.235 Y9.417 E19.16557
G1 X-10.056 Y9.090 E19.17669
G1 X6.764 Y25.910 E19.88494
G1 X7.042 Y25.682 E19.89566
G1 X-9.828 Y8.812 E20.60601
G1 X-9.599 Y8.533 E20.61673
G1 X7.321 Y25.453 E21.32918
G1 X7.599 Y25.225 E21.33990
G1 X-9.371 Y8.255 E22.05445
G1 X-9.143 Y7.977 E22.06517
G1 X7.877 Y24.997 E22.78182
G1 X8.155 Y24.769 E22.79254
G1 X-8.915 Y7.699 E23.51129
G1 X-8.685 Y7.423 E23.52200
G1 X8.431 Y24.539 E24.24271
G1 X8.685 Y24.285 E24.25337
G1 X-8.431 Y7.169 E24.97408
G1 X-8.155 Y6.939 E24.98479
G1 X8.915 Y24.009 E25.70355
G1 X9.143 Y23.731 E25.71426
G1 X-7.877 Y6.711 E26.43092
G1 X-7.599 Y6.483 E26.44163
G1 X9.371 Y23.453 E27.15619
G1 X9.599 Y23.175 E27.16690
G1 X-7.321 Y6.255 E27.87936
G1 X-7.042 Y6.026 E27.89007
G1 X9.828 Y22.896 E28.60043
G1 X10.056 Y22.618 E28.61114
G1 X-6.764 Y5.798 E29.31940
G1 X-6.437 Y5.619 E29.33051
G1 X10.235 Y22.291 E30.03250
G1 X10.411 Y21.961 E30.04365
G1 X-6.107 Y5.443 E30.73917
G1 X-5.777 Y5.266 E30.75031
G1 X10.587 Y21.631 E31.43937
G1 X10.764 Y21.301 E31.45051
G1 X-5.447 Y5.090 E32.13309
G1 X-5.117 Y4.914 E32.14423
G1 X10.940 Y20.971 E32.82035
G1 X11.117 Y20.641 E32.83149
G1 X-4.787 Y4.737 E33.50114
G1 X-4.418 Y4.599 E33.51286
G1 X11.255 Y20.272 E34.17279
G1 X11.372 Y19.883 E34.18488
G1 X-4.030 Y4.482 E34.83342
G1 X-3.641 Y4.364 E34.84551
G1 X11.490 Y19.495 E35.48265
G1 X11.608 Y19.106 E35.49474
G1 X-3.252 Y4.246 E36.12048
G1 X-2.864 Y4.128 E36.13257
G1 X11.726 Y18.718 E36.74692
G1 X11.844 Y18.329 E36.75900
G1 X-2.475 Y4.010 E37.36195
G1 X-2.024 Y3.955 E37.37549
G1 X11.900 Y17.879 E37.96178
G1 X11.945 Y17.418 E37.97557
G1 X-1.562 Y3.911 E38.54431
G1 X-1.100 Y3.866 E38.55813
G1 X11.990 Y16.957 E39.10932
G1 X12.036 Y16.496 E39.12312
G1 X-0.638 Y3.822 E39.65677
G1 X-0.176 Y3.778 E39.67059
G1 X12.081 Y16.035 E40.18671
G1 X12.049 Y15.496 E40.20278
G1 X0.358 Y3.805 E40.69505
G1 X0.920 Y3.860 E40.71185
G1 X11.993 Y14.934 E41.17814
G1 X11.938 Y14.372 E41.19495
G1 X1.481 Y3.916 E41.63525
G1 X2.043 Y3.971 E41.65206
G1 X11.883 Y13.811 E42.06638
G1 X11.729 Y13.150 E42.08658
G1 X2.704 Y4.125 E42.46659
G1 X3.431 Y4.346 E42.48920
G1 X11.508 Y12.423 E42.82932
G1 X11.288 Y11.696 E42.85193
G1 X4.158 Y4.566 E43.15215
G1 X5.064 Y4.967 F5400.000
G1 X10.887 Y10.789 E43.39733 F1800.000
G1 X10.306 Y9.702 F5400.000
G1 X6.152 Y5.548 E43.57222 F1800.000
G1 X8.262 Y7.152 F5400.000
G1 X8.702 Y7.592 E43.59075 F1800.000
G1 X-5.065 Y26.741 F5400.000
G1 X-10.887 Y20.919 E43.83592 F1800.000
G1 X-10.306 Y22.006 F5400.000
G1 X-6.152 Y26.160 E44.01080 F1800.000
G1 X-8.263 Y24.556 F5400.000
G1 X-8.702 Y24.116 E44.02931 F1800.000
G1 E43.32931 F1500.00000
G92 E0
G1 Z0.400 F5400.000
G1 X-7.656 Y4.308 F5400.000
G1 X-10.888 Y-0.523 F5400.000
G1 X-12.326 Y-3.598 F5400.000
G1 X-13.394 Y-6.555 F5400.000
G1 X-11.492 Y-8.116 F5400.000
G1 X-8.693 Y-24.547 F5400.000
G1 Z0.200 F5400.000
G1 E0.70000 F1500.00000
G1 X-6.830 Y-26.076 E0.77156 F900.000
G1 X-4.705 Y-27.212 E0.84312
G1 X-2.398 Y-27.912 E0.91468
G1 X-0.000 Y-28.148 E0.98623
G1 X2.398 Y-27.912 E1.05779
G1 X4.705 Y-27.212 E1.12935
G1 X6.830 Y-26.076 E1.20091
G1 X8.693 Y-24.547 E1.27247
G1 X10.222 Y-22.684 E1.34403
G1 X11.358 Y-20.559 E1.41558
G1 X12.058 Y-18.252 E1.48714
G1 X12.294 Y-15.854 E1.55870
G1 X12.058 Y-13.455 E1.63026
G1 X11.358 Y-11.149 E1.70182
G1 X10.222 Y-9.024 E1.77338
G1 X8.693 Y-7.161 E1.84493
G1 X6.830 Y-5.632 E1.91649
G1 X4.705 Y-4.496 E1.98805
G1 X2.398 Y-3.796 E2.05961
G1 X-0.000 Y-3.560 E2.13117
G1 X-2.398 Y-3.796 E2.20273
G1 X-4.705 Y-4.496 E2.27428
G1 X-6.830 Y-5.632 E2.34584
G1 X-8.693 Y-7.161 E2.41740
G1 X-10.222 Y-9.024 E2.48896
G1 X-11.358 Y-11.149 E2.56052
G1 X-12.058 Y-13.455 E2.63208
G1 X-12.294 Y-15.854 E2.70364
G1 X-12.058 Y-18.252 E2.77519
G1 X-11.358 Y-20.559 E2.84675
G1 X-10.222 Y-22.684 E2.91831
G1 X-8.727 Y-24.507 E2.98831
G1 X-8.947 Y-24.801 F5400.000
G1 X-7.030 Y-26.375 E3.06196 F720.000
G1 X-4.842 Y-27.544 E3.13560
G1 X-2.468 Y-28.264 E3.20925
G1 X-0.000 Y-28.507 E3.28290
G1 X2.468 Y-28.264 E3.35654
G1 X4.842 Y-27.544 E3.43019
G1 X7.030 Y-26.375 E3.50384
G1 X8.947 Y-24.801 E3.57749
G1 X10.521 Y-22.884 E3.65113
G1 X11.690 Y-20.696 E3.72478
G1 X12.410 Y-18.322 E3.79843
G1 X12.653 Y-15.854 E3.87207
G1 X12.410 Y-13.385 E3.94572
G1 X11.690 Y-11.012 E4.01937
G1 X10.521 Y-8.824 E4.09301
G1 X8.947 Y-6.907 E4.16666
G1 X7.030 Y-5.333 E4.24031
G1 X4.842 Y-4.164 E4.31395
G1 X2.468 Y-3.444 E4.38760
G1 X-0.000 Y-3.201 E4.46125
G1 X-2.468 Y-3.444 E4.53489
G1 X-4.842 Y-4.164 E4.60854
G1 X-7.030 Y-5.333 E4.68219
G1 X-8.947 Y-6.907 E4.75583
G1 X-10.521 Y-8.824 E4.82948
G1 X-11.690 Y-11.012 E4.90313
G1 X-12.410 Y-13.385 E4.97678
G1 X-12.653 Y-15.854 E5.05042
G1 X-12.410 Y-18.322 E5.12407
G1 X-11.690 Y-20.696 E5.19772
G1 X-10.521 Y-22.884 E5.27136
G1 X-8.980 Y-24.760 E5.34345
G1 X-8.612 Y-24.699 F5400.000
G1 X-11.288 Y-11.696 F5400.000
G1 X-4.158 Y-4.566 E5.64367 F1800.000
G1 X-3.431 Y-4.346 E5.66628
G1 X-11.508 Y-12.423 E6.00639
G1 X-11.729 Y-13.150 E6.02901
G1 X-2.704 Y-4.125 E6.40901
G1 X-2.043 Y-3.971 E6.42921
G1 X-11.883 Y-13.811 E6.84353
G1 X-11.938 Y-14.372 E6.86033
G1 X-1.482 Y-3.916 E7.30064
G1 X-0.920 Y-3.860 E7.31744
G1 X-11.993 Y-14.934 E7.78373
G1 X-12.049 Y-15.496 E7.80053
G1 X-0.358 Y-3.805 E8.29280
G1 X0.181 Y-3.773 E8.30887
G1 X-12.081 Y-16.035 E8.82519
G1 X-12.036 Y-16.496 E8.83898
G1 X0.642 Y-3.818 E9.37280
G1 X1.103 Y-3.864 E9.38659
G1 X-11.990 Y-16.957 E9.93791
G1 X-11.945 Y-17.418 E9.95170
G1 X1.564 Y-3.909 E10.52052
G1 X2.025 Y-3.954 E10.53431
G1 X-11.900 Y-17.879 E11.12063
G1 X-11.844 Y-18.329 E11.13415
G1 X2.475 Y-4.010 E11.73709
G1 X2.864 Y-4.128 E11.74918
G1 X-11.726 Y-18.718 E12.36353
G1 X-11.608 Y-19.106 E12.37562
G1 X3.252 Y-4.246 E13.00136
G1 X3.641 Y-4.364 E13.01345
G1 X-11.490 Y-19.495 E13.65058
G1 X-11.372 Y-19.883 E13.66267
G1 X4.030 Y-4.482 E14.31121
G1 X4.418 Y-4.599 E14.32330
G1 X-11.255 Y-20.272 E14.98323
G1 X-11.117 Y-20.641 E14.99495
G1 X4.787 Y-4.737 E15.66460
G1 X5.117 Y-4.914 E15.67574
G1 X-10.940 Y-20.971 E16.35185
G1 X-10.764 Y-21.301 E16.36300
G1 X5.447 Y-5.090 E17.04558
G1 X5.777 Y-5.266 E17.05672
