; generated by Slic3r 1.1.3-dev on 2014-08-02 at 10:37:16

; perimeters extrusion width = 0.35mm
; infill extrusion width = 0.57mm
; solid infill extrusion width = 0.57mm
; top infill extrusion width = 0.57mm

G21 ; set units to millimeters
M107
G28
G92 X0 Y0 Z0 E0
G1 F5000 Y30 X30
G1 X220
G1 F100 E10
G28
G92 X0 Y0 Z0
G1 F4000 X101 Y127
G92 X0 Y0 Z0 E0
M106 S255
G90 ; use absolute coordinates
G92 E0
M82 ; use absolute distances for extrusion
G1 F600.000 E-0.70000
G1 Z0.400 F7800.000
G92 E0
G1 X-13.587 Y-13.605 F7800.000
G1 Z0.200 F7800.000
G1 E0.70000 F600.000
G1 X2.712 Y-29.882 E1.44557 F1080.000
G1 X4.659 Y-31.481 E1.52713
G1 X5.701 Y-32.176 E1.56767
G1 X7.923 Y-33.364 E1.64923
G1 X9.080 Y-33.844 E1.68977
G1 X11.492 Y-34.575 E1.77134
G1 X12.720 Y-34.819 E1.81187
G1 X15.228 Y-35.066 E1.89343
G1 X16.564 Y-35.058 E1.93668
G1 X18.988 Y-34.819 E2.01553 F1080.000
G1 X20.216 Y-34.575 E2.05607
G1 X22.628 Y-33.844 E2.13763
G1 X23.785 Y-33.364 E2.17817
G1 X26.007 Y-32.176 E2.25973
G1 X27.049 Y-31.481 E2.30027
G1 X28.996 Y-29.882 E2.38183
G1 X29.882 Y-28.996 E2.42237
G1 X31.427 Y-27.113 E2.50122
G1 X32.176 Y-26.007 E2.54446
G1 X33.364 Y-23.785 E2.62603
G1 X33.844 Y-22.628 E2.66657
G1 X34.575 Y-20.216 E2.74813
G1 X34.819 Y-18.988 E2.78867
G1 X35.066 Y-16.480 E2.87023
G1 X35.066 Y-15.228 E2.91077
G1 X34.819 Y-12.720 E2.99233
G1 X34.575 Y-11.492 E3.03287
G1 X33.844 Y-9.080 E3.11444
G1 X33.364 Y-7.923 E3.15498
G1 X32.176 Y-5.701 E3.23654
G1 X31.481 Y-4.659 E3.27708
G1 X29.461 Y-2.247 E3.37892
G1 X-2.712 Y29.882 E4.85062
G1 X-4.659 Y31.481 E4.93218
G1 X-5.701 Y32.176 E4.97272
G1 X-7.923 Y33.364 E5.05428
G1 X-9.080 Y33.844 E5.09483
G1 X-11.492 Y34.575 E5.17639
G1 X-12.720 Y34.819 E5.21693
G1 X-15.228 Y35.066 E5.29849
G1 X-16.480 Y35.066 E5.33903
G1 X-18.988 Y34.819 E5.42059
G1 X-20.216 Y34.575 E5.46113
G1 X-22.628 Y33.844 E5.54269
G1 X-23.785 Y33.364 E5.58323
G1 X-26.007 Y32.176 E5.66480
G1 X-27.048 Y31.481 E5.70534
G1 X-28.996 Y29.882 E5.78690
G1 X-29.882 Y28.996 E5.82744
G1 X-31.481 Y27.049 E5.90900
G1 X-32.176 Y26.007 E5.94954
G1 X-33.364 Y23.785 E6.03110
G1 X-33.844 Y22.628 E6.07164
G1 X-34.575 Y20.216 E6.15321
G1 X-34.819 Y18.988 E6.19375
G1 X-35.066 Y16.480 E6.27531
G1 X-35.066 Y15.228 E6.31585
G1 X-34.819 Y12.720 E6.39741
G1 X-34.575 Y11.492 E6.43795
G1 X-33.844 Y9.080 E6.51951
G1 X-33.364 Y7.923 E6.56006
G1 X-32.176 Y5.701 E6.64162
G1 X-31.481 Y4.659 E6.68216
G1 X-29.935 Y2.776 E6.76100
G1 X-29.461 Y2.247 E6.78401
G1 X-13.624 Y-13.568 E7.50845
G1 F600.000 E6.80845
G1 Z0.400 F7800.000
G92 E0
G1 X-22.735 Y5.715 F7800.000
G1 Z0.200 F7800.000
G1 E0.70000 F600.000
G1 X-22.666 Y5.659 E0.70287 F540.000
G1 X-20.546 Y4.525 E0.78068
G1 X-18.220 Y3.825 E0.85930
G1 X-15.854 Y3.592 E0.93627 F540.000
G1 X-13.462 Y3.828 E1.01407
G1 X-11.162 Y4.525 E1.09188
G1 X-9.042 Y5.659 E1.16968
G1 X-7.184 Y7.184 E1.24748
G1 X-5.659 Y9.042 E1.32529
G1 X-4.525 Y11.162 E1.40309
G1 X-3.828 Y13.462 E1.48090
G1 X-3.592 Y15.854 E1.55870
G1 X-3.828 Y18.246 E1.63650
G1 X-4.525 Y20.546 E1.71431
G1 X-5.646 Y22.643 E1.79127
G1 X-7.184 Y24.524 E1.86990
G1 X-9.042 Y26.049 E1.94770
G1 X-11.162 Y27.182 E2.02551
G1 X-13.462 Y27.880 E2.10331
G1 X-15.854 Y28.116 E2.18112
G1 X-18.246 Y27.880 E2.25892
G1 X-20.546 Y27.182 E2.33672
G1 X-22.666 Y26.049 E2.41453
G1 X-24.524 Y24.524 E2.49233
G1 X-26.049 Y22.666 E2.57014
G1 X-27.182 Y20.546 E2.64794
G1 X-27.880 Y18.246 E2.72574
G1 X-28.116 Y15.854 E2.80355
G1 X-27.880 Y13.462 E2.88135
G1 X-27.182 Y11.162 E2.95916
G1 X-26.049 Y9.042 E3.03696
G1 X-24.524 Y7.184 E3.11476
G1 X-22.775 Y5.748 E3.18800
G1 X-23.022 Y5.447 F7800.000
G1 X-22.884 Y5.333 E3.19381 F378.000
G1 X-20.696 Y4.164 E3.27410
G1 X-18.322 Y3.444 E3.35438
G1 X-15.790 Y3.207 E3.43671
G1 X-13.385 Y3.444 E3.51491 F378.000
G1 X-11.012 Y4.164 E3.59520
G1 X-8.824 Y5.333 E3.67549
G1 X-6.907 Y6.907 E3.75577
G1 X-5.333 Y8.824 E3.83606
G1 X-4.164 Y11.012 E3.91634
G1 X-3.444 Y13.385 E3.99663
G1 X-3.201 Y15.854 E4.07692
G1 X-3.444 Y18.322 E4.15720
G1 X-4.164 Y20.696 E4.23749
G1 X-5.303 Y22.827 E4.31569
G1 X-6.907 Y24.801 E4.39802
G1 X-8.824 Y26.375 E4.47831
G1 X-11.012 Y27.544 E4.55859
G1 X-13.385 Y28.264 E4.63888
G1 X-15.854 Y28.507 E4.71916
G1 X-18.322 Y28.264 E4.79945
G1 X-20.696 Y27.544 E4.87974
G1 X-22.884 Y26.375 E4.96002
G1 X-24.801 Y24.801 E5.04031
G1 X-26.374 Y22.884 E5.12059
G1 X-27.636 Y20.524 E5.20721
G1 X-27.596 Y20.524 E5.20850
G1 X-28.264 Y18.322 E5.28295
G1 X-28.507 Y15.854 E5.36324
G1 X-28.264 Y13.385 E5.44352
G1 X-27.544 Y11.012 E5.52381
G1 X-26.375 Y8.824 E5.60410
G1 X-24.801 Y6.907 E5.68438
G1 X-23.063 Y5.481 E5.75716
G1 X-15.596 Y3.498 F7800.000
G1 X-10.935 Y4.944 F7800.000
G1 X-4.944 Y10.935 E6.03140 F1080.000
G1 X-4.593 Y11.841 F7800.000
G1 X-11.841 Y4.593 E6.36315 F1080.000
G1 X-12.638 Y4.352 E6.39012
G1 X-4.352 Y12.638 E6.76943
G1 X-4.110 Y13.435 E6.79640
G1 X-13.435 Y4.110 E7.22328
G1 X-14.069 Y4.031 E7.24395
G1 X-4.031 Y14.069 E7.70343
G1 X-3.971 Y14.685 E7.72347
G1 X-14.685 Y3.971 E8.21393
G1 X-15.301 Y3.910 E8.23396
G1 X-3.910 Y15.301 E8.75540
G1 X-3.861 Y15.906 E8.77504
G1 X-15.906 Y3.861 E9.32641
G1 X-16.412 Y3.911 E9.34286
G1 X-3.911 Y16.412 E9.91510
G1 X-3.960 Y16.917 E9.93154
G1 X-16.917 Y3.960 E10.52465
G1 X-17.423 Y4.010 E10.54109
G1 X-4.010 Y17.423 E11.15506
G1 X-4.060 Y17.928 E11.17150
G1 X-17.928 Y4.060 E11.80634
G1 X-18.396 Y4.147 E11.82175
G1 X-4.147 Y18.396 E12.47400
G1 X-4.277 Y18.823 E12.48841
G1 X-18.823 Y4.277 E13.15426
G1 X-19.249 Y4.406 E13.16867
G1 X-4.406 Y19.249 E13.84810
G1 X-4.535 Y19.675 E13.86252
G1 X-19.675 Y4.535 E14.55554
G1 X-20.101 Y4.664 E14.56995
G1 X-4.664 Y20.101 E15.27656
G1 X-4.806 Y20.515 E15.29072
G1 X-20.515 Y4.806 E16.00980
G1 X-20.877 Y4.999 E16.02308
G1 X-4.999 Y20.877 E16.74987
G1 X-5.193 Y21.239 E16.76315
G1 X-21.239 Y5.193 E17.49765
G1 X-21.601 Y5.386 E17.51094
G1 X-5.386 Y21.601 E18.25315
G1 X-5.580 Y21.963 E18.26643
G1 X-21.963 Y5.580 E19.01636
G1 X-22.325 Y5.773 E19.02964
G1 X-5.773 Y22.325 E19.78728
G1 X-5.993 Y22.660 E19.80026
G1 X-22.660 Y5.993 E20.56322
G1 X-22.965 Y6.243 E20.57599
G1 X-6.243 Y22.965 E21.34144
G1 X-6.494 Y23.270 E21.35422
G1 X-23.270 Y6.494 E22.12218
G1 X-23.575 Y6.744 E22.13495
G1 X-6.744 Y23.575 E22.90541
G1 X-6.994 Y23.880 E22.91819
G1 X-23.880 Y6.994 E23.69116
G1 X-24.185 Y7.245 E23.70393
G1 X-7.245 Y24.185 E24.47935
G1 X-7.523 Y24.463 E24.49206
G1 X-24.463 Y7.523 E25.26748
G1 X-24.714 Y7.827 E25.28026
G1 X-7.827 Y24.714 E26.05322
G1 X-8.132 Y24.964 E26.06600
G1 X-24.964 Y8.132 E26.83646
G1 X-25.214 Y8.438 E26.84923
G1 X-8.438 Y25.214 E27.61719
G1 X-8.743 Y25.465 E27.62997
G1 X-25.465 Y8.743 E28.39542
G1 X-25.715 Y9.048 E28.40820
G1 X-9.048 Y25.715 E29.17115
G1 X-9.383 Y25.935 E29.18413
G1 X-25.935 Y9.383 E29.94177
G1 X-26.128 Y9.745 E29.95505
G1 X-9.745 Y26.128 E30.70498
G1 X-10.107 Y26.322 E30.71826
G1 X-26.322 Y10.107 E31.46047
G1 X-26.515 Y10.469 E31.47376
G1 X-10.469 Y26.515 E32.20826
G1 X-10.831 Y26.708 E32.22154
G1 X-26.708 Y10.831 E32.94833
G1 X-26.902 Y11.193 E32.96161
G1 X-11.193 Y26.902 E33.68069
G1 X-11.607 Y27.043 E33.69485
G1 X-27.043 Y11.607 E34.40146
G1 X-27.173 Y12.033 E34.41587
G1 X-12.033 Y27.173 E35.10889
G1 X-12.459 Y27.302 E35.12331
G1 X-27.302 Y12.459 E35.80274
G1 X-27.431 Y12.885 E35.81715
G1 X-12.885 Y27.431 E36.48300
G1 X-13.311 Y27.561 E36.49741
G1 X-27.561 Y13.311 E37.14966
G1 X-27.648 Y13.779 E37.16507
G1 X-13.779 Y27.648 E37.79991
G1 X-14.285 Y27.698 E37.81635
G1 X-27.698 Y14.285 E38.43032
G1 X-27.748 Y14.791 E38.44676
G1 X-14.791 Y27.748 E39.03987
G1 X-15.296 Y27.797 E39.05631
G1 X-27.797 Y15.296 E39.62855
G1 X-27.847 Y15.802 E39.64500
G1 X-15.802 Y27.847 E40.19637
G1 X-16.407 Y27.798 E40.21601
G1 X-27.798 Y16.407 E40.73745
G1 X-27.737 Y17.023 E40.75748
G1 X-17.023 Y27.737 E41.24794
G1 X-17.639 Y27.677 E41.26798
G1 X-27.677 Y17.639 E41.72746
G1 X-27.598 Y18.273 E41.74813
G1 X-18.273 Y27.598 E42.17501
G1 X-19.070 Y27.356 E42.20198
G1 X-27.356 Y19.070 E42.58129
G1 X-27.114 Y19.867 E42.60826
G1 X-19.867 Y27.114 E42.94001
G1 X-20.773 Y26.764 F7800.000
G1 X-26.764 Y20.773 E43.21425 F1080.000
G1 X-26.126 Y21.966 F7800.000
G1 X-21.966 Y26.126 E43.40468 F1080.000
G1 X-24.180 Y24.468 F7800.000
G1 X-24.468 Y24.180 E43.41789 F1080.000
G1 X-9.742 Y5.582 F7800.000
G1 X-5.582 Y9.742 E43.60832 F1080.000
G1 X-7.240 Y7.528 F7800.000
G1 X-7.528 Y7.240 E43.62153 F1080.000
G1 F600.000 E42.92153
G1 Z0.400 F7800.000
G92 E0
G1 X10.511 Y-4.873 F7800.000
G1 Z0.200 F7800.000
G1 E0.70000 F600.000
G1 X9.042 Y-5.659 E0.75392 F540.000
G1 X7.184 Y-7.184 E0.83173
G1 X5.659 Y-9.042 E0.90953
G1 X4.526 Y-11.162 E0.98734
G1 X3.828 Y-13.462 E1.06514
G1 X3.595 Y-15.828 E1.14210
G1 X3.828 Y-18.246 E1.22073
G1 X4.525 Y-20.546 E1.29854
G1 X5.659 Y-22.666 E1.37634
G1 X7.184 Y-24.524 E1.45414
G1 X9.042 Y-26.049 E1.53195
G1 X11.162 Y-27.182 E1.60975
G1 X13.488 Y-27.883 E1.68838
G1 X15.854 Y-28.116 E1.76534 F540.000
G1 X18.246 Y-27.880 E1.84315
G1 X20.546 Y-27.182 E1.92095
G1 X22.666 Y-26.049 E1.99876
G1 X24.524 Y-24.524 E2.07656
G1 X26.049 Y-22.666 E2.15436
G1 X27.182 Y-20.546 E2.23217
G1 X27.880 Y-18.246 E2.30997
G1 X28.116 Y-15.854 E2.38778
G1 X27.880 Y-13.462 E2.46558
G1 X27.182 Y-11.162 E2.54338
G1 X26.049 Y-9.042 E2.62119
G1 X24.524 Y-7.184 E2.69899
G1 X22.666 Y-5.659 E2.77680
G1 X20.546 Y-4.525 E2.85460
G1 X18.246 Y-3.828 E2.93240
G1 X15.854 Y-3.592 E3.01021
G1 X13.462 Y-3.828 E3.08801
G1 X11.162 Y-4.525 E3.16582
G1 X10.557 Y-4.849 E3.18800
G1 X10.374 Y-4.505 F7800.000
G1 X8.824 Y-5.333 E3.24486 F378.000
G1 X6.907 Y-6.907 E3.32515
G1 X5.333 Y-8.824 E3.40543
G1 X4.072 Y-11.184 E3.49205
G1 X4.112 Y-11.184 E3.49334
G1 X3.444 Y-13.385 E3.56779
G1 X3.201 Y-15.854 E3.64808
G1 X3.444 Y-18.322 E3.72836
G1 X4.164 Y-20.696 E3.80865
G1 X5.333 Y-22.884 E3.88893
G1 X6.907 Y-24.801 E3.96922
G1 X8.824 Y-26.375 E4.04951
G1 X11.012 Y-27.544 E4.12979
G1 X13.385 Y-28.264 E4.21008
G1 X15.918 Y-28.501 E4.29241
G1 X18.322 Y-28.264 E4.37061 F378.000
G1 X20.696 Y-27.544 E4.45090
G1 X22.884 Y-26.375 E4.53118
G1 X24.801 Y-24.801 E4.61147
G1 X26.375 Y-22.884 E4.69176
G1 X27.544 Y-20.696 E4.77204
G1 X28.264 Y-18.322 E4.85233
G1 X28.507 Y-15.854 E4.93261
G1 X28.264 Y-13.385 E5.01290
G1 X27.544 Y-11.012 E5.09318
G1 X26.375 Y-8.824 E5.17347
G1 X24.801 Y-6.907 E5.25376
G1 X22.933 Y-5.374 E5.33196
G1 X20.696 Y-4.164 E5.41429
G1 X18.322 Y-3.444 E5.49458
G1 X15.854 Y-3.201 E5.57486
G1 X13.385 Y-3.444 E5.65515
G1 X11.012 Y-4.164 E5.73543
G1 X10.420 Y-4.480 E5.75716
G1 X16.195 Y-28.287 F7800.000
G1 X20.773 Y-26.764 F7800.000
G1 X26.764 Y-20.773 E6.03140 F1080.000
G1 X27.114 Y-19.867 F7800.000
G1 X19.867 Y-27.114 E6.36315 F1080.000
G1 X19.070 Y-27.356 E6.39012
G1 X27.356 Y-19.070 E6.76943
G1 X27.598 Y-18.273 E6.79640
G1 X18.273 Y-27.598 E7.22328
G1 X17.639 Y-27.677 E7.24395
G1 X27.677 Y-17.639 E7.70343
G1 X27.737 Y-17.023 E7.72347
G1 X17.023 Y-27.737 E8.21393
G1 X16.407 Y-27.798 E8.23396
G1 X27.798 Y-16.407 E8.75540
G1 X27.847 Y-15.802 E8.77504
G1 X15.802 Y-27.847 E9.32641
G1 X15.296 Y-27.797 E9.34286
G1 X27.797 Y-15.296 E9.91510
G1 X27.748 Y-14.791 E9.93154
G1 X14.791 Y-27.748 E10.52465
G1 X14.285 Y-27.698 E10.54109
G1 X27.698 Y-14.285 E11.15506
G1 X27.648 Y-13.779 E11.17150
G1 X13.779 Y-27.648 E11.80634
G1 X13.311 Y-27.561 E11.82175
G1 X27.561 Y-13.311 E12.47400
G1 X27.431 Y-12.885 E12.48841
G1 X12.885 Y-27.431 E13.15426
G1 X12.459 Y-27.302 E13.16867
G1 X27.302 Y-12.459 E13.84810
G1 X27.173 Y-12.033 E13.86252
G1 X12.033 Y-27.173 E14.55554
G1 X11.607 Y-27.044 E14.56995
G1 X27.043 Y-11.607 E15.27656
G1 X26.902 Y-11.193 E15.29072
G1 X11.193 Y-26.902 E16.00980
G1 X10.831 Y-26.708 E16.02308
G1 X26.708 Y-10.831 E16.74987
G1 X26.515 Y-10.469 E16.76315
G1 X10.469 Y-26.515 E17.49765
G1 X10.107 Y-26.322 E17.51094
G1 X26.322 Y-10.107 E18.25315
G1 X26.128 Y-9.745 E18.26643
G1 X9.745 Y-26.128 E19.01636
G1 X9.383 Y-25.935 E19.02964
G1 X25.935 Y-9.383 E19.78728
G1 X25.715 Y-9.048 E19.80026
G1 X9.048 Y-25.715 E20.56322
G1 X8.743 Y-25.465 E20.57599
G1 X25.465 Y-8.743 E21.34144
G1 X25.214 Y-8.438 E21.35422
G1 X8.438 Y-25.214 E22.12218
G1 X8.132 Y-24.964 E22.13495
G1 X24.964 Y-8.132 E22.90541
G1 X24.714 Y-7.827 E22.91819
G1 X7.827 Y-24.714 E23.69116
G1 X7.523 Y-24.463 E23.70393
G1 X24.463 Y-7.523 E24.47935
G1 X24.185 Y-7.245 E24.49206
G1 X7.245 Y-24.185 E25.26748
G1 X6.994 Y-23.880 E25.28026
G1 X23.880 Y-6.994 E26.05322
G1 X23.575 Y-6.744 E26.06600
G1 X6.744 Y-23.575 E26.83646
G1 X6.494 Y-23.270 E26.84923
G1 X23.270 Y-6.494 E27.61719
G1 X22.965 Y-6.243 E27.62997
G1 X6.243 Y-22.965 E28.39542
G1 X5.993 Y-22.660 E28.40820
G1 X22.660 Y-5.993 E29.17115
G1 X22.325 Y-5.773 E29.18413
G1 X5.773 Y-22.325 E29.94177
G1 X5.580 Y-21.963 E29.95505
G1 X21.963 Y-5.580 E30.70498
G1 X21.601 Y-5.386 E30.71826
G1 X5.386 Y-21.601 E31.46047
G1 X5.193 Y-21.239 E31.47376
G1 X21.239 Y-5.193 E32.20826
G1 X20.877 Y-4.999 E32.22154
G1 X4.999 Y-20.877 E32.94833
G1 X4.806 Y-20.515 E32.96161
G1 X20.515 Y-4.806 E33.68069
G1 X20.101 Y-4.664 E33.69485
G1 X4.664 Y-20.101 E34.40146
G1 X4.535 Y-19.675 E34.41587
G1 X19.675 Y-4.535 E35.10889
G1 X19.249 Y-4.406 E35.12331
G1 X4.406 Y-19.249 E35.80274
G1 X4.277 Y-18.823 E35.81715
G1 X18.823 Y-4.277 E36.48300
G1 X18.396 Y-4.147 E36.49741
G1 X4.147 Y-18.396 E37.14966
G1 X4.060 Y-17.928 E37.16507
G1 X17.928 Y-4.060 E37.79991
G1 X17.423 Y-4.010 E37.81635
G1 X4.010 Y-17.423 E38.43032
G1 X3.960 Y-16.917 E38.44676
G1 X16.917 Y-3.960 E39.03987
G1 X16.412 Y-3.911 E39.05631
G1 X3.911 Y-16.412 E39.62855
G1 X3.861 Y-15.906 E39.64500
G1 X15.906 Y-3.861 E40.19637
G1 X15.301 Y-3.910 E40.21601
G1 X3.910 Y-15.301 E40.73745
G1 X3.971 Y-14.685 E40.75748
G1 X14.685 Y-3.971 E41.24794
G1 X14.069 Y-4.031 E41.26798
G1 X4.031 Y-14.069 E41.72746
G1 X4.110 Y-13.435 E41.74813
G1 X13.435 Y-4.110 E42.17501
G1 X12.638 Y-4.352 E42.20198
G1 X4.352 Y-12.638 E42.58129
G1 X4.593 Y-11.841 E42.60826
G1 X11.841 Y-4.593 E42.94001
G1 X10.935 Y-4.944 F7800.000
G1 X4.944 Y-10.935 E43.21425 F1080.000
G1 X5.582 Y-9.742 F7800.000
G1 X9.742 Y-5.582 E43.40468 F1080.000
G1 X7.528 Y-7.240 F7800.000
G1 X7.240 Y-7.528 E43.41789 F1080.000
G1 X21.966 Y-26.126 F7800.000
G1 X26.126 Y-21.966 E43.60832 F1080.000
G1 X24.468 Y-24.180 F7800.000
G1 X24.180 Y-24.468 E43.62153 F1080.000
M106 S189
G1 F600.000 E42.92153
G1 Z0.580 F7800.000
G92 E0
G1 X-10.953 Y27.144 F7800.000
G1 Z0.380 F7800.000
G1 E0.70000 F600.000
G1 X-11.137 Y27.242 E0.70546 F1800.000
G1 X-13.449 Y27.944 E0.76875
G1 X-15.854 Y28.180 E0.83205
G1 X-18.259 Y27.944 E0.89534
G1 X-20.571 Y27.242 E0.95863
G1 X-22.702 Y26.103 E1.02192
G1 X-24.570 Y24.570 E1.08521
G1 X-26.103 Y22.702 E1.14850
G1 X-27.242 Y20.571 E1.21179
G1 X-27.943 Y18.259 E1.27508
G1 X-28.180 Y15.854 E1.33837
G1 X-27.944 Y13.449 E1.40167
G1 X-27.242 Y11.137 E1.46496
G1 X-26.103 Y9.006 E1.52825
G1 X-24.570 Y7.138 E1.59154
G1 X-22.702 Y5.605 E1.65483
G1 X-20.571 Y4.466 E1.71812
G1 X-18.259 Y3.764 E1.78141
G1 X-18.123 Y3.751 E1.78500
G1 X-15.854 Y3.528 E1.84470 F1800.000
G1 X-13.449 Y3.764 E1.90800
G1 X-11.137 Y4.466 E1.97129
G1 X-9.006 Y5.605 E2.03458
G1 X-7.138 Y7.138 E2.09787
G1 X-5.605 Y9.006 E2.16116
G1 X-4.466 Y11.137 E2.22445
G1 X-3.764 Y13.449 E2.28774
G1 X-3.528 Y15.854 E2.35103
G1 X-3.764 Y18.259 E2.41432
G1 X-4.466 Y20.571 E2.47762
G1 X-5.605 Y22.702 E2.54091
G1 X-7.138 Y24.570 E2.60420
G1 X-9.006 Y26.103 E2.66749
G1 X-10.907 Y27.119 E2.72394
G1 X-10.742 Y27.428 F7800.000
G1 X-11.002 Y27.567 E2.73168 F1260.000
G1 X-13.381 Y28.288 E2.79678
G1 X-15.854 Y28.532 E2.86188
G1 X-18.327 Y28.288 E2.92697
G1 X-20.706 Y27.567 E2.99207
G1 X-22.898 Y26.395 E3.05717
G1 X-24.819 Y24.819 E3.12226
G1 X-26.252 Y23.072 E3.18143
G1 X-26.395 Y22.898 E3.18736
G1 X-27.567 Y20.706 E3.25246
G1 X-28.288 Y18.327 E3.31756
G1 X-28.532 Y15.854 E3.38265
G1 X-28.288 Y13.381 E3.44775
G1 X-27.567 Y11.002 E3.51285
G1 X-26.395 Y8.810 E3.57794
G1 X-24.819 Y6.889 E3.64304
G1 X-22.898 Y5.312 E3.70814
G1 X-20.706 Y4.141 E3.77323
G1 X-18.327 Y3.419 E3.83833
G1 X-15.854 Y3.176 E3.90343
G1 X-15.629 Y3.198 E3.90936
G1 X-13.381 Y3.419 E3.96853 F1260.000
G1 X-11.002 Y4.141 E4.03362
G1 X-8.810 Y5.312 E4.09872
G1 X-6.889 Y6.889 E4.16382
G1 X-5.312 Y8.810 E4.22891
