; generated by Slic3r 1.2.0 on 2015-02-22 at 17:09:14

; external perimeters extrusion width = 0.35mm
; perimeters extrusion width = 0.40mm
; infill extrusion width = 0.40mm
; solid infill extrusion width = 0.40mm
; top infill extrusion width = 0.40mm
; support material extrusion width = 0.35mm

G21 ; set units to millimeters
M107
G28
G92 X0 Y0 Z0 E0
G1 F5000 Y30 X30
G1 X220
G1 F100 E10

G28
G92 X0 Y0 Z0
G1 F4000 X101 Y127
G92 X0 Y0 Z0 E0
G90 ; use absolute coordinates
G92 E0
M82 ; use absolute distances for extrusion
G1 F600.000 E-0.70000
G92 E0
G1 Z0.400 F5400.000
G1 X10.722 Y13.789 F5400.000
G1 Z0.200 F5400.000
G1 E0.70000 F600.000
G1 X9.364 Y14.845 E0.75108 F1800.000
G1 X6.287 Y16.387 E0.85324
G1 X2.970 Y17.298 E0.95540
G1 X-0.462 Y17.545 E1.05755
G1 X-3.876 Y17.118 E1.15971
G1 X-7.141 Y16.033 E1.26187
G1 X-10.132 Y14.332 E1.36403
G1 X-12.015 Y12.786 E1.43635
G1 X-12.733 Y12.080 E1.46627
G1 X-14.278 Y10.197 E1.53860
G1 X-14.845 Y9.364 E1.56852
G1 X-16.387 Y6.287 E1.67068
G1 X-17.298 Y2.970 E1.77284
G1 X-17.537 Y0.546 E1.84516
G1 X-17.545 Y-0.462 E1.87508
G1 X-17.307 Y-2.886 E1.94741
G1 X-17.118 Y-3.876 E1.97732
G1 X-16.411 Y-6.207 E2.04965
G1 X-16.033 Y-7.141 E2.07957
G1 X-14.885 Y-9.289 E2.15189
G1 X-14.332 Y-10.132 E2.18181
G1 X-12.786 Y-12.015 E2.25414
G1 X-12.080 Y-12.733 E2.28406
G1 X-9.364 Y-14.845 E2.38622
G1 X-7.215 Y-15.993 E2.45854
G1 X-6.287 Y-16.387 E2.48846
G1 X-3.956 Y-17.094 E2.56078
G1 X-2.970 Y-17.298 E2.59071
G1 X0.462 Y-17.545 E2.69286
G1 X0.546 Y-17.537 E2.69536
G1 X3.876 Y-17.118 E2.79502 F1800.000
G1 X6.207 Y-16.411 E2.86735
G1 X7.141 Y-16.033 E2.89727
G1 X9.289 Y-14.885 E2.96959
G1 X10.132 Y-14.332 E2.99951
G1 X12.015 Y-12.786 E3.07184
G1 X12.733 Y-12.080 E3.10176
G1 X14.845 Y-9.364 E3.20392
G1 X15.993 Y-7.215 E3.27624
G1 X16.387 Y-6.287 E3.30616
G1 X17.298 Y-2.970 E3.40832
G1 X17.545 Y0.462 E3.51048
G1 X17.307 Y2.886 E3.58280
G1 X17.118 Y3.876 E3.61272
G1 X16.411 Y6.207 E3.68505
G1 X16.033 Y7.141 E3.71497
G1 X14.332 Y10.132 E3.81712
G1 X12.786 Y12.015 E3.88945
G1 X12.080 Y12.733 E3.91937
G1 X10.763 Y13.757 E3.96889
G1 X10.545 Y13.477 F5400.000
G1 X9.195 Y14.530 E4.01972 F1800.000
G1 X6.184 Y16.045 E4.11980
G1 X2.935 Y16.943 E4.21989
G1 X-0.427 Y17.190 E4.31998
G1 X-3.772 Y16.776 E4.42006
G1 X-6.973 Y15.718 E4.52015
G1 X-9.905 Y14.056 E4.62023
G1 X-11.788 Y12.510 E4.69256
G1 X-12.457 Y11.853 E4.72040
G1 X-14.002 Y9.970 E4.79272
G1 X-14.530 Y9.195 E4.82056
G1 X-16.045 Y6.184 E4.92065
G1 X-16.943 Y2.935 E5.02074
G1 X-17.182 Y0.511 E5.09306
G1 X-17.190 Y-0.427 E5.12090
G1 X-16.951 Y-2.851 E5.19323
G1 X-16.776 Y-3.772 E5.22107
G1 X-16.069 Y-6.103 E5.29339
G1 X-15.718 Y-6.973 E5.32123
G1 X-14.570 Y-9.121 E5.39356
G1 X-14.056 Y-9.905 E5.42140
G1 X-12.510 Y-11.788 E5.49372
G1 X-11.853 Y-12.457 E5.52157
G1 X-9.195 Y-14.530 E5.62165
G1 X-7.047 Y-15.679 E5.69397
G1 X-6.184 Y-16.045 E5.72182
G1 X-3.853 Y-16.752 E5.79414
G1 X-2.935 Y-16.943 E5.82198
G1 X0.427 Y-17.190 E5.92207
G1 X0.511 Y-17.182 E5.92456
G1 X3.772 Y-16.776 E6.02216 F1800.000
G1 X6.103 Y-16.069 E6.09448
G1 X6.973 Y-15.718 E6.12232
G1 X9.121 Y-14.570 E6.19464
G1 X9.905 Y-14.056 E6.22249
G1 X11.788 Y-12.510 E6.29481
G1 X12.457 Y-11.853 E6.32265
G1 X14.530 Y-9.195 E6.42274
G1 X15.679 Y-7.047 E6.49506
G1 X16.045 Y-6.184 E6.52291
G1 X16.943 Y-2.935 E6.62299
G1 X17.190 Y0.427 E6.72308
G1 X16.951 Y2.851 E6.79540
G1 X16.776 Y3.772 E6.82324
G1 X16.069 Y6.103 E6.89557
G1 X15.718 Y6.973 E6.92341
G1 X14.056 Y9.905 E7.02349
G1 X12.510 Y11.788 E7.09582
G1 X11.853 Y12.457 E7.12366
G1 X10.586 Y13.445 E7.17136
G1 F600.000 E6.47136
G92 E0
G1 Z0.400 F5400.000
G1 X-5.349 Y11.014 F5400.000
G1 Z0.200 F5400.000
G1 E0.70000 F600.000
G1 X-6.830 Y10.222 E0.74987 F900.000
G1 X-8.693 Y8.693 E0.82143
G1 X-10.222 Y6.830 E0.89298
G1 X-11.358 Y4.705 E0.96454
G1 X-12.058 Y2.398 E1.03610
G1 X-12.294 Y0.000 E1.10766
G1 X-12.058 Y-2.398 E1.17922
G1 X-11.358 Y-4.705 E1.25078
G1 X-10.236 Y-6.805 E1.32147
G1 X-8.693 Y-8.693 E1.39388
G1 X-6.830 Y-10.222 E1.46543
G1 X-4.705 Y-11.358 E1.53699
G1 X-2.398 Y-12.058 E1.60855
G1 X-0.128 Y-12.282 E1.67630
G1 X-0.128 Y-12.307 E1.67704 F900.000
G1 X2.398 Y-12.058 E1.75242
G1 X4.705 Y-11.358 E1.82397
G1 X6.830 Y-10.222 E1.89553
G1 X8.693 Y-8.693 E1.96709
G1 X10.222 Y-6.830 E2.03865
G1 X11.358 Y-4.705 E2.11021
G1 X12.058 Y-2.398 E2.18177
G1 X12.294 Y-0.000 E2.25332
G1 X12.058 Y2.398 E2.32488
G1 X11.358 Y4.705 E2.39644
G1 X10.222 Y6.830 E2.46800
G1 X8.712 Y8.671 E2.53869
G1 X6.830 Y10.222 E2.61110
G1 X4.705 Y11.358 E2.68266
G1 X2.398 Y12.058 E2.75422
G1 X-0.000 Y12.294 E2.82577
G1 X-2.398 Y12.058 E2.89733
G1 X-4.705 Y11.358 E2.96889
G1 X-5.303 Y11.039 E2.98902
G1 X-5.471 Y11.354 F5400.000
G1 X-7.030 Y10.521 E3.04149 F720.000
G1 X-8.947 Y8.947 E3.11514
G1 X-10.521 Y7.030 E3.18879
G1 X-11.690 Y4.842 E3.26243
G1 X-12.410 Y2.468 E3.33608
G1 X-12.647 Y0.064 E3.40782
G1 X-12.410 Y-2.468 E3.48334
G1 X-11.690 Y-4.842 E3.55699
G1 X-10.521 Y-7.030 E3.63063
G1 X-8.947 Y-8.947 E3.70428
G1 X-7.030 Y-10.521 E3.77793
G1 X-4.842 Y-11.690 E3.85157
G1 X-2.468 Y-12.410 E3.92522
G1 X0.064 Y-12.647 E4.00074
G1 X2.468 Y-12.410 E4.07248 F720.000
G1 X4.842 Y-11.690 E4.14612
G1 X7.048 Y-10.511 E4.22040
G1 X8.947 Y-8.947 E4.29343
G1 X10.521 Y-7.030 E4.36708
G1 X11.690 Y-4.842 E4.44072
G1 X12.410 Y-2.468 E4.51437
G1 X12.653 Y0.000 E4.58802
G1 X12.410 Y2.468 E4.66166
G1 X11.690 Y4.842 E4.73531
G1 X10.521 Y7.030 E4.80896
G1 X8.988 Y8.897 E4.88070
G1 X7.030 Y10.521 E4.95622
G1 X4.842 Y11.690 E5.02986
G1 X2.468 Y12.410 E5.10351
G1 X-0.000 Y12.653 E5.17716
G1 X-2.468 Y12.410 E5.25080
G1 X-4.842 Y11.690 E5.32445
G1 X-5.425 Y11.378 E5.34407
G1 X0.341 Y-12.433 F5400.000
G1 X5.157 Y-10.846 F5400.000
G1 X10.846 Y-5.157 E5.58295 F1800.000
G1 X11.248 Y-4.247 F5400.000
G1 X4.247 Y-11.248 E5.87690 F1800.000
G1 X3.518 Y-11.469 E5.89952
G1 X11.469 Y-3.518 E6.23338
G1 X11.690 Y-2.789 E6.25601
G1 X2.789 Y-11.690 E6.62977
G1 X2.126 Y-11.845 E6.64998
G1 X11.845 Y-2.126 E7.05808
G1 X11.900 Y-1.562 E7.07489
G1 X1.562 Y-11.900 E7.50898
G1 X0.999 Y-11.956 E7.52579
G1 X11.956 Y-0.999 E7.98588
G1 X12.011 Y-0.435 E8.00269
G1 X0.435 Y-12.011 E8.48876
G1 X-0.105 Y-12.044 E8.50484
G1 X12.044 Y0.105 E9.01498
G1 X11.998 Y0.568 E9.02878
G1 X-0.568 Y-11.998 E9.55642
G1 X-1.030 Y-11.953 E9.57022
G1 X11.953 Y1.030 E10.11537
G1 X11.907 Y1.493 E10.12917
G1 X-1.493 Y-11.907 E10.69182
G1 X-1.955 Y-11.862 E10.70562
G1 X11.862 Y1.955 E11.28578
G1 X11.801 Y2.403 E11.29920
G1 X-2.407 Y-11.806 E11.89581
G1 X-2.797 Y-11.687 E11.90791
G1 X11.684 Y2.793 E12.51596
G1 X11.566 Y3.184 E12.52807
G1 X-3.187 Y-11.569 E13.14755
G1 X-3.577 Y-11.451 E13.15964
G1 X11.449 Y3.575 E13.79056
G1 X11.331 Y3.965 E13.80267
G1 X-3.966 Y-11.333 E14.44502
G1 X-4.356 Y-11.214 E14.45711
G1 X11.214 Y4.356 E15.11090
G1 X11.076 Y4.726 E15.12263
G1 X-4.726 Y-11.076 E15.78616
G1 X-5.057 Y-10.899 E15.79730
G1 X10.899 Y5.057 E16.46730
G1 X10.722 Y5.388 E16.47845
G1 X-5.388 Y-10.722 E17.15492
G1 X-5.719 Y-10.545 E17.16606
G1 X10.545 Y5.719 E17.84900
G1 X10.368 Y6.050 E17.86015
G1 X-6.050 Y-10.368 E18.54956
G1 X-6.381 Y-10.191 E18.56071
G1 X10.191 Y6.381 E19.25659
G1 X10.012 Y6.710 E19.26771
G1 X-6.710 Y-10.012 E19.96986
G1 X-6.989 Y-9.783 E19.98057
G1 X9.783 Y6.989 E20.68483
G1 X9.554 Y7.268 E20.69554
G1 X-7.268 Y-9.554 E21.40190
G1 X-7.547 Y-9.325 E21.41261
G1 X9.325 Y7.547 E22.12107
G1 X9.096 Y7.826 E22.13178
G1 X-7.826 Y-9.096 E22.84234
G1 X-8.105 Y-8.867 E22.85305
G1 X8.867 Y8.105 E23.56571
G1 X8.636 Y8.382 E23.57642
G1 X-8.382 Y-8.636 E24.29103
G1 X-8.636 Y-8.382 E24.30170
G1 X8.382 Y8.636 E25.01631
G1 X8.105 Y8.867 E25.02702
G1 X-8.867 Y-8.105 E25.73968
G1 X-9.096 Y-7.826 E25.75040
G1 X7.826 Y9.096 E26.46095
G1 X7.547 Y9.325 E26.47167
G1 X-9.325 Y-7.547 E27.18012
G1 X-9.554 Y-7.268 E27.19084
G1 X7.268 Y9.554 E27.89719
G1 X6.989 Y9.783 E27.90791
G1 X-9.783 Y-6.989 E28.61216
G1 X-10.012 Y-6.710 E28.62288
G1 X6.710 Y10.012 E29.32503
G1 X6.381 Y10.191 E29.33615
G1 X-10.191 Y-6.381 E30.03203
G1 X-10.368 Y-6.050 E30.04317
G1 X6.050 Y10.368 E30.73258
G1 X5.719 Y10.545 E30.74373
G1 X-10.545 Y-5.719 E31.42667
G1 X-10.722 Y-5.388 E31.43782
G1 X5.388 Y10.722 E32.11429
G1 X5.057 Y10.899 E32.12543
G1 X-10.899 Y-5.057 E32.79543
G1 X-11.076 Y-4.726 E32.80658
G1 X4.726 Y11.076 E33.47010
G1 X4.356 Y11.214 E33.48182
G1 X-11.214 Y-4.356 E34.13563
G1 X-11.333 Y-3.966 E34.14773
G1 X3.966 Y11.333 E34.79013
G1 X3.577 Y11.451 E34.80223
G1 X-11.451 Y-3.577 E35.43323
G1 X-11.569 Y-3.187 E35.44533
G1 X3.187 Y11.569 E36.06493
G1 X2.797 Y11.687 E36.07702
G1 X-11.687 Y-2.797 E36.68522
G1 X-11.806 Y-2.407 E36.69732
G1 X2.407 Y11.806 E37.29411
G1 X1.955 Y11.862 E37.30764
G1 X-11.862 Y-1.955 E37.88780
G1 X-11.907 Y-1.493 E37.90160
G1 X1.493 Y11.907 E38.46426
G1 X1.030 Y11.953 E38.47805
G1 X-11.953 Y-1.030 E39.02320
G1 X-11.998 Y-0.568 E39.03700
G1 X0.568 Y11.998 E39.56465
G1 X0.105 Y12.044 E39.57844
G1 X-12.044 Y-0.105 E40.08858
G1 X-12.011 Y0.435 E40.10466
G1 X-0.435 Y12.011 E40.59073
G1 X-0.999 Y11.956 E40.60755
G1 X-11.956 Y0.999 E41.06763
G1 X-11.900 Y1.562 E41.08444
G1 X-1.562 Y11.900 E41.51853
G1 X-2.126 Y11.845 E41.53535
G1 X-11.845 Y2.126 E41.94344
G1 X-11.690 Y2.789 E41.96365
G1 X-2.789 Y11.690 E42.33742
G1 X-3.518 Y11.469 E42.36004
G1 X-11.469 Y3.518 E42.69390
G1 X-11.248 Y4.247 E42.71653
G1 X-4.247 Y11.248 E43.01047
G1 X-5.157 Y10.846 F5400.000
G1 X-10.846 Y5.157 E43.24936 F1800.000
G1 X-10.263 Y6.248 F5400.000
G1 X-6.248 Y10.263 E43.41792 F1800.000
G1 X-8.365 Y8.654 F5400.000
G1 X-8.654 Y8.365 E43.43003 F1800.000
G1 X6.248 Y-10.263 F5400.000
G1 X10.263 Y-6.248 E43.59859 F1800.000
G1 X8.654 Y-8.365 F5400.000
G1 X8.365 Y-8.654 E43.61071 F1800.000
M106 S255
G1 F600.000 E42.91071
G92 E0
G1 Z0.680 F5400.000
G1 X-8.108 Y-9.258 F5400.000
G1 Z0.480 F5400.000
G1 E0.70000 F600.000
G1 X-6.867 Y-10.277 E0.76421 F1707.744
G1 X-4.730 Y-11.419 E0.86113
G1 X-2.411 Y-12.122 E0.95805
G1 X-2.175 Y-12.146 E0.96753
G1 X-0.000 Y-12.360 E1.05496 F1707.744
G1 X2.411 Y-12.122 E1.15188
G1 X4.730 Y-11.419 E1.24880
G1 X6.867 Y-10.277 E1.34572
G1 X8.740 Y-8.740 E1.44263
G1 X10.277 Y-6.867 E1.53955
G1 X11.419 Y-4.730 E1.63647
G1 X12.122 Y-2.411 E1.73339
G1 X12.360 Y-0.000 E1.83031
G1 X12.122 Y2.411 E1.92722
G1 X11.419 Y4.730 E2.02414
G1 X10.277 Y6.867 E2.12106
G1 X8.740 Y8.740 E2.21798
G1 X6.867 Y10.277 E2.31489
G1 X4.730 Y11.419 E2.41181
G1 X2.411 Y12.122 E2.50873
G1 X-0.000 Y12.360 E2.60565
G1 X-2.411 Y12.122 E2.70257
G1 X-4.730 Y11.419 E2.79948
G1 X-6.867 Y10.277 E2.89640
G1 X-8.740 Y8.740 E2.99332
G1 X-10.277 Y6.867 E3.09024
G1 X-11.419 Y4.730 E3.18715
G1 X-12.122 Y2.411 E3.28407
G1 X-12.360 Y0.000 E3.38099
G1 X-12.122 Y-2.411 E3.47791
G1 X-11.419 Y-4.730 E3.57483
G1 X-10.277 Y-6.867 E3.67174
G1 X-8.740 Y-8.740 E3.76866
G1 X-8.148 Y-9.225 E3.79927
G1 X-8.349 Y-9.470 F5400.000
G1 X-7.044 Y-10.541 E3.85627 F1366.196
G1 X-4.852 Y-11.713 E3.94015
G1 X-2.473 Y-12.434 E4.02402
G1 X-0.000 Y-12.678 E4.10790
G1 X0.267 Y-12.652 E4.11696
G1 X2.473 Y-12.434 E4.19178 F1366.196
G1 X4.852 Y-11.713 E4.27566
G1 X7.044 Y-10.541 E4.35953
G1 X8.965 Y-8.965 E4.44341
G1 X10.541 Y-7.044 E4.52729
G1 X11.713 Y-4.852 E4.61116
G1 X12.434 Y-2.473 E4.69504
G1 X12.678 Y-0.000 E4.77892
G1 X12.461 Y2.206 E4.85374
G1 X12.434 Y2.473 E4.86280
G1 X11.713 Y4.852 E4.94667
G1 X10.541 Y7.044 E5.03055
G1 X8.965 Y8.965 E5.11443
G1 X7.044 Y10.541 E5.19830
G1 X4.852 Y11.713 E5.28218
G1 X2.473 Y12.434 E5.36606
G1 X-0.000 Y12.678 E5.44994
G1 X-2.473 Y12.434 E5.53381
G1 X-4.852 Y11.713 E5.61769
G1 X-7.044 Y10.541 E5.70157
G1 X-8.965 Y8.965 E5.78544
G1 X-10.541 Y7.044 E5.86932
G1 X-11.713 Y4.852 E5.95320
G1 X-12.434 Y2.473 E6.03707
G1 X-12.678 Y0.000 E6.12095
G1 X-12.434 Y-2.473 E6.20483
G1 X-11.713 Y-4.852 E6.28871
G1 X-10.541 Y-7.044 E6.37258
G1 X-8.965 Y-8.965 E6.45646
G1 X-8.390 Y-9.437 E6.48157
G1 X0.460 Y-12.360 F5400.000
G1 X-4.368 Y-11.289 F5400.000
G1 X-11.289 Y-4.368 E6.87308 F3415.489
G1 X-11.502 Y-3.666 E6.90244
G1 X-3.666 Y-11.502 E7.34573
G1 X-2.964 Y-11.715 E7.37509
G1 X-11.715 Y-2.964 E7.87016
G1 X-11.905 Y-2.285 E7.89834
G1 X-2.285 Y-11.905 E8.44250
G1 X-1.742 Y-11.958 E8.46431
G1 X-11.958 Y-1.742 E9.04219
G1 X-12.011 Y-1.200 E9.06401
G1 X-1.200 Y-12.011 E9.67562
G1 X-0.657 Y-12.065 E9.69744
G1 X-12.065 Y-0.657 E10.34277
G1 X-12.118 Y-0.114 E10.36459
G1 X-0.114 Y-12.118 E11.04365
G1 X0.352 Y-12.095 E11.06231
G1 X-12.095 Y0.352 E11.76641
G1 X-12.051 Y0.797 E11.78431
G1 X0.797 Y-12.051 E12.51112
G1 X1.243 Y-12.007 E12.52902
G1 X-12.007 Y1.243 E13.27855
G1 X-11.963 Y1.688 E13.29645
G1 X1.688 Y-11.963 E14.06869
G1 X2.134 Y-11.919 E14.08660
G1 X-11.919 Y2.134 E14.88155
G1 X-11.842 Y2.546 E14.89832
G1 X2.546 Y-11.842 E15.71221
G1 X2.921 Y-11.728 E15.72790
G1 X-11.728 Y2.921 E16.55659
G1 X-11.614 Y3.296 E16.57228
G1 X3.296 Y-11.614 E17.41576
G1 X3.672 Y-11.501 E17.43146
G1 X-11.501 Y3.672 E18.28973
G1 X-11.387 Y4.047 E18.30542
G1 X4.047 Y-11.387 E19.17850
G1 X4.423 Y-11.273 E19.19419
G1 X-11.273 Y4.423 E20.08205
G1 X-11.135 Y4.774 E20.09716
G1 X4.774 Y-11.135 E20.99716
G1 X5.093 Y-10.965 E21.01162
G1 X-10.965 Y5.093 E21.92002
G1 X-10.794 Y5.412 E21.93448
G1 X5.412 Y-10.794 E22.85127
G1 X5.731 Y-10.624 E22.86573
G1 X-10.624 Y5.731 E23.79092
G1 X-10.454 Y6.050 E23.80538
G1 X6.050 Y-10.454 E24.73896
G1 X6.369 Y-10.283 E24.75342
G1 X-10.283 Y6.369 E25.69540
G1 X-10.113 Y6.688 E25.70986
G1 X6.688 Y-10.113 E26.66024
G1 X6.964 Y-9.900 E26.67420
G1 X-9.900 Y6.964 E27.62821
G1 X-9.680 Y7.233 E27.64211
G1 X7.233 Y-9.680 E28.59885
G1 X7.502 Y-9.459 E28.61276
G1 X-9.459 Y7.502 E29.57222
G1 X-9.239 Y7.771 E29.58613
G1 X7.771 Y-9.239 E30.54832
G1 X8.039 Y-9.018 E30.56222
G1 X-9.018 Y8.039 E31.52714
G1 X-8.797 Y8.308 E31.54104
G1 X8.308 Y-8.797 E32.50869
G1 X8.563 Y-8.563 E32.52254
G1 X-8.563 Y8.563 E33.49130
G1 X-8.308 Y8.797 E33.50515
G1 X8.797 Y-8.308 E34.47279
G1 X9.018 Y-8.039 E34.48670
G1 X-8.039 Y9.018 E35.45161
G1 X-7.771 Y9.239 E35.46552
G1 X9.239 Y-7.771 E36.42771
G1 X9.459 Y-7.502 E36.44161
G1 X-7.502 Y9.459 E37.40108
G1 X-7.233 Y9.680 E37.41498
G1 X9.680 Y-7.233 E38.37172
G1 X9.900 Y-6.964 E38.38563
G1 X-6.964 Y9.900 E39.33964
G1 X-6.688 Y10.113 E39.35360
G1 X10.113 Y-6.688 E40.30397
G1 X10.283 Y-6.369 E40.31843
G1 X-6.369 Y10.283 E41.26041
G1 X-6.050 Y10.454 E41.27487
G1 X10.454 Y-6.050 E42.20846
G1 X10.624 Y-5.731 E42.22292
G1 X-5.731 Y10.624 E43.14810
G1 X-5.412 Y10.794 E43.16257
G1 X10.794 Y-5.412 E44.07936
G1 X10.965 Y-5.093 E44.09382
G1 X-5.093 Y10.965 E45.00221
G1 X-4.774 Y11.135 E45.01667
G1 X11.135 Y-4.774 E45.91667
G1 X11.273 Y-4.423 E45.93178
G1 X-4.423 Y11.273 E46.81965
G1 X-4.047 Y11.387 E46.83534
G1 X11.387 Y-4.047 E47.70841
G1 X11.501 Y-3.672 E47.72410
G1 X-3.672 Y11.501 E48.58238
G1 X-3.296 Y11.614 E48.59807
G1 X11.614 Y-3.296 E49.44155
G1 X11.728 Y-2.921 E49.45724
G1 X-2.921 Y11.728 E50.28593
G1 X-2.546 Y11.842 E50.30162
G1 X11.842 Y-2.546 E51.11551
G1 X11.919 Y-2.134 E51.13228
G1 X-2.134 Y11.919 E51.92724
G1 X-1.688 Y11.963 E51.94514
G1 X11.963 Y-1.688 E52.71738
G1 X12.007 Y-1.243 E52.73528
G1 X-1.243 Y12.007 E53.48481
G1 X-0.797 Y12.051 E53.50271
G1 X12.051 Y-0.797 E54.22952
G1 X12.095 Y-0.352 E54.24743
G1 X-0.352 Y12.095 E54.95152
G1 X0.114 Y12.118 E54.97018
G1 X12.118 Y0.114 E55.64924
G1 X12.065 Y0.657 E55.67106
G1 X0.657 Y12.065 E56.31640
G1 X1.200 Y12.011 E56.33821
G1 X12.011 Y1.200 E56.94982
G1 X11.958 Y1.742 E56.97164
G1 X1.742 Y11.958 E57.54952
G1 X2.285 Y11.905 E57.57134
G1 X11.905 Y2.285 E58.11550
G1 X11.715 Y2.964 E58.14367
G1 X2.964 Y11.715 E58.63875
G1 X3.666 Y11.502 E58.66811
G1 X11.502 Y3.666 E59.11140
G1 X11.289 Y4.368 E59.14076
G1 X4.368 Y11.289 E59.53227
G1 X5.284 Y10.863 F5400.000
G1 X10.863 Y5.284 E59.84790 F3415.489
G1 X10.301 Y6.335 F5400.000
G1 X6.335 Y10.301 E60.07229 F3415.489
G1 X8.418 Y8.707 F5400.000
G1 X8.707 Y8.418 E60.08861 F3415.489
G1 X-5.284 Y-10.863 F5400.000
G1 X-10.863 Y-5.284 E60.40425 F3415.489
G1 X-10.301 Y-6.335 F5400.000
G1 X-6.335 Y-10.301 E60.62864 F3415.489
G1 X-8.418 Y-8.707 F5400.000
G1 X-8.707 Y-8.418 E60.64496 F3415.489
G1 F600.000 E59.94496
G92 E0
G1 Z0.960 F5400.000
G1 X-9.341 Y-8.007 F5400.000
G1 Z0.760 F5400.000
