; generated by Slic3r 1.2.8-dev on 2015-06-05 at 16:54:53

; external perimeters extrusion width = 0.35mm
; perimeters extrusion width = 0.59mm
; infill extrusion width = 0.98mm
; solid infill extrusion width = 0.59mm
; top infill extrusion width = 0.59mm

M107
G28
G92 X0 Y0 Z0 E0
G1 F5000 Y30 X30
G1 X220
G1 F100 E10

G28
G92 X0 Y0 Z0
G1 F4000 X101 Y127
G92 X0 Y0 Z0 E0
G21 ; set units to millimeters
G90 ; use absolute coordinates
M82 ; use absolute distances for extrusion
G92 E0
G1 E-0.70000 F600.00000
G92 E0
G1 Z0.200 F5400.000
G1 Z0.400 F5400.000
G1 X34.927 Y-2.444 F5400.000
G1 Z0.200 F5400.000
G1 E0.70000 F600.00000
G1 X34.460 Y45.755 E2.13118 F1800.000
G1 X34.044 Y47.716 E2.19069
G1 X32.902 Y49.363 E2.25020
G1 X31.211 Y50.439 E2.30971
G1 X29.389 Y50.777 E2.36474
G1 X-29.856 Y50.777 E4.12379
G1 X-31.821 Y50.381 E4.18330
G1 X-33.478 Y49.255 E4.24280
G1 X-34.570 Y47.574 E4.30231
G1 X-34.927 Y45.706 E4.35879
G1 X-34.927 Y2.499 E5.64167
G1 X-34.460 Y-45.701 E7.07285
G1 X-34.044 Y-47.662 E7.13236
G1 X-32.902 Y-49.309 E7.19187
G1 X-31.211 Y-50.384 E7.25138
G1 X-29.389 Y-50.723 E7.30641
G1 X29.856 Y-50.723 E9.06546
G1 X31.821 Y-50.327 E9.12496
G1 X33.478 Y-49.201 E9.18447
G1 X34.570 Y-47.520 E9.24398
G1 X34.927 Y-45.652 E9.30045
G1 X34.927 Y-2.497 E10.58178
G1 X34.570 Y-2.448 F5400.000
G1 X34.102 Y45.752 E12.01296 F1800.000
G1 X33.688 Y47.639 E12.07031
G1 X32.552 Y49.201 E12.12767
G1 X30.885 Y50.176 E12.18502
G1 X29.389 Y50.420 E12.23004
G1 X-29.856 Y50.420 E13.98909
G1 X-31.747 Y50.025 E14.04644
G1 X-33.320 Y48.904 E14.10379
G1 X-34.311 Y47.246 E14.16115
G1 X-34.570 Y45.706 E14.20751
G1 X-34.570 Y2.502 E15.49029
G1 X-34.102 Y-45.698 E16.92147
G1 X-33.688 Y-47.584 E16.97882
G1 X-32.552 Y-49.147 E17.03618
G1 X-30.885 Y-50.122 E17.09353
G1 X-29.389 Y-50.366 E17.13855
G1 X29.856 Y-50.366 E18.89759
G1 X31.747 Y-49.970 E18.95495
G1 X33.320 Y-48.849 E19.01230
G1 X34.311 Y-47.192 E19.06966
G1 X34.570 Y-45.652 E19.11602
G1 X34.570 Y-2.500 E20.39724
G1 X34.213 Y-2.451 F5400.000
G1 X33.745 Y45.748 E21.82842 F1800.000
G1 X33.332 Y47.558 E21.88353
G1 X32.204 Y49.032 E21.93865
G1 X30.564 Y49.902 E21.99376
G1 X29.389 Y50.063 E22.02899
G1 X-29.856 Y50.063 E23.78803
G1 X-31.670 Y49.668 E23.84315
G1 X-33.154 Y48.553 E23.89826
G1 X-34.040 Y46.922 E23.95337
G1 X-34.213 Y45.706 E23.98984
G1 X-34.213 Y2.506 E25.27252
G1 X-33.745 Y-45.694 E26.70370
G1 X-33.332 Y-47.504 E26.75882
G1 X-32.204 Y-48.977 E26.81393
G1 X-30.564 Y-49.847 E26.86904
G1 X-29.389 Y-50.009 E26.90427
G1 X29.856 Y-50.009 E28.66331
G1 X31.670 Y-49.614 E28.71843
G1 X33.154 Y-48.499 E28.77354
G1 X34.040 Y-46.868 E28.82866
G1 X34.213 Y-45.652 E28.86512
G1 X34.213 Y-2.504 E30.14624
G1 E29.44624 F600.00000
G92 E0
G1 Z0.400 F5400.000
G1 X13.291 Y-35.943 F5400.000
G1 Z0.200 F5400.000
G1 E0.70000 F600.00000
G1 X-12.823 Y-35.943 E1.47536 F900.000
G1 X-12.823 Y-3.051 E2.45198
G1 X-28.831 Y-3.051 E2.92728
G1 X-28.831 Y-45.095 E4.17563
G1 X29.299 Y-45.095 E5.90159
G1 X29.299 Y-3.051 E7.14993
G1 X13.291 Y-3.051 E7.62523
G1 X13.291 Y-35.891 E8.60029
G1 X12.934 Y-35.586 F5400.000
G1 X-12.466 Y-35.586 E9.35445 F720.000
G1 X-12.466 Y-2.694 E10.33108
G1 X-29.189 Y-2.694 E10.82758
G1 X-29.189 Y-45.452 E12.09713
G1 X29.656 Y-45.452 E13.84429
G1 X29.656 Y-2.694 E15.11384
G1 X12.934 Y-2.694 E15.61034
G1 X12.934 Y-35.534 E16.58541
G1 X12.934 Y-35.936 F5400.000
G1 X13.492 Y-35.561 F5400.000
G1 X29.097 Y-19.955 E17.24073 F1800.000
G1 X29.097 Y-19.450 E17.25573
G1 X13.492 Y-35.056 E17.91106
G1 X13.492 Y-34.551 E17.92605
G1 X29.097 Y-18.945 E18.58138
G1 X29.097 Y-18.440 E18.59638
G1 X13.492 Y-34.046 E19.25171
G1 X13.492 Y-33.541 E19.26670
G1 X29.097 Y-17.935 E19.92203
G1 X29.097 Y-17.430 E19.93703
G1 X13.492 Y-33.036 E20.59235
G1 X13.492 Y-32.531 E20.60735
G1 X29.097 Y-16.925 E21.26268
G1 X29.097 Y-16.420 E21.27767
G1 X13.492 Y-32.026 E21.93300
G1 X13.492 Y-31.521 E21.94800
G1 X29.097 Y-15.915 E22.60332
G1 X29.097 Y-15.410 E22.61832
G1 X13.492 Y-31.016 E23.27365
G1 X13.492 Y-30.511 E23.28864
G1 X29.097 Y-14.905 E23.94397
G1 X29.097 Y-14.400 E23.95897
G1 X13.492 Y-30.006 E24.61429
G1 X13.492 Y-29.500 E24.62929
G1 X29.097 Y-13.895 E25.28462
G1 X29.097 Y-13.390 E25.29961
G1 X13.492 Y-28.995 E25.95494
G1 X13.492 Y-28.490 E25.96994
G1 X29.097 Y-12.885 E26.62527
G1 X29.097 Y-12.380 E26.64026
G1 X13.492 Y-27.985 E27.29559
G1 X13.492 Y-27.480 E27.31059
G1 X29.097 Y-11.875 E27.96591
G1 X29.097 Y-11.370 E27.98091
G1 X13.492 Y-26.975 E28.63624
G1 X13.492 Y-26.470 E28.65123
G1 X29.097 Y-10.865 E29.30656
G1 X29.097 Y-10.360 E29.32156
G1 X13.492 Y-25.965 E29.97688
G1 X13.492 Y-25.460 E29.99188
G1 X29.097 Y-9.855 E30.64721
G1 X29.097 Y-9.350 E30.66220
G1 X13.492 Y-24.955 E31.31753
G1 X13.492 Y-24.450 E31.33253
G1 X29.097 Y-8.845 E31.98786
G1 X29.097 Y-8.340 E32.00285
G1 X13.492 Y-23.945 E32.65818
G1 X13.492 Y-23.440 E32.67318
G1 X29.097 Y-7.835 E33.32850
G1 X29.097 Y-7.330 E33.34350
G1 X13.492 Y-22.935 E33.99883
G1 X13.492 Y-22.430 E34.01382
G1 X29.097 Y-6.825 E34.66915
G1 X29.097 Y-6.320 E34.68415
G1 X13.492 Y-21.925 E35.33947
G1 X13.492 Y-21.420 E35.35447
G1 X29.097 Y-5.815 E36.00980
G1 X29.097 Y-5.310 E36.02479
G1 X13.492 Y-20.915 E36.68012
G1 X13.492 Y-20.410 E36.69512
G1 X29.097 Y-4.804 E37.35044
G1 X29.097 Y-4.299 E37.36544
G1 X13.492 Y-19.905 E38.02077
G1 X13.492 Y-19.400 E38.03576
G1 X29.097 Y-3.794 E38.69109
G1 X29.096 Y-3.291 E38.70605
G1 X13.492 Y-18.895 E39.36132
G1 X13.492 Y-18.390 E39.37632
G1 X28.630 Y-3.252 E40.01200
G1 X28.125 Y-3.252 E40.02700
G1 X13.492 Y-17.885 E40.64148
G1 X13.492 Y-17.380 E40.65648
G1 X27.620 Y-3.252 E41.24975
G1 X27.115 Y-3.252 E41.26474
G1 X13.492 Y-16.875 E41.83681
G1 X13.492 Y-16.370 E41.85180
G1 X26.610 Y-3.252 E42.40266
G1 X26.105 Y-3.252 E42.41765
G1 X13.492 Y-15.865 E42.94730
G1 X13.492 Y-15.360 E42.96230
G1 X25.600 Y-3.252 E43.47074
G1 X25.095 Y-3.252 E43.48573
G1 X13.492 Y-14.855 E43.97296
G1 X13.492 Y-14.350 E43.98796
G1 X24.590 Y-3.252 E44.45398
G1 X24.084 Y-3.252 E44.46898
G1 X13.492 Y-13.844 E44.91379
G1 X13.492 Y-13.339 E44.92879
G1 X23.579 Y-3.252 E45.35240
G1 X23.074 Y-3.252 E45.36739
G1 X13.492 Y-12.834 E45.76979
G1 X13.492 Y-12.329 E45.78479
G1 X22.569 Y-3.252 E46.16598
G1 X22.064 Y-3.252 E46.18097
G1 X13.492 Y-11.824 E46.54096
G1 X13.492 Y-11.319 E46.55595
G1 X21.559 Y-3.252 E46.89473
G1 X21.054 Y-3.252 E46.90972
G1 X13.492 Y-10.814 E47.22729
G1 X13.492 Y-10.309 E47.24228
G1 X20.549 Y-3.252 E47.53864
G1 X20.044 Y-3.252 E47.55364
G1 X13.492 Y-9.804 E47.82879
G1 X13.492 Y-9.299 E47.84379
G1 X19.539 Y-3.252 E48.09773
G1 X19.034 Y-3.252 E48.11272
G1 X13.492 Y-8.794 E48.34546
G1 X13.492 Y-8.289 E48.36045
G1 X18.529 Y-3.252 E48.57198
G1 X18.024 Y-3.252 E48.58698
G1 X13.492 Y-7.784 E48.77729
G1 X13.492 Y-7.279 E48.79229
G1 X17.519 Y-3.252 E48.96140
G1 X17.014 Y-3.252 E48.97639
G1 X13.492 Y-6.774 E49.12430
G1 X13.492 Y-6.269 E49.13929
G1 X16.509 Y-3.252 E49.26599
G1 X16.004 Y-3.252 E49.28098
G1 X13.492 Y-5.764 E49.38647
G1 X13.492 Y-5.259 E49.40146
G1 X15.499 Y-3.252 E49.48574
G1 X14.994 Y-3.252 E49.50074
G1 X13.492 Y-4.754 E49.56381
G1 X13.492 Y-4.249 E49.57880
G1 X14.489 Y-3.252 E49.62066
G1 X13.984 Y-3.252 E49.63566
G1 X13.492 Y-3.744 E49.65631
G1 E48.95631 F600.00000
G92 E0
G1 Z0.400 F5400.000
G1 X-13.266 Y-3.494 F5400.000
G1 X-13.266 Y-3.494 F5400.000
G1 X-27.934 Y-3.252 F5400.000
G1 Z0.200 F5400.000
G1 E0.70000 F600.00000
G1 X-28.630 Y-3.948 E0.72924 F1800.000
G1 X-28.630 Y-4.453 E0.74424
G1 X-27.429 Y-3.252 E0.79469
G1 X-26.924 Y-3.252 E0.80969
G1 X-28.630 Y-4.958 E0.88134
G1 X-28.630 Y-5.463 E0.89634
G1 X-26.419 Y-3.252 E0.98921
G1 X-25.914 Y-3.252 E1.00420
G1 X-28.630 Y-5.969 E1.11828
G1 X-28.630 Y-6.474 E1.13327
G1 X-25.409 Y-3.252 E1.26856
G1 X-24.904 Y-3.252 E1.28355
G1 X-28.630 Y-6.979 E1.44004
G1 X-28.630 Y-7.484 E1.45504
G1 X-24.399 Y-3.252 E1.63274
G1 X-23.894 Y-3.252 E1.64774
G1 X-28.630 Y-7.989 E1.84664
G1 X-28.630 Y-8.494 E1.86164
G1 X-23.388 Y-3.252 E2.08176
G1 X-22.883 Y-3.252 E2.09675
G1 X-28.630 Y-8.999 E2.33808
G1 X-28.630 Y-9.504 E2.35307
G1 X-22.378 Y-3.252 E2.61560
G1 X-21.873 Y-3.252 E2.63060
G1 X-28.630 Y-10.009 E2.91434
G1 X-28.630 Y-10.514 E2.92934
G1 X-21.368 Y-3.252 E3.23428
G1 X-20.863 Y-3.252 E3.24928
G1 X-28.630 Y-11.019 E3.57543
G1 X-28.630 Y-11.524 E3.59043
G1 X-20.358 Y-3.252 E3.93779
G1 X-19.853 Y-3.252 E3.95279
G1 X-28.630 Y-12.029 E4.32136
G1 X-28.630 Y-12.534 E4.33636
G1 X-19.348 Y-3.252 E4.72614
G1 X-18.843 Y-3.252 E4.74114
G1 X-28.630 Y-13.039 E5.15212
G1 X-28.630 Y-13.544 E5.16712
G1 X-18.338 Y-3.252 E5.59932
G1 X-17.833 Y-3.252 E5.61431
G1 X-28.630 Y-14.049 E6.06772
G1 X-28.630 Y-14.554 E6.08271
G1 X-17.328 Y-3.252 E6.55733
G1 X-16.823 Y-3.252 E6.57232
G1 X-28.630 Y-15.059 E7.06814
G1 X-28.630 Y-15.564 E7.08314
G1 X-16.318 Y-3.252 E7.60017
G1 X-15.813 Y-3.252 E7.61516
G1 X-28.630 Y-16.069 E8.15340
G1 X-28.630 Y-16.574 E8.16840
G1 X-15.308 Y-3.252 E8.72784
G1 X-14.803 Y-3.252 E8.74284
G1 X-28.630 Y-17.079 E9.32349
G1 X-28.630 Y-17.584 E9.33849
G1 X-14.298 Y-3.252 E9.94035
G1 X-13.793 Y-3.252 E9.95534
G1 X-28.630 Y-18.089 E10.57841
G1 X-28.630 Y-18.594 E10.59341
G1 X-13.288 Y-3.252 E11.23769
G1 X-13.025 Y-3.494 E11.24830
G1 X-28.630 Y-19.099 E11.90363
G1 X-28.630 Y-19.604 E11.91862
G1 X-13.025 Y-3.999 E12.57395
G1 X-13.025 Y-4.504 E12.58895
G1 X-28.630 Y-20.109 E13.24427
G1 X-28.630 Y-20.614 E13.25927
G1 X-13.025 Y-5.009 E13.91460
G1 X-13.025 Y-5.514 E13.92959
G1 X-28.630 Y-21.119 E14.58492
G1 X-28.630 Y-21.625 E14.59992
G1 X-13.025 Y-6.019 E15.25525
G1 X-13.025 Y-6.524 E15.27024
G1 X-28.630 Y-22.130 E15.92557
G1 X-28.630 Y-22.635 E15.94057
G1 X-13.025 Y-7.029 E16.59589
G1 X-13.025 Y-7.534 E16.61089
G1 X-28.630 Y-23.140 E17.26622
G1 X-28.630 Y-23.645 E17.28121
G1 X-13.025 Y-8.039 E17.93654
G1 X-13.025 Y-8.544 E17.95154
G1 X-28.630 Y-24.150 E18.60686
G1 X-28.630 Y-24.655 E18.62186
G1 X-13.025 Y-9.049 E19.27719
G1 X-13.025 Y-9.554 E19.29218
G1 X-28.630 Y-25.160 E19.94751
G1 X-28.630 Y-25.665 E19.96251
G1 X-13.025 Y-10.059 E20.61784
G1 X-13.025 Y-10.564 E20.63283
G1 X-28.630 Y-26.170 E21.28816
G1 X-28.630 Y-26.675 E21.30316
G1 X-13.025 Y-11.069 E21.95848
G1 X-13.025 Y-11.574 E21.97348
G1 X-28.630 Y-27.180 E22.62881
G1 X-28.630 Y-27.685 E22.64380
G1 X-13.025 Y-12.079 E23.29913
G1 X-13.025 Y-12.585 E23.31413
G1 X-28.630 Y-28.190 E23.96945
G1 X-28.630 Y-28.695 E23.98445
G1 X-13.025 Y-13.090 E24.63978
G1 X-13.025 Y-13.595 E24.65478
G1 X-28.630 Y-29.200 E25.31010
G1 X-28.630 Y-29.705 E25.32510
G1 X-13.025 Y-14.100 E25.98043
G1 X-13.025 Y-14.605 E25.99542
G1 X-28.630 Y-30.210 E26.65075
G1 X-28.630 Y-30.715 E26.66575
G1 X-13.025 Y-15.110 E27.32107
G1 X-13.025 Y-15.615 E27.33607
G1 X-28.630 Y-31.220 E27.99140
G1 X-28.630 Y-31.725 E28.00639
G1 X-13.025 Y-16.120 E28.66172
G1 X-13.025 Y-16.625 E28.67672
G1 X-28.630 Y-32.230 E29.33205
G1 X-28.630 Y-32.735 E29.34704
G1 X-13.025 Y-17.130 E30.00237
G1 X-13.025 Y-17.635 E30.01737
G1 X-28.630 Y-33.240 E30.67269
G1 X-28.630 Y-33.745 E30.68769
G1 X-13.025 Y-18.140 E31.34302
G1 X-13.025 Y-18.645 E31.35801
G1 X-28.630 Y-34.250 E32.01334
G1 X-28.630 Y-34.755 E32.02834
G1 X-13.025 Y-19.150 E32.68366
G1 X-13.025 Y-19.655 E32.69866
G1 X-28.630 Y-35.260 E33.35399
G1 X-28.630 Y-35.765 E33.36898
G1 X-13.025 Y-20.160 E34.02431
G1 X-13.025 Y-20.665 E34.03931
G1 X-28.630 Y-36.270 E34.69464
G1 X-28.630 Y-36.775 E34.70963
G1 X-13.025 Y-21.170 E35.36496
G1 X-13.025 Y-21.675 E35.37996
G1 X-28.630 Y-37.281 E36.03528
G1 X-28.630 Y-37.786 E36.05028
G1 X-13.025 Y-22.180 E36.70561
G1 X-13.025 Y-22.685 E36.72060
G1 X-28.630 Y-38.291 E37.37593
G1 X-28.630 Y-38.796 E37.39093
G1 X-13.025 Y-23.190 E38.04625
G1 X-13.025 Y-23.695 E38.06125
G1 X-28.630 Y-39.301 E38.71658
G1 X-28.630 Y-39.806 E38.73157
G1 X-13.025 Y-24.200 E39.38690
G1 X-13.025 Y-24.705 E39.40190
G1 X-28.630 Y-40.311 E40.05723
G1 X-28.630 Y-40.816 E40.07222
G1 X-13.025 Y-25.210 E40.72755
G1 X-13.025 Y-25.715 E40.74255
G1 X-28.630 Y-41.321 E41.39787
G1 X-28.630 Y-41.826 E41.41287
G1 X-13.025 Y-26.220 E42.06820
G1 X-13.025 Y-26.725 E42.08319
G1 X-28.630 Y-42.331 E42.73852
G1 X-28.630 Y-42.836 E42.75352
G1 X-13.025 Y-27.230 E43.40884
G1 X-13.025 Y-27.735 E43.42384
G1 X-28.630 Y-43.341 E44.07917
G1 X-28.630 Y-43.846 E44.09416
G1 X-13.025 Y-28.240 E44.74949
G1 X-13.025 Y-28.746 E44.76449
G1 X-28.630 Y-44.351 E45.41982
G1 X-28.629 Y-44.855 E45.43477
G1 X-13.025 Y-29.251 E46.09005
G1 X-13.025 Y-29.756 E46.10505
G1 X-28.163 Y-44.893 E46.74074
G1 X-27.658 Y-44.893 E46.75574
G1 X-13.025 Y-30.261 E47.37022
G1 X-13.025 Y-30.766 E47.38522
G1 X-27.153 Y-44.893 E47.97850
G1 X-26.648 Y-44.893 E47.99350
G1 X-13.025 Y-31.271 E48.56557
G1 X-13.025 Y-31.776 E48.58056
G1 X-26.142 Y-44.893 E49.13142
G1 X-25.637 Y-44.893 E49.14642
G1 X-13.025 Y-32.281 E49.67608
G1 X-13.025 Y-32.786 E49.69107
G1 X-25.132 Y-44.893 E50.19952
G1 X-24.627 Y-44.893 E50.21451
G1 X-13.025 Y-33.291 E50.70175
G1 X-13.025 Y-33.796 E50.71675
G1 X-24.122 Y-44.893 E51.18278
G1 X-23.617 Y-44.893 E51.19777
G1 X-13.025 Y-34.301 E51.64260
G1 X-13.025 Y-34.806 E51.65759
G1 X-23.112 Y-44.893 E52.08121
G1 X-22.607 Y-44.893 E52.09620
G1 X-13.025 Y-35.311 E52.49861
G1 X-13.025 Y-35.816 E52.51361
G1 X-22.102 Y-44.893 E52.89480
G1 X-21.597 Y-44.893 E52.90980
G1 X-12.848 Y-36.145 E53.27720
G1 X-12.343 Y-36.145 E53.29219
G1 X-21.092 Y-44.893 E53.65959
G1 X-20.587 Y-44.893 E53.67459
G1 X-11.838 Y-36.145 E54.04199
G1 X-11.333 Y-36.145 E54.05698
G1 X-20.082 Y-44.893 E54.42438
G1 X-19.577 Y-44.893 E54.43938
G1 X-10.828 Y-36.145 E54.80678
G1 X-10.323 Y-36.145 E54.82177
G1 X-19.072 Y-44.893 E55.18917
G1 X-18.567 Y-44.893 E55.20417
G1 X-9.818 Y-36.145 E55.57156
G1 X-9.313 Y-36.145 E55.58656
G1 X-18.062 Y-44.893 E55.95396
G1 X-17.557 Y-44.893 E55.96895
G1 X-8.808 Y-36.145 E56.33635
G1 X-8.303 Y-36.145 E56.35135
G1 X-17.052 Y-44.893 E56.71875
G1 X-16.547 Y-44.893 E56.73374
G1 X-7.798 Y-36.145 E57.10114
G1 X-7.293 Y-36.145 E57.11614
G1 X-16.042 Y-44.893 E57.48354
G1 X-15.537 Y-44.893 E57.49853
G1 X-6.788 Y-36.145 E57.86593
G1 X-6.283 Y-36.145 E57.88093
G1 X-15.032 Y-44.893 E58.24833
G1 X-14.527 Y-44.893 E58.26332
G1 X-5.778 Y-36.145 E58.63072
G1 X-5.273 Y-36.145 E58.64572
G1 X-14.022 Y-44.893 E59.01311
G1 X-13.517 Y-44.893 E59.02811
G1 X-4.768 Y-36.145 E59.39551
G1 X-4.263 Y-36.145 E59.41050
G1 X-13.012 Y-44.893 E59.77790
G1 X-12.507 Y-44.893 E59.79290
G1 X-3.758 Y-36.145 E60.16030
G1 X-3.253 Y-36.145 E60.17529
G1 X-12.002 Y-44.893 E60.54269
G1 X-11.497 Y-44.893 E60.55769
G1 X-2.748 Y-36.145 E60.92509
G1 X-2.243 Y-36.145 E60.94008
G1 X-10.992 Y-44.893 E61.30748
G1 X-10.487 Y-44.893 E61.32248
G1 X-1.738 Y-36.145 E61.68987
G1 X-1.233 Y-36.145 E61.70487
G1 X-9.981 Y-44.893 E62.07227
G1 X-9.476 Y-44.893 E62.08727
G1 X-0.728 Y-36.145 E62.45466
G1 X-0.223 Y-36.145 E62.46966
G1 X-8.971 Y-44.893 E62.83706
G1 X-8.466 Y-44.893 E62.85205
G1 X0.283 Y-36.145 E63.21945
G1 X0.788 Y-36.145 E63.23445
G1 X-7.961 Y-44.893 E63.60185
G1 X-7.456 Y-44.893 E63.61684
G1 X1.293 Y-36.145 E63.98424
G1 X1.798 Y-36.145 E63.99924
G1 X-6.951 Y-44.893 E64.36664
G1 X-6.446 Y-44.893 E64.38163
G1 X2.303 Y-36.145 E64.74903
G1 X2.808 Y-36.145 E64.76403
G1 X-5.941 Y-44.893 E65.13142
G1 X-5.436 Y-44.893 E65.14642
G1 X3.313 Y-36.145 E65.51382
G1 X3.818 Y-36.145 E65.52881
G1 X-4.931 Y-44.893 E65.89621
G1 X-4.426 Y-44.893 E65.91121
G1 X4.323 Y-36.145 E66.27861
G1 X4.828 Y-36.145 E66.29360
G1 X-3.921 Y-44.893 E66.66100
G1 X-3.416 Y-44.893 E66.67600
G1 X5.333 Y-36.145 E67.04340
G1 X5.838 Y-36.145 E67.05839
G1 X-2.911 Y-44.893 E67.42579
G1 X-2.406 Y-44.893 E67.44079
G1 X6.343 Y-36.145 E67.80818
G1 X6.848 Y-36.145 E67.82318
G1 X-1.901 Y-44.893 E68.19058
G1 X-1.396 Y-44.893 E68.20557
G1 X7.353 Y-36.145 E68.57297
G1 X7.858 Y-36.145 E68.58797
G1 X-0.891 Y-44.893 E68.95537
G1 X-0.386 Y-44.893 E68.97036
G1 X8.363 Y-36.145 E69.33776
G1 X8.868 Y-36.145 E69.35276
G1 X0.119 Y-44.893 E69.72016
G1 X0.624 Y-44.893 E69.73515
G1 X9.373 Y-36.145 E70.10255
G1 X9.878 Y-36.145 E70.11755
G1 X1.129 Y-44.893 E70.48494
G1 X1.634 Y-44.893 E70.49994
G1 X10.383 Y-36.145 E70.86734
G1 X10.888 Y-36.145 E70.88233
G1 X2.139 Y-44.893 E71.24973
G1 X2.644 Y-44.893 E71.26473
