; generated by Slic3r 1.2.8-dev on 2015-06-05 at 16:53:33

; external perimeters extrusion width = 0.35mm
; perimeters extrusion width = 0.59mm
; infill extrusion width = 0.98mm
; solid infill extrusion width = 0.59mm
; top infill extrusion width = 0.59mm

M107
G28
G92 X0 Y0 Z0 E0
G1 F5000 Y30 X30
G1 X220
G1 F100 E10

G28
G92 X0 Y0 Z0
G1 F4000 X101 Y127
G92 X0 Y0 Z0 E0
G21 ; set units to millimeters
G90 ; use absolute coordinates
M82 ; use absolute distances for extrusion
G92 E0
G1 E-0.70000 F600.00000
G92 E0
G1 Z0.200 F5400.000
G1 Z0.400 F5400.000
G1 X29.622 Y-26.623 F5400.000
G1 Z0.200 F5400.000
G1 E0.70000 F600.00000
G1 X31.587 Y-26.227 E0.75951 F1800.000
G1 X33.245 Y-25.101 E0.81902
G1 X34.337 Y-23.420 E0.87853
G1 X34.693 Y-21.552 E0.93500
G1 X34.693 Y21.606 E2.21642
G1 X34.297 Y23.571 E2.27593
G1 X33.171 Y25.229 E2.33544
G1 X31.490 Y26.321 E2.39495
G1 X29.622 Y26.677 E2.45142
G1 X-29.622 Y26.677 E4.21046
G1 X-31.587 Y26.281 E4.26997
G1 X-33.245 Y25.155 E4.32948
G1 X-34.337 Y23.474 E4.38899
G1 X-34.693 Y21.606 E4.44546
G1 X-34.693 Y-21.552 E5.72688
G1 X-34.297 Y-23.517 E5.78639
G1 X-33.171 Y-25.175 E5.84590
G1 X-31.490 Y-26.267 E5.90541
G1 X-29.622 Y-26.623 E5.96188
G1 X29.570 Y-26.623 E7.71937
G1 X29.622 Y-26.266 F5400.000
G1 X31.513 Y-25.870 E7.77672 F1800.000
G1 X33.086 Y-24.750 E7.83407
G1 X34.078 Y-23.092 E7.89143
G1 X34.336 Y-21.552 E7.93779
G1 X34.336 Y21.606 E9.21921
G1 X33.941 Y23.497 E9.27657
G1 X32.820 Y25.070 E9.33392
G1 X31.162 Y26.062 E9.39127
G1 X29.622 Y26.320 E9.43763
G1 X-29.622 Y26.320 E11.19668
G1 X-31.513 Y25.925 E11.25403
G1 X-33.086 Y24.804 E11.31138
G1 X-34.078 Y23.146 E11.36874
G1 X-34.336 Y21.606 E11.41510
G1 X-34.336 Y-21.552 E12.69652
G1 X-33.941 Y-23.443 E12.75388
G1 X-32.820 Y-25.016 E12.81123
G1 X-31.162 Y-26.008 E12.86858
G1 X-29.622 Y-26.266 E12.91494
G1 X29.570 Y-26.266 E14.67243
G1 X29.622 Y-25.909 F5400.000
G1 X31.436 Y-25.514 E14.72754 F1800.000
G1 X32.920 Y-24.399 E14.78266
G1 X33.806 Y-22.768 E14.83777
G1 X33.979 Y-21.552 E14.87424
G1 X33.979 Y21.606 E16.15566
G1 X33.584 Y23.420 E16.21078
G1 X32.469 Y24.904 E16.26589
G1 X30.838 Y25.790 E16.32101
G1 X29.622 Y25.963 E16.35747
G1 X-29.622 Y25.963 E18.11652
G1 X-31.436 Y25.568 E18.17163
G1 X-32.920 Y24.453 E18.22675
G1 X-33.806 Y22.822 E18.28186
G1 X-33.979 Y21.606 E18.31833
G1 X-33.979 Y-21.552 E19.59975
G1 X-33.584 Y-23.366 E19.65487
G1 X-32.469 Y-24.850 E19.70998
G1 X-30.838 Y-25.736 E19.76510
G1 X-29.622 Y-25.909 E19.80156
G1 X29.570 Y-25.909 E21.55905
G1 E20.85905 F600.00000
G92 E0
G1 Z0.400 F5400.000
G1 X-13.057 Y-11.843 F5400.000
G1 Z0.200 F5400.000
G1 E0.70000 F600.00000
G1 X-13.057 Y21.049 E1.67662 F900.000
G1 X-29.065 Y21.049 E2.15192
G1 X-29.065 Y-20.995 E3.40027
G1 X29.065 Y-20.995 E5.12623
G1 X29.065 Y21.049 E6.37457
G1 X13.057 Y21.049 E6.84987
G1 X13.057 Y-11.843 E7.82650
G1 X-13.005 Y-11.843 E8.60030
G1 X-12.700 Y-11.486 F5400.000
G1 X-12.700 Y21.406 E9.57692 F720.000
G1 X-29.422 Y21.406 E10.07343
G1 X-29.422 Y-21.352 E11.34298
G1 X29.422 Y-21.352 E13.09014
G1 X29.422 Y21.406 E14.35969
G1 X12.700 Y21.406 E14.85620
G1 X12.700 Y-11.486 E15.83282
G1 X-12.647 Y-11.486 E16.58542
G1 X-13.050 Y-11.486 F5400.000
G1 X13.258 Y-11.461 F5400.000
G1 X28.864 Y4.144 E17.24075 F1800.000
G1 X28.864 Y4.649 E17.25574
G1 X13.258 Y-10.956 E17.91107
G1 X13.258 Y-10.451 E17.92607
G1 X28.864 Y5.155 E18.58140
G1 X28.864 Y5.660 E18.59639
G1 X13.258 Y-9.946 E19.25172
G1 X13.258 Y-9.441 E19.26672
G1 X28.864 Y6.165 E19.92205
G1 X28.864 Y6.670 E19.93705
G1 X13.258 Y-8.936 E20.59238
G1 X13.258 Y-8.431 E20.60737
G1 X28.864 Y7.175 E21.26270
G1 X28.864 Y7.680 E21.27770
G1 X13.258 Y-7.926 E21.93303
G1 X13.258 Y-7.421 E21.94802
G1 X28.864 Y8.185 E22.60335
G1 X28.864 Y8.690 E22.61835
G1 X13.258 Y-6.916 E23.27368
G1 X13.258 Y-6.411 E23.28868
G1 X28.864 Y9.195 E23.94401
G1 X28.864 Y9.700 E23.95900
G1 X13.258 Y-5.906 E24.61433
G1 X13.258 Y-5.401 E24.62933
G1 X28.864 Y10.205 E25.28466
G1 X28.864 Y10.710 E25.29965
G1 X13.258 Y-4.896 E25.95498
G1 X13.258 Y-4.391 E25.96998
G1 X28.864 Y11.215 E26.62531
G1 X28.864 Y11.720 E26.64031
G1 X13.258 Y-3.886 E27.29563
G1 X13.258 Y-3.380 E27.31063
G1 X28.864 Y12.225 E27.96596
G1 X28.864 Y12.730 E27.98096
G1 X13.258 Y-2.875 E28.63629
G1 X13.258 Y-2.370 E28.65128
G1 X28.864 Y13.235 E29.30661
G1 X28.864 Y13.740 E29.32161
G1 X13.258 Y-1.865 E29.97694
G1 X13.258 Y-1.360 E29.99193
G1 X28.864 Y14.245 E30.64726
G1 X28.864 Y14.750 E30.66226
G1 X13.258 Y-0.855 E31.31759
G1 X13.258 Y-0.350 E31.33259
G1 X28.864 Y15.255 E31.98792
G1 X28.864 Y15.760 E32.00291
G1 X13.258 Y0.155 E32.65824
G1 X13.258 Y0.660 E32.67324
G1 X28.864 Y16.265 E33.32857
G1 X28.864 Y16.770 E33.34356
G1 X13.258 Y1.165 E33.99889
G1 X13.258 Y1.670 E34.01389
G1 X28.864 Y17.275 E34.66922
G1 X28.864 Y17.780 E34.68422
G1 X13.258 Y2.175 E35.33955
G1 X13.258 Y2.680 E35.35454
G1 X28.864 Y18.285 E36.00987
G1 X28.864 Y18.790 E36.02487
G1 X13.258 Y3.185 E36.68020
G1 X13.258 Y3.690 E36.69519
G1 X28.864 Y19.295 E37.35052
G1 X28.864 Y19.800 E37.36552
G1 X13.258 Y4.195 E38.02085
G1 X13.258 Y4.700 E38.03585
G1 X28.864 Y20.305 E38.69118
G1 X28.862 Y20.809 E38.70613
G1 X13.258 Y5.205 E39.36141
G1 X13.258 Y5.710 E39.37640
G1 X28.396 Y20.848 E40.01209
G1 X27.891 Y20.848 E40.02709
G1 X13.258 Y6.215 E40.64157
G1 X13.258 Y6.720 E40.65657
G1 X27.386 Y20.848 E41.24984
G1 X26.881 Y20.848 E41.26484
G1 X13.258 Y7.225 E41.83690
G1 X13.258 Y7.730 E41.85190
G1 X26.376 Y20.848 E42.40276
G1 X25.871 Y20.848 E42.41775
G1 X13.258 Y8.235 E42.94740
G1 X13.258 Y8.740 E42.96240
G1 X25.366 Y20.848 E43.47084
G1 X24.861 Y20.848 E43.48583
G1 X13.258 Y9.245 E43.97307
G1 X13.258 Y9.750 E43.98806
G1 X24.356 Y20.848 E44.45409
G1 X23.851 Y20.848 E44.46909
G1 X13.258 Y10.255 E44.91390
G1 X13.258 Y10.760 E44.92890
G1 X23.346 Y20.848 E45.35251
G1 X22.841 Y20.848 E45.36750
G1 X13.258 Y11.265 E45.76990
G1 X13.258 Y11.770 E45.78490
G1 X22.336 Y20.848 E46.16609
G1 X21.831 Y20.848 E46.18109
G1 X13.258 Y12.275 E46.54107
G1 X13.258 Y12.781 E46.55607
G1 X21.326 Y20.848 E46.89485
G1 X20.821 Y20.848 E46.90984
G1 X13.258 Y13.286 E47.22741
G1 X13.258 Y13.791 E47.24241
G1 X20.316 Y20.848 E47.53877
G1 X19.811 Y20.848 E47.55376
G1 X13.258 Y14.296 E47.82891
G1 X13.258 Y14.801 E47.84391
G1 X19.306 Y20.848 E48.09785
G1 X18.801 Y20.848 E48.11285
G1 X13.258 Y15.306 E48.34559
G1 X13.258 Y15.811 E48.36058
G1 X18.295 Y20.848 E48.57211
G1 X17.790 Y20.848 E48.58711
G1 X13.258 Y16.316 E48.77742
G1 X13.258 Y16.821 E48.79242
G1 X17.285 Y20.848 E48.96153
G1 X16.780 Y20.848 E48.97653
G1 X13.258 Y17.326 E49.12443
G1 X13.258 Y17.831 E49.13943
G1 X16.275 Y20.848 E49.26612
G1 X15.770 Y20.848 E49.28112
G1 X13.258 Y18.336 E49.38661
G1 X13.258 Y18.841 E49.40160
G1 X15.265 Y20.848 E49.48588
G1 X14.760 Y20.848 E49.50088
G1 X13.258 Y19.346 E49.56395
G1 X13.258 Y19.851 E49.57894
G1 X14.255 Y20.848 E49.62081
G1 X13.750 Y20.848 E49.63580
G1 X13.258 Y20.356 E49.65646
G1 E48.95646 F600.00000
G92 E0
G1 Z0.400 F5400.000
G1 X-13.500 Y20.606 F5400.000
G1 X-13.500 Y20.606 F5400.000
G1 X-28.167 Y20.848 F5400.000
G1 Z0.200 F5400.000
G1 E0.70000 F600.00000
G1 X-28.864 Y20.152 E0.72924 F1800.000
G1 X-28.864 Y19.646 E0.74424
G1 X-27.662 Y20.848 E0.79469
G1 X-27.157 Y20.848 E0.80969
G1 X-28.864 Y19.141 E0.88134
G1 X-28.864 Y18.636 E0.89634
G1 X-26.652 Y20.848 E0.98921
G1 X-26.147 Y20.848 E1.00420
G1 X-28.864 Y18.131 E1.11828
G1 X-28.864 Y17.626 E1.13328
G1 X-25.642 Y20.848 E1.26856
G1 X-25.137 Y20.848 E1.28355
G1 X-28.864 Y17.121 E1.44005
G1 X-28.864 Y16.616 E1.45504
G1 X-24.632 Y20.848 E1.63274
G1 X-24.127 Y20.848 E1.64774
G1 X-28.864 Y16.111 E1.84665
G1 X-28.864 Y15.606 E1.86164
G1 X-23.622 Y20.848 E2.08176
G1 X-23.117 Y20.848 E2.09675
G1 X-28.864 Y15.101 E2.33808
G1 X-28.864 Y14.596 E2.35307
G1 X-22.612 Y20.848 E2.61561
G1 X-22.107 Y20.848 E2.63060
G1 X-28.864 Y14.091 E2.91434
G1 X-28.864 Y13.586 E2.92934
G1 X-21.602 Y20.848 E3.23429
G1 X-21.097 Y20.848 E3.24928
G1 X-28.864 Y13.081 E3.57544
G1 X-28.864 Y12.576 E3.59044
G1 X-20.592 Y20.848 E3.93780
G1 X-20.087 Y20.848 E3.95280
G1 X-28.864 Y12.071 E4.32137
G1 X-28.864 Y11.566 E4.33636
G1 X-19.582 Y20.848 E4.72615
G1 X-19.077 Y20.848 E4.74114
G1 X-28.864 Y11.061 E5.15213
G1 X-28.864 Y10.556 E5.16713
G1 X-18.572 Y20.848 E5.59932
G1 X-18.067 Y20.848 E5.61432
G1 X-28.864 Y10.051 E6.06772
G1 X-28.864 Y9.546 E6.08272
G1 X-17.562 Y20.848 E6.55733
G1 X-17.057 Y20.848 E6.57233
G1 X-28.864 Y9.041 E7.06815
G1 X-28.864 Y8.536 E7.08315
G1 X-16.552 Y20.848 E7.60018
G1 X-16.047 Y20.848 E7.61517
G1 X-28.864 Y8.031 E8.15341
G1 X-28.864 Y7.526 E8.16841
G1 X-15.542 Y20.848 E8.72785
G1 X-15.037 Y20.848 E8.74285
G1 X-28.864 Y7.021 E9.32350
G1 X-28.864 Y6.516 E9.33850
G1 X-14.532 Y20.848 E9.94036
G1 X-14.027 Y20.848 E9.95536
G1 X-28.864 Y6.011 E10.57843
G1 X-28.864 Y5.506 E10.59342
G1 X-13.522 Y20.848 E11.23770
G1 X-13.258 Y20.606 E11.24832
G1 X-28.864 Y5.001 E11.90365
G1 X-28.864 Y4.496 E11.91864
G1 X-13.258 Y20.101 E12.57397
G1 X-13.258 Y19.596 E12.58897
G1 X-28.864 Y3.990 E13.24430
G1 X-28.864 Y3.485 E13.25929
G1 X-13.258 Y19.091 E13.91462
G1 X-13.258 Y18.586 E13.92962
G1 X-28.864 Y2.980 E14.58495
G1 X-28.864 Y2.475 E14.59995
G1 X-13.258 Y18.081 E15.25528
G1 X-13.258 Y17.576 E15.27027
G1 X-28.864 Y1.970 E15.92560
G1 X-28.864 Y1.465 E15.94060
G1 X-13.258 Y17.071 E16.59593
G1 X-13.258 Y16.566 E16.61092
G1 X-28.864 Y0.960 E17.26625
G1 X-28.864 Y0.455 E17.28125
G1 X-13.258 Y16.061 E17.93658
G1 X-13.258 Y15.556 E17.95158
G1 X-28.864 Y-0.050 E18.60690
G1 X-28.864 Y-0.555 E18.62190
G1 X-13.258 Y15.051 E19.27723
G1 X-13.258 Y14.546 E19.29223
G1 X-28.864 Y-1.060 E19.94756
G1 X-28.864 Y-1.565 E19.96255
G1 X-13.258 Y14.041 E20.61788
G1 X-13.258 Y13.536 E20.63288
G1 X-28.864 Y-2.070 E21.28821
G1 X-28.864 Y-2.575 E21.30321
G1 X-13.258 Y13.031 E21.95853
G1 X-13.258 Y12.525 E21.97353
G1 X-28.864 Y-3.080 E22.62886
G1 X-28.864 Y-3.585 E22.64386
G1 X-13.258 Y12.020 E23.29919
G1 X-13.258 Y11.515 E23.31418
G1 X-28.864 Y-4.090 E23.96951
G1 X-28.864 Y-4.595 E23.98451
G1 X-13.258 Y11.010 E24.63984
G1 X-13.258 Y10.505 E24.65483
G1 X-28.864 Y-5.100 E25.31016
G1 X-28.864 Y-5.605 E25.32516
G1 X-13.258 Y10.000 E25.98049
G1 X-13.258 Y9.495 E25.99549
G1 X-28.864 Y-6.110 E26.65082
G1 X-28.864 Y-6.615 E26.66581
G1 X-13.258 Y8.990 E27.32114
G1 X-13.258 Y8.485 E27.33614
G1 X-28.864 Y-7.120 E27.99147
G1 X-28.864 Y-7.625 E28.00646
G1 X-13.258 Y7.980 E28.66179
G1 X-13.258 Y7.475 E28.67679
G1 X-28.864 Y-8.130 E29.33212
G1 X-28.864 Y-8.635 E29.34712
G1 X-13.258 Y6.970 E30.00245
G1 X-13.258 Y6.465 E30.01744
G1 X-28.864 Y-9.140 E30.67277
G1 X-28.864 Y-9.645 E30.68777
G1 X-13.258 Y5.960 E31.34310
G1 X-13.258 Y5.455 E31.35809
G1 X-28.864 Y-10.150 E32.01342
G1 X-28.864 Y-10.655 E32.02842
G1 X-13.258 Y4.950 E32.68375
G1 X-13.258 Y4.445 E32.69875
G1 X-28.864 Y-11.160 E33.35408
G1 X-28.864 Y-11.666 E33.36907
G1 X-13.258 Y3.940 E34.02440
G1 X-13.258 Y3.435 E34.03940
G1 X-28.864 Y-12.171 E34.69473
G1 X-28.864 Y-12.676 E34.70972
G1 X-13.258 Y2.930 E35.36505
G1 X-13.258 Y2.425 E35.38005
G1 X-28.864 Y-13.181 E36.03538
G1 X-28.864 Y-13.686 E36.05038
G1 X-13.258 Y1.920 E36.70571
G1 X-13.258 Y1.415 E36.72070
G1 X-28.864 Y-14.191 E37.37603
G1 X-28.864 Y-14.696 E37.39103
G1 X-13.258 Y0.910 E38.04636
G1 X-13.258 Y0.405 E38.06135
G1 X-28.864 Y-15.201 E38.71668
G1 X-28.864 Y-15.706 E38.73168
G1 X-13.258 Y-0.100 E39.38701
G1 X-13.258 Y-0.605 E39.40201
G1 X-28.864 Y-16.211 E40.05734
G1 X-28.864 Y-16.716 E40.07233
G1 X-13.258 Y-1.110 E40.72766
G1 X-13.258 Y-1.615 E40.74266
G1 X-28.864 Y-17.221 E41.39799
G1 X-28.864 Y-17.726 E41.41298
G1 X-13.258 Y-2.120 E42.06831
G1 X-13.258 Y-2.625 E42.08331
G1 X-28.864 Y-18.231 E42.73864
G1 X-28.864 Y-18.736 E42.75364
G1 X-13.258 Y-3.131 E43.40896
G1 X-13.258 Y-3.636 E43.42396
G1 X-28.864 Y-19.241 E44.07929
G1 X-28.864 Y-19.746 E44.09429
G1 X-13.258 Y-4.141 E44.74962
G1 X-13.258 Y-4.646 E44.76461
G1 X-28.864 Y-20.251 E45.41994
G1 X-28.863 Y-20.755 E45.43490
G1 X-13.258 Y-5.151 E46.09018
G1 X-13.258 Y-5.656 E46.10518
G1 X-28.396 Y-20.794 E46.74087
G1 X-27.891 Y-20.794 E46.75587
G1 X-13.258 Y-6.161 E47.37036
G1 X-13.258 Y-6.666 E47.38536
G1 X-27.386 Y-20.794 E47.97864
G1 X-26.881 Y-20.794 E47.99363
G1 X-13.258 Y-7.171 E48.56570
G1 X-13.258 Y-7.676 E48.58070
G1 X-26.376 Y-20.794 E49.13157
G1 X-25.871 Y-20.794 E49.14656
G1 X-13.258 Y-8.181 E49.67622
G1 X-13.258 Y-8.686 E49.69122
G1 X-25.366 Y-20.794 E50.19966
G1 X-24.861 Y-20.794 E50.21466
G1 X-13.258 Y-9.191 E50.70190
G1 X-13.258 Y-9.696 E50.71690
G1 X-24.356 Y-20.794 E51.18293
G1 X-23.851 Y-20.794 E51.19792
G1 X-13.258 Y-10.201 E51.64275
G1 X-13.258 Y-10.706 E51.65775
G1 X-23.346 Y-20.794 E52.08136
G1 X-22.841 Y-20.794 E52.09636
G1 X-13.258 Y-11.211 E52.49876
G1 X-13.258 Y-11.716 E52.51376
G1 X-22.336 Y-20.794 E52.89496
G1 X-21.831 Y-20.794 E52.90996
G1 X-13.082 Y-12.045 E53.27736
G1 X-12.577 Y-12.045 E53.29235
G1 X-21.326 Y-20.794 E53.65975
G1 X-20.821 Y-20.794 E53.67475
G1 X-12.072 Y-12.045 E54.04215
G1 X-11.567 Y-12.045 E54.05715
G1 X-20.316 Y-20.794 E54.42455
G1 X-19.811 Y-20.794 E54.43954
G1 X-11.062 Y-12.045 E54.80694
G1 X-10.557 Y-12.045 E54.82194
G1 X-19.306 Y-20.794 E55.18934
G1 X-18.801 Y-20.794 E55.20434
G1 X-10.052 Y-12.045 E55.57174
G1 X-9.547 Y-12.045 E55.58673
G1 X-18.296 Y-20.794 E55.95413
G1 X-17.791 Y-20.794 E55.96913
G1 X-9.042 Y-12.045 E56.33653
G1 X-8.537 Y-12.045 E56.35153
G1 X-17.286 Y-20.794 E56.71893
G1 X-16.781 Y-20.794 E56.73392
G1 X-8.032 Y-12.045 E57.10132
G1 X-7.527 Y-12.045 E57.11632
G1 X-16.276 Y-20.794 E57.48372
G1 X-15.771 Y-20.794 E57.49871
G1 X-7.022 Y-12.045 E57.86611
G1 X-6.517 Y-12.045 E57.88111
G1 X-15.265 Y-20.794 E58.24851
G1 X-14.760 Y-20.794 E58.26351
G1 X-6.011 Y-12.045 E58.63091
G1 X-5.506 Y-12.045 E58.64590
G1 X-14.255 Y-20.794 E59.01330
G1 X-13.750 Y-20.794 E59.02830
G1 X-5.001 Y-12.045 E59.39570
G1 X-4.496 Y-12.045 E59.41070
G1 X-13.245 Y-20.794 E59.77810
G1 X-12.740 Y-20.794 E59.79309
G1 X-3.991 Y-12.045 E60.16049
G1 X-3.486 Y-12.045 E60.17549
G1 X-12.235 Y-20.794 E60.54289
G1 X-11.730 Y-20.794 E60.55789
G1 X-2.981 Y-12.045 E60.92529
G1 X-2.476 Y-12.045 E60.94028
G1 X-11.225 Y-20.794 E61.30768
G1 X-10.720 Y-20.794 E61.32268
G1 X-1.971 Y-12.045 E61.69008
G1 X-1.466 Y-12.045 E61.70507
G1 X-10.215 Y-20.794 E62.07247
G1 X-9.710 Y-20.794 E62.08747
G1 X-0.961 Y-12.045 E62.45487
G1 X-0.456 Y-12.045 E62.46987
G1 X-9.205 Y-20.794 E62.83727
G1 X-8.700 Y-20.794 E62.85226
G1 X0.049 Y-12.045 E63.21966
G1 X0.554 Y-12.045 E63.23466
G1 X-8.195 Y-20.794 E63.60206
G1 X-7.690 Y-20.794 E63.61706
G1 X1.059 Y-12.045 E63.98446
G1 X1.564 Y-12.045 E63.99945
G1 X-7.185 Y-20.794 E64.36685
G1 X-6.680 Y-20.794 E64.38185
G1 X2.069 Y-12.045 E64.74925
G1 X2.574 Y-12.045 E64.76425
G1 X-6.175 Y-20.794 E65.13165
G1 X-5.670 Y-20.794 E65.14664
G1 X3.079 Y-12.045 E65.51404
G1 X3.584 Y-12.045 E65.52904
G1 X-5.165 Y-20.794 E65.89644
G1 X-4.660 Y-20.794 E65.91143
G1 X4.089 Y-12.045 E66.27883
G1 X4.594 Y-12.045 E66.29383
G1 X-4.155 Y-20.794 E66.66123
G1 X-3.650 Y-20.794 E66.67623
G1 X5.099 Y-12.045 E67.04363
G1 X5.604 Y-12.045 E67.05862
G1 X-3.145 Y-20.794 E67.42602
G1 X-2.640 Y-20.794 E67.44102
G1 X6.109 Y-12.045 E67.80842
G1 X6.614 Y-12.045 E67.82342
G1 X-2.135 Y-20.794 E68.19082
G1 X-1.630 Y-20.794 E68.20581
G1 X7.119 Y-12.045 E68.57321
G1 X7.624 Y-12.045 E68.58821
G1 X-1.125 Y-20.794 E68.95561
G1 X-0.620 Y-20.794 E68.97060
G1 X8.129 Y-12.045 E69.33800
G1 X8.634 Y-12.045 E69.35300
G1 X-0.115 Y-20.794 E69.72040
G1 X0.391 Y-20.794 E69.73540
G1 X9.139 Y-12.045 E70.10280
G1 X9.645 Y-12.045 E70.11779
G1 X0.896 Y-20.794 E70.48519
G1 X1.401 Y-20.794 E70.50019
G1 X10.150 Y-12.045 E70.86759
G1 X10.655 Y-12.045 E70.88259
G1 X1.906 Y-20.794 E71.24999
G1 X2.411 Y-20.794 E71.26498
G1 X11.160 Y-12.045 E71.63238
G1 X11.665 Y-12.045 E71.64738
G1 X2.916 Y-20.794 E72.01478
G1 X3.421 Y-20.794 E72.02977
G1 X12.170 Y-12.045 E72.39717
G1 X12.675 Y-12.045 E72.41217
G1 X3.926 Y-20.794 E72.77957
G1 X4.431 Y-20.794 E72.79457
G1 X28.864 Y3.639 E73.82060
G1 X28.864 Y3.134 E73.83559
G1 X4.936 Y-20.794 E74.84042
G1 X5.441 Y-20.794 E74.85541
G1 X28.864 Y2.629 E75.83903
G1 X28.864 Y2.124 E75.85403
